;FLAVOR:Marlin
;TIME:444
;Filament used: 0.129483m
;Layer height: 0.2
;MINX:84.968
;MINY:89.534
;MINZ:0.2
;MAXX:124.95
;MAXY:130.466
;MAXZ:2
;Generated with Cura_SteamEngine 4.11.0
M140 S60
M105
M190 S60
M104 S210
M105
M109 S210
M82 ;absolute extrusion mode
; Ender 3 Custom Start G-code
G92 E0 ; Reset Extruder
G28 ; Home all axes
M420 S1 ; Enable ABL Mesh after G28
G1 Z2.0 F3000 ; Move Z Axis up little to prevent scratching of Heat Bed
G1 X0.1 Y20 Z0.3 F5000.0 ; Move to start position
G1 X0.1 Y200.0 Z0.3 F1500.0 E15 ; Draw the first line
G1 X0.4 Y200.0 Z0.3 F5000.0 ; Move to side a little
G1 X0.4 Y20 Z0.3 F1500.0 E30 ; Draw the second line
G92 E0 ; Reset Extruder
G1 Z2.0 F3000 ; Move Z Axis up little to prevent scratching of Heat Bed
G1 X5 Y20 Z0.3 F5000.0 ; Move over to prevent blob squish
G92 E0
G92 E0
G1 F1500 E-6.5
;LAYER_COUNT:10
;LAYER:0
M107
G0 F6000 X88.618 Y93.46 Z0.2
;TYPE:SKIRT
G1 F1500 E0
G1 F1200 X89.307 Y92.823 E0.03121
G1 X90.24 Y92.115 E0.07016
G1 X90.433 Y91.984 E0.07792
G1 X91.231 Y91.49 E0.10914
G1 X91.92 Y91.135 E0.13492
G1 X92.06 Y91.069 E0.14007
G1 X92.925 Y90.706 E0.17127
G1 X93.817 Y90.417 E0.20245
G1 X94.313 Y90.293 E0.21946
G1 X94.577 Y90.233 E0.22846
G1 X95.5 Y90.064 E0.25967
G1 X96.435 Y89.974 E0.29091
G1 X96.681 Y89.961 E0.29911
G1 X97.083 Y89.947 E0.31249
G1 X97.932 Y89.935 E0.34073
G1 X100.389 Y89.933 E0.42245
G1 X103.005 Y89.894 E0.50946
G1 X105.498 Y89.787 E0.59246
G1 X108.198 Y89.586 E0.68251
G1 X108.562 Y89.566 E0.69463
G1 X108.949 Y89.553 E0.70751
G1 X110.149 Y89.534 E0.74743
G1 X111.502 Y89.534 E0.79243
G1 X112.213 Y89.543 E0.81608
G1 X112.555 Y89.553 E0.82746
G1 X112.818 Y89.565 E0.83622
G1 X113.753 Y89.648 E0.86744
G1 X114.676 Y89.81 E0.89861
G1 X115.167 Y89.93 E0.91542
G1 X115.372 Y89.985 E0.92248
G1 X116.267 Y90.266 E0.95368
G1 X117.134 Y90.623 E0.98486
G1 X117.968 Y91.052 E1.01606
G1 X118.501 Y91.376 E1.0368
G1 X118.711 Y91.512 E1.04512
G1 X119.476 Y92.055 E1.07633
G1 X120.192 Y92.661 E1.10752
G1 X120.853 Y93.326 E1.13871
G1 X121.378 Y93.944 E1.16568
G1 X121.555 Y94.169 E1.1752
G1 X122.102 Y94.93 E1.20637
G1 X122.584 Y95.735 E1.23758
G1 X123.135 Y96.918 E1.28099
G1 X123.198 Y97.077 E1.28667
G1 X123.492 Y97.916 E1.31624
G1 X123.824 Y99.006 E1.35414
G1 X123.969 Y99.509 E1.37155
G1 X124.136 Y100.033 E1.38984
G1 X124.209 Y100.27 E1.39809
G1 X124.45 Y101.091 E1.42655
G1 X124.678 Y102.017 E1.45827
G1 X124.707 Y102.161 E1.46316
G1 X124.853 Y103.088 E1.49437
G1 X124.909 Y103.768 E1.51706
G1 X124.92 Y103.982 E1.52419
G1 X124.933 Y104.357 E1.53667
G1 X124.948 Y105.299 E1.568
G1 X124.95 Y116.85 E1.95219
G1 X124.948 Y117.067 E1.95941
G1 X124.929 Y118.04 E1.99178
G1 X124.91 Y118.506 E2.00729
G1 X124.892 Y118.796 E2.01695
G1 X124.794 Y119.729 E2.04816
G1 X124.537 Y120.965 E2.09014
G1 X124.526 Y121.006 E2.09156
G1 X124.276 Y121.814 E2.11969
G1 X124.203 Y122.021 E2.12699
G1 X123.853 Y122.892 E2.15821
G1 X123.314 Y123.934 E2.19723
G1 X123.193 Y124.14 E2.20517
G1 X122.684 Y124.928 E2.23638
G1 X122.178 Y125.587 E2.26401
G1 X122.149 Y125.622 E2.26552
G1 X121.479 Y126.36 E2.29867
G1 X121.3 Y126.54 E2.30712
G1 X120.611 Y127.177 E2.33833
G1 X119.721 Y127.856 E2.37556
G1 X119.546 Y127.976 E2.38262
G1 X118.75 Y128.473 E2.41383
G1 X117.916 Y128.9 E2.44499
G1 X117.417 Y129.114 E2.46305
G1 X117.17 Y129.213 E2.4719
G1 X116.286 Y129.525 E2.50308
G1 X115.375 Y129.761 E2.53438
G1 X115.197 Y129.799 E2.54043
G1 X114.272 Y129.955 E2.57163
G1 X113.488 Y130.025 E2.59781
G1 X113.245 Y130.038 E2.60591
G1 X112.836 Y130.053 E2.61952
G1 X111.99 Y130.065 E2.64766
G1 X111.007 Y130.066 E2.68036
G1 X108.391 Y130.105 E2.76737
G1 X105.901 Y130.211 E2.85027
G1 X103.606 Y130.384 E2.92682
G1 X102.994 Y130.425 E2.94722
G1 X102.821 Y130.434 E2.95298
G1 X102.434 Y130.447 E2.96586
G1 X101.234 Y130.466 E3.00577
G1 X99.721 Y130.465 E3.0561
G1 X99.17 Y130.457 E3.07443
G1 X98.832 Y130.447 E3.08567
G1 X98.567 Y130.435 E3.0945
G1 X97.633 Y130.352 E3.12568
G1 X96.709 Y130.191 E3.15688
G1 X95.806 Y129.952 E3.18795
G1 X95.561 Y129.876 E3.19648
G1 X94.678 Y129.56 E3.22767
G1 X93.825 Y129.17 E3.25887
G1 X92.681 Y128.497 E3.30301
G1 X92.513 Y128.384 E3.30975
G1 X91.758 Y127.828 E3.34093
G1 X91.052 Y127.21 E3.37214
G1 X90.377 Y126.504 E3.40463
G1 X90.222 Y126.327 E3.41245
G1 X89.812 Y125.831 E3.43385
G1 X89.67 Y125.648 E3.44156
G1 X88.216 Y123.825 E3.51912
G1 X87.91 Y123.451 E3.53519
G1 X87.7 Y123.185 E3.54646
G1 X87.422 Y122.823 E3.56164
G1 X86.883 Y122.055 E3.59285
G1 X86.525 Y121.455 E3.61609
G1 X85.93 Y120.214 E3.66186
G1 X85.841 Y119.994 E3.66975
G1 X85.526 Y119.111 E3.70094
G1 X85.29 Y118.21 E3.73191
G1 X85.246 Y118.008 E3.73879
G1 X85.086 Y117.084 E3.76998
G1 X85.009 Y116.232 E3.79843
G1 X84.998 Y116.018 E3.80556
G1 X84.985 Y115.642 E3.81807
G1 X84.97 Y114.697 E3.84951
G1 X84.968 Y103.135 E4.23406
G1 X84.97 Y102.909 E4.24158
G1 X84.99 Y101.925 E4.27431
G1 X85.01 Y101.457 E4.28989
G1 X85.026 Y101.203 E4.29836
G1 X85.125 Y100.271 E4.32953
G1 X85.296 Y99.376 E4.35984
G1 X85.308 Y99.325 E4.36158
G1 X85.642 Y98.186 E4.40106
G1 X85.715 Y97.979 E4.40836
G1 X86.065 Y97.108 E4.43958
G1 X86.604 Y96.066 E4.4786
G1 X86.725 Y95.86 E4.48655
G1 X87.234 Y95.072 E4.51775
G1 X87.74 Y94.413 E4.54538
G1 X87.769 Y94.378 E4.54689
G1 X88.439 Y93.64 E4.58005
G1 X88.618 Y93.46 E4.58849
G0 F6000 X88.902 Y93.742
G1 F1200 X89.579 Y93.118 E4.61911
G1 X90.465 Y92.446 E4.6561
G1 X90.658 Y92.315 E4.66386
G1 X91.441 Y91.831 E4.69447
G1 X92.091 Y91.497 E4.71878
G1 X92.231 Y91.431 E4.72393
G1 X93.08 Y91.075 E4.75455
G1 X94.402 Y90.683 E4.80041
G1 X94.666 Y90.623 E4.80941
G1 X95.572 Y90.458 E4.84004
G1 X96.456 Y90.374 E4.86958
G1 X96.702 Y90.361 E4.87777
G1 X97.09 Y90.347 E4.89068
G1 X97.933 Y90.335 E4.91872
G1 X100.396 Y90.333 E5.00064
G1 X103.028 Y90.294 E5.08819
G1 X105.515 Y90.187 E5.17099
G1 X108.226 Y89.985 E5.26141
G1 X108.582 Y89.965 E5.27327
G1 X108.956 Y89.952 E5.28571
G1 X109.972 Y89.935 E5.31951
G1 X111.502 Y89.934 E5.3704
G1 X112.208 Y89.943 E5.39388
G1 X112.537 Y89.953 E5.40483
G1 X112.8 Y89.965 E5.41359
G1 X113.717 Y90.047 E5.44421
G1 X115.064 Y90.316 E5.48989
G1 X115.269 Y90.371 E5.49695
G1 X116.147 Y90.648 E5.52757
G1 X116.997 Y91 E5.55817
G1 X117.814 Y91.425 E5.5888
G1 X118.284 Y91.712 E5.60712
G1 X118.494 Y91.848 E5.61544
G1 X119.244 Y92.381 E5.64604
G1 X119.945 Y92.978 E5.67667
G1 X120.592 Y93.633 E5.70729
G1 X121.063 Y94.191 E5.73158
G1 X121.24 Y94.416 E5.7411
G1 X121.777 Y95.164 E5.77172
G1 X122.248 Y95.955 E5.80234
G1 X122.764 Y97.065 E5.84306
G1 X122.827 Y97.224 E5.84875
G1 X123.11 Y98.033 E5.87725
G1 X123.44 Y99.117 E5.91494
G1 X123.59 Y99.637 E5.93294
G1 X123.755 Y100.155 E5.95102
G1 X123.825 Y100.382 E5.95892
G1 X124.066 Y101.203 E5.98738
G1 X124.286 Y102.096 E6.01797
G1 X124.315 Y102.24 E6.02286
G1 X124.458 Y103.15 E6.05349
G1 X124.51 Y103.789 E6.07482
G1 X124.521 Y104.003 E6.08195
G1 X124.533 Y104.364 E6.09396
G1 X124.548 Y105.299 E6.12506
G1 X124.55 Y116.85 E6.50925
G1 X124.548 Y117.059 E6.5162
G1 X124.529 Y118.032 E6.54857
G1 X124.511 Y118.482 E6.56355
G1 X124.493 Y118.772 E6.57321
G1 X124.396 Y119.687 E6.60382
G1 X124.151 Y120.862 E6.64374
G1 X124.14 Y120.903 E6.64515
G1 X123.899 Y121.681 E6.67224
G1 X123.826 Y121.888 E6.67954
G1 X123.482 Y122.742 E6.71016
G1 X122.969 Y123.732 E6.74725
G1 X122.848 Y123.938 E6.75519
G1 X122.348 Y124.71 E6.78578
G1 X121.87 Y125.332 E6.81187
G1 X121.841 Y125.367 E6.81339
G1 X121.195 Y126.078 E6.84534
G1 X121.016 Y126.258 E6.85378
G1 X120.339 Y126.882 E6.8844
G1 X119.495 Y127.526 E6.91971
G1 X119.32 Y127.646 E6.92677
G1 X118.538 Y128.133 E6.95741
G1 X117.718 Y128.551 E6.98802
G1 X117.269 Y128.743 E7.00427
G1 X117.022 Y128.842 E7.01312
G1 X116.153 Y129.147 E7.04375
G1 X115.291 Y129.369 E7.07335
G1 X115.113 Y129.407 E7.07941
G1 X114.205 Y129.56 E7.11003
G1 X113.466 Y129.626 E7.13471
G1 X113.223 Y129.639 E7.1428
G1 X112.829 Y129.653 E7.15592
G1 X111.99 Y129.665 E7.18383
G1 X111.001 Y129.666 E7.21672
G1 X108.368 Y129.705 E7.3043
G1 X105.885 Y129.811 E7.38696
G1 X103.578 Y129.985 E7.46391
G1 X102.974 Y130.026 E7.48405
G1 X102.801 Y130.035 E7.48981
G1 X102.427 Y130.048 E7.50226
G1 X101.411 Y130.065 E7.53605
G1 X99.881 Y130.066 E7.58694
G1 X99.176 Y130.057 E7.61039
G1 X98.85 Y130.047 E7.62124
G1 X98.585 Y130.035 E7.63006
G1 X97.668 Y129.954 E7.66068
G1 X96.762 Y129.793 E7.69129
G1 X95.924 Y129.57 E7.72013
G1 X95.679 Y129.494 E7.72866
G1 X94.813 Y129.183 E7.75927
G1 X93.976 Y128.799 E7.78989
G1 X92.904 Y128.165 E7.83132
G1 X92.736 Y128.052 E7.83805
G1 X91.995 Y127.506 E7.86867
G1 X91.304 Y126.897 E7.8993
G1 X90.677 Y126.24 E7.92951
G1 X90.522 Y126.063 E7.93733
G1 X90.128 Y125.585 E7.95793
G1 X90.032 Y125.461 E7.96315
G1 X88.443 Y123.469 E8.0479
G1 X88.22 Y123.197 E8.0596
G1 X88.017 Y122.941 E8.07047
G1 X87.739 Y122.579 E8.08565
G1 X87.211 Y121.825 E8.11626
G1 X86.874 Y121.26 E8.13814
G1 X86.301 Y120.064 E8.18225
G1 X86.212 Y119.844 E8.19015
G1 X85.904 Y118.977 E8.22075
G1 X85.681 Y118.125 E8.25004
G1 X85.637 Y117.923 E8.25692
G1 X85.48 Y117.016 E8.28753
G1 X85.408 Y116.211 E8.31441
G1 X85.397 Y115.997 E8.32154
G1 X85.385 Y115.635 E8.33359
G1 X85.37 Y114.697 E8.36479
G1 X85.368 Y103.135 E8.74934
G1 X85.37 Y102.918 E8.75656
G1 X85.39 Y101.934 E8.7893
G1 X85.409 Y101.483 E8.80431
G1 X85.425 Y101.229 E8.81277
G1 X85.523 Y100.313 E8.84341
G1 X85.686 Y99.467 E8.87207
G1 X85.698 Y99.416 E8.87381
G1 X86.019 Y98.319 E8.91183
G1 X86.092 Y98.112 E8.91913
G1 X86.436 Y97.258 E8.94975
G1 X86.949 Y96.268 E8.98684
G1 X87.07 Y96.062 E8.99478
G1 X87.57 Y95.29 E9.02537
G1 X88.048 Y94.668 E9.05147
G1 X88.077 Y94.633 E9.05298
G1 X88.723 Y93.922 E9.08493
G1 X88.902 Y93.742 E9.09337
G0 F6000 X89.185 Y94.024
G1 F1200 X89.85 Y93.412 E9.12343
G1 X90.69 Y92.776 E9.15847
G1 X90.883 Y92.645 E9.16623
G1 X91.652 Y92.172 E9.19626
G1 X92.262 Y91.859 E9.21906
G1 X92.402 Y91.793 E9.22421
G1 X93.235 Y91.444 E9.25425
G1 X94.49 Y91.073 E9.29778
G1 X94.754 Y91.013 E9.30678
G1 X95.643 Y90.852 E9.33683
G1 X96.477 Y90.773 E9.36469
G1 X96.723 Y90.76 E9.37289
G1 X97.096 Y90.747 E9.3853
G1 X97.933 Y90.735 E9.41314
G1 X100.402 Y90.733 E9.49526
G1 X103.017 Y90.694 E9.58225
G1 X105.561 Y90.585 E9.66694
G1 X108.254 Y90.384 E9.75676
G1 X108.603 Y90.365 E9.76838
G1 X108.962 Y90.352 E9.78033
G1 X109.978 Y90.335 E9.81413
G1 X111.502 Y90.334 E9.86482
G1 X112.202 Y90.343 E9.8881
G1 X112.519 Y90.353 E9.89865
G1 X112.782 Y90.365 E9.90741
G1 X113.681 Y90.446 E9.93743
G1 X114.96 Y90.702 E9.98081
G1 X115.165 Y90.757 E9.98787
G1 X116.026 Y91.03 E10.01791
G1 X116.86 Y91.377 E10.04796
G1 X117.659 Y91.797 E10.07798
G1 X118.067 Y92.048 E10.09391
G1 X118.277 Y92.184 E10.10223
G1 X119.012 Y92.708 E10.13226
G1 X119.698 Y93.295 E10.16229
G1 X120.33 Y93.94 E10.19232
G1 X120.749 Y94.439 E10.21399
G1 X120.926 Y94.664 E10.22351
G1 X121.452 Y95.397 E10.25352
G1 X121.912 Y96.175 E10.28358
G1 X122.392 Y97.213 E10.32162
G1 X122.455 Y97.372 E10.32731
G1 X122.727 Y98.15 E10.35472
G1 X123.055 Y99.228 E10.3922
G1 X123.197 Y99.72 E10.40923
G1 X123.374 Y100.276 E10.42864
G1 X123.441 Y100.495 E10.43625
G1 X123.682 Y101.316 E10.46471
G1 X123.894 Y102.175 E10.49414
G1 X123.923 Y102.319 E10.49902
G1 X124.062 Y103.212 E10.52908
G1 X124.111 Y103.809 E10.54901
G1 X124.122 Y104.023 E10.55613
G1 X124.133 Y104.371 E10.56771
G1 X124.148 Y105.299 E10.59858
G1 X124.15 Y116.85 E10.98277
G1 X124.148 Y117.051 E10.98946
G1 X124.129 Y118.024 E11.02183
G1 X124.111 Y118.457 E11.03624
G1 X124.093 Y118.747 E11.0459
G1 X123.998 Y119.645 E11.07594
G1 X123.765 Y120.758 E11.11376
G1 X123.754 Y120.799 E11.11517
G1 X123.521 Y121.548 E11.14126
G1 X123.448 Y121.755 E11.14856
G1 X123.111 Y122.593 E11.1786
G1 X122.624 Y123.529 E11.21369
G1 X122.503 Y123.735 E11.22164
G1 X122.012 Y124.493 E11.25168
G1 X121.562 Y125.077 E11.2762
G1 X121.533 Y125.112 E11.27771
G1 X120.912 Y125.796 E11.30844
G1 X120.733 Y125.976 E11.31688
G1 X120.068 Y126.588 E11.34694
G1 X119.268 Y127.196 E11.38036
G1 X119.093 Y127.316 E11.38742
G1 X118.327 Y127.793 E11.41743
G1 X117.12 Y128.372 E11.46196
G1 X116.873 Y128.471 E11.47081
G1 X116.02 Y128.769 E11.50086
G1 X115.208 Y128.978 E11.52875
G1 X115.03 Y129.016 E11.5348
G1 X114.139 Y129.165 E11.56485
G1 X113.445 Y129.226 E11.58802
G1 X113.202 Y129.239 E11.59611
G1 X112.823 Y129.253 E11.60873
G1 X111.989 Y129.265 E11.63647
G1 X110.995 Y129.266 E11.66953
G1 X108.381 Y129.305 E11.75648
G1 X105.838 Y129.414 E11.84114
G1 X103.55 Y129.586 E11.91745
G1 X102.953 Y129.626 E11.93736
G1 X102.78 Y129.635 E11.94312
G1 X102.421 Y129.648 E11.95507
G1 X101.405 Y129.665 E11.98886
G1 X99.881 Y129.666 E12.03955
G1 X99.182 Y129.657 E12.0628
G1 X98.869 Y129.648 E12.07322
G1 X98.604 Y129.636 E12.08204
G1 X97.704 Y129.555 E12.11209
G1 X96.815 Y129.395 E12.14214
G1 X96.043 Y129.188 E12.16872
G1 X95.798 Y129.112 E12.17725
G1 X94.948 Y128.807 E12.20729
G1 X94.129 Y128.427 E12.23732
G1 X93.127 Y127.834 E12.27604
G1 X92.959 Y127.721 E12.28278
G1 X92.233 Y127.184 E12.31281
G1 X91.557 Y126.585 E12.34285
G1 X90.978 Y125.977 E12.37078
G1 X90.823 Y125.8 E12.3786
G1 X90.444 Y125.34 E12.39843
G1 X90.345 Y125.212 E12.40381
G1 X88.756 Y123.22 E12.48856
G1 X88.53 Y122.944 E12.50043
G1 X88.334 Y122.698 E12.51089
G1 X88.056 Y122.336 E12.52607
G1 X87.538 Y121.596 E12.55611
G1 X87.223 Y121.065 E12.57665
G1 X86.671 Y119.914 E12.6191
G1 X86.582 Y119.694 E12.627
G1 X86.281 Y118.843 E12.65702
G1 X86.072 Y118.04 E12.68462
G1 X86.028 Y117.838 E12.69149
G1 X85.875 Y116.948 E12.72153
G1 X85.807 Y116.191 E12.74681
G1 X85.796 Y115.977 E12.75393
G1 X85.784 Y115.628 E12.76555
G1 X85.771 Y114.87 E12.79076
G1 X85.768 Y103.135 E13.18107
G1 X85.77 Y102.926 E13.18802
G1 X85.79 Y101.942 E13.22076
G1 X85.808 Y101.508 E13.23521
G1 X85.824 Y101.254 E13.24367
G1 X85.921 Y100.356 E13.27371
G1 X86.075 Y99.559 E13.30071
G1 X86.087 Y99.508 E13.30245
G1 X86.397 Y98.452 E13.33906
G1 X86.47 Y98.245 E13.34636
G1 X86.807 Y97.407 E13.3764
G1 X87.294 Y96.471 E13.41149
G1 X87.415 Y96.265 E13.41944
G1 X87.906 Y95.507 E13.44948
G1 X88.356 Y94.923 E13.474
G1 X88.385 Y94.888 E13.47551
G1 X89.006 Y94.204 E13.50624
G1 X89.185 Y94.024 E13.51468
G1 F1500 E7.01468
;MESH:Circuit_Board_-_2.stl
G0 F6000 X95.338 Y101.78
G0 X96.287 Y102.152
G0 X96.433 Y107.055
G0 X96.773 Y107.379
G0 X97.639 Y108.081
;TYPE:WALL-INNER
G1 F1500 E13.51468
G1 F1200 X97.697 Y108.318 E13.5228
G1 X98.15 Y110.167 E13.58611
G1 X98.859 Y110.219 E13.60976
G1 X99.626 Y110.459 E13.63649
G1 X99.833 Y110.523 E13.64369
G1 X99.879 Y110.311 E13.64825
G1 X99.924 Y110.107 E13.65519
G1 X100.005 Y109.743 E13.6676
G1 X100.138 Y110.153 E13.67257
G1 X100.199 Y110.446 E13.68252
G1 X100.354 Y111.184 E13.7076
G1 X102.034 Y111.154 E13.76349
G1 X102.183 Y110.045 E13.8007
G1 X102.117 Y109.578 E13.81639
G1 X102.002 Y109.309 E13.82612
G1 X101.998 Y109.284 E13.82696
G1 X102.644 Y107.857 E13.87906
G1 X102.848 Y107.409 E13.89543
G1 X102.848 Y107.901 E13.90381
G1 X102.849 Y115.462 E14.15529
G1 X102.806 Y115.614 E14.16054
G1 X102.669 Y115.716 E14.16622
G1 X102.521 Y115.757 E14.17133
G1 X102.509 Y115.761 E14.17175
G1 X102.509 Y115.717
G1 X100.417 Y115.717 E14.24133
G1 X100.373 Y115.716 E14.2428
G1 X100.417 Y115.584 E14.24525
G1 X99.875 Y115.119 E14.269
G1 X99.441 Y114.456 E14.29535
G1 X98.278 Y114.514 E14.33408
G1 X97.923 Y115.2 E14.35977
G1 X97.524 Y115.716 E14.38147
G1 X97.226 Y115.716 E14.39138
G1 X97.027 Y115.637 E14.3985
G1 X96.971 Y115.482 E14.40398
G1 X96.969 Y108.399 E14.63956
G1 X97.419 Y108.185 E14.65614
G1 X97.639 Y108.081 E14.66109
G0 F6000 X97.618 Y107.648
G1 F1200 X97.732 Y107.594 E14.66529
G1 X97.724 Y107.484 E14.66896
G1 X97.712 Y107.333 E14.67399
G1 X97.684 Y107.001 E14.68507
G1 X97.685 Y106.727 E14.69419
G1 X97.708 Y106.449 E14.70347
G1 X97.753 Y106.185 E14.71237
G1 X97.823 Y105.916 E14.72162
G1 X97.911 Y105.663 E14.73053
G1 X98.022 Y105.415 E14.73956
G1 X98.153 Y105.158 E14.74916
G1 X98.166 Y104.778 E14.76181
G1 X98.216 Y104.419 E14.77386
G1 X98.287 Y104.162 E14.78273
G1 X98.478 Y103.731 E14.79841
G1 X98.599 Y103.541 E14.8059
G1 X98.766 Y103.327 E14.81493
G1 X99.079 Y102.982 E14.83042
G1 X99.406 Y102.764 E14.84349
G1 X99.741 Y102.669 E14.85508
G1 X99.885 Y102.266 E14.86931
G1 X100.179 Y101.755 E14.88892
