;FLAVOR:Marlin
;TIME:3762
;Filament used: 1.52893m
;Layer height: 0.12
;MINX:86.537
;MINY:88.693
;MINZ:0.2
;MAXX:133.463
;MAXY:140.369
;MAXZ:11.24
;Generated with Cura_SteamEngine 4.11.0
M140 S60
M105
M190 S60
M104 S210
M105
M109 S210
M82 ;absolute extrusion mode
; Ender 3 Custom Start G-code
G92 E0 ; Reset Extruder
G28 ; Home all axes
M420 S1 ; Enable ABL Mesh after G28
G1 Z2.0 F3000 ; Move Z Axis up little to prevent scratching of Heat Bed
G1 X0.1 Y20 Z0.3 F5000.0 ; Move to start position
G1 X0.1 Y200.0 Z0.3 F1500.0 E15 ; Draw the first line
G1 X0.4 Y200.0 Z0.3 F5000.0 ; Move to side a little
G1 X0.4 Y20 Z0.3 F1500.0 E30 ; Draw the second line
G92 E0 ; Reset Extruder
G1 Z2.0 F3000 ; Move Z Axis up little to prevent scratching of Heat Bed
G1 X5 Y20 Z0.3 F5000.0 ; Move over to prevent blob squish
G92 E0
G92 E0
G1 F1500 E-6.5
;LAYER_COUNT:93
;LAYER:0
M107
G0 F6000 X90.22 Y91.671 Z0.2
;TYPE:SKIRT
G1 F1500 E0
G1 F1200 X90.936 Y91.065 E0.0312
G1 X91.702 Y90.523 E0.06241
G1 X92.51 Y90.048 E0.09358
G1 X93.356 Y89.644 E0.12476
G1 X94.542 Y89.217 E0.16669
G1 X94.697 Y89.171 E0.17207
G1 X95.607 Y88.942 E0.20328
G1 X96.533 Y88.792 E0.23448
G1 X97.596 Y88.718 E0.26992
G1 X98.644 Y88.696 E0.30478
G1 X98.875 Y88.694 E0.31247
G1 X103.392 Y88.695 E0.4627
G1 X104.349 Y88.709 E0.49454
G1 X107.754 Y88.696 E0.60779
G1 X107.999 Y88.693 E0.61594
G1 X112.489 Y88.695 E0.76528
G1 X113.449 Y88.709 E0.79721
G1 X116.871 Y88.696 E0.91103
G1 X117.117 Y88.693 E0.91921
G1 X121.622 Y88.695 E1.06904
G1 X122.316 Y88.705 E1.09213
G1 X123.253 Y88.759 E1.12335
G1 X124.181 Y88.892 E1.15453
G1 X125.095 Y89.103 E1.18573
G1 X125.987 Y89.392 E1.21691
G1 X127.257 Y89.957 E1.26314
G1 X127.494 Y90.081 E1.27204
G1 X128.306 Y90.551 E1.30325
G1 X129.075 Y91.089 E1.33446
G1 X129.795 Y91.689 E1.36563
G1 X130.461 Y92.349 E1.39682
G1 X131.069 Y93.064 E1.42804
G1 X131.614 Y93.827 E1.45922
G1 X132.092 Y94.634 E1.49042
G1 X132.499 Y95.479 E1.52161
G1 X132.946 Y96.717 E1.56539
G1 X132.992 Y96.873 E1.5708
G1 X133.219 Y97.783 E1.60199
G1 X133.367 Y98.709 E1.63318
G1 X133.439 Y99.75 E1.66789
G1 X133.461 Y100.782 E1.70222
G1 X133.463 Y101.016 E1.71001
G1 X133.463 Y113.735 E2.13304
G1 X133.459 Y114.763 E2.16723
G1 X133.463 Y115.334 E2.18623
G1 X133.462 Y119.456 E2.32332
G1 X133.452 Y120.158 E2.34668
G1 X133.399 Y121.094 E2.37786
G1 X133.266 Y122.022 E2.40904
G1 X133.13 Y122.648 E2.43034
G1 X133.023 Y123.06 E2.4445
G1 X132.791 Y123.899 E2.47345
G1 X132.127 Y126.435 E2.56065
G1 X131.553 Y128.91 E2.64515
G1 X131.15 Y130.911 E2.71304
G1 X131.065 Y131.307 E2.72651
G1 X130.991 Y131.629 E2.7375
G1 X130.94 Y131.836 E2.74459
G1 X130.677 Y132.737 E2.77581
G1 X130.338 Y133.611 E2.80699
G1 X129.926 Y134.454 E2.83819
G1 X129.444 Y135.258 E2.86937
G1 X128.895 Y136.019 E2.90058
G1 X128.283 Y136.729 E2.93176
G1 X127.613 Y137.386 E2.96297
G1 X126.889 Y137.982 E2.99416
G1 X126.117 Y138.515 E3.02536
G1 X125.631 Y138.804 E3.04417
G1 X125.388 Y138.94 E3.05343
G1 X124.551 Y139.363 E3.08462
G1 X123.681 Y139.713 E3.11581
G1 X122.784 Y139.987 E3.14701
G1 X121.867 Y140.184 E3.1782
G1 X120.937 Y140.302 E3.20938
G1 X120.246 Y140.339 E3.2324
G1 X119.193 Y140.361 E3.26743
G1 X118.966 Y140.363 E3.27498
G1 X115.518 Y140.363 E3.38966
G1 X113.739 Y140.369 E3.44883
G1 X113.583 Y140.363 E3.45402
G1 X100.542 Y140.363 E3.88777
G1 X99.86 Y140.353 E3.91045
G1 X98.923 Y140.299 E3.94167
G1 X97.995 Y140.166 E3.97285
G1 X97.081 Y139.954 E4.00406
G1 X96.189 Y139.665 E4.03524
G1 X95.325 Y139.301 E4.06643
G1 X94.761 Y139.015 E4.08746
G1 X94.48 Y138.862 E4.0981
G1 X93.676 Y138.379 E4.1293
G1 X92.916 Y137.829 E4.1605
G1 X92.206 Y137.216 E4.1917
G1 X91.551 Y136.545 E4.22289
G1 X90.955 Y135.821 E4.25408
G1 X90.423 Y135.048 E4.28529
G1 X89.959 Y134.234 E4.31645
G1 X89.566 Y133.382 E4.34766
G1 X89.246 Y132.5 E4.37886
G1 X89.11 Y132.03 E4.39514
G1 X89.077 Y131.906 E4.39941
G1 X88.921 Y131.234 E4.42235
G1 X88.72 Y130.23 E4.45641
G1 X88.176 Y127.692 E4.54274
G1 X87.589 Y125.286 E4.62511
G1 X87.016 Y123.219 E4.69645
G1 X86.917 Y122.84 E4.70948
G1 X86.719 Y121.923 E4.74068
G1 X86.6 Y120.993 E4.77187
G1 X86.562 Y120.292 E4.79521
G1 X86.539 Y119.2 E4.83154
G1 X86.537 Y118.968 E4.83926
G1 X86.537 Y106.265 E5.26176
G1 X86.541 Y105.237 E5.29595
G1 X86.537 Y104.666 E5.31495
G1 X86.538 Y100.522 E5.45278
G1 X86.548 Y99.838 E5.47553
G1 X86.602 Y98.902 E5.50671
G1 X86.735 Y97.974 E5.53789
G1 X86.947 Y97.06 E5.5691
G1 X87.236 Y96.168 E5.60029
G1 X87.6 Y95.303 E5.6315
G1 X87.817 Y94.867 E5.6477
G1 X87.942 Y94.63 E5.65661
G1 X88.415 Y93.82 E5.68781
G1 X88.955 Y93.053 E5.71901
G1 X89.558 Y92.335 E5.75019
G1 X90.22 Y91.671 E5.78138
G0 F6000 X90.541 Y91.919
G1 F1200 X91.248 Y91.33 E5.81198
G1 X92.004 Y90.805 E5.8426
G1 X92.803 Y90.347 E5.87323
G1 X93.638 Y89.96 E5.90384
G1 X94.656 Y89.6 E5.93975
G1 X94.811 Y89.554 E5.94513
G1 X95.704 Y89.331 E5.97574
G1 X96.614 Y89.186 E6.00639
G1 X97.605 Y89.118 E6.03943
G1 X98.653 Y89.096 E6.07429
G1 X98.875 Y89.094 E6.08168
G1 X103.386 Y89.095 E6.23171
G1 X104.344 Y89.109 E6.26358
G1 X107.763 Y89.096 E6.3773
G1 X107.998 Y89.093 E6.38511
G1 X112.483 Y89.095 E6.53429
G1 X113.444 Y89.109 E6.56625
G1 X116.88 Y89.096 E6.68054
G1 X117.116 Y89.093 E6.68839
G1 X121.617 Y89.095 E6.83809
G1 X122.311 Y89.105 E6.86117
G1 X123.23 Y89.158 E6.89179
G1 X124.141 Y89.291 E6.92241
G1 X125.037 Y89.502 E6.95303
G1 X125.911 Y89.791 E6.98365
G1 X127.072 Y90.312 E7.02597
G1 X127.309 Y90.436 E7.03487
G1 X128.105 Y90.898 E7.06548
G1 X128.859 Y91.427 E7.09611
G1 X129.563 Y92.019 E7.12671
G1 X130.214 Y92.671 E7.15735
G1 X130.806 Y93.376 E7.18797
G1 X131.334 Y94.131 E7.21861
G1 X131.794 Y94.928 E7.24922
G1 X132.184 Y95.762 E7.27984
G1 X132.562 Y96.83 E7.31752
G1 X132.608 Y96.986 E7.32293
G1 X132.83 Y97.88 E7.35357
G1 X132.973 Y98.789 E7.38418
G1 X133.039 Y99.758 E7.41648
G1 X133.061 Y100.79 E7.45081
G1 X133.063 Y101.016 E7.45833
G1 X133.063 Y113.734 E7.88133
G1 X133.059 Y114.766 E7.91566
G1 X133.063 Y115.337 E7.93465
G1 X133.062 Y119.45 E8.07145
G1 X133.052 Y120.152 E8.0948
G1 X132.999 Y121.071 E8.12541
G1 X132.866 Y121.982 E8.15604
G1 X132.741 Y122.552 E8.17544
G1 X132.638 Y122.953 E8.18921
G1 X132.401 Y123.808 E8.21872
G1 X131.736 Y126.349 E8.30608
G1 X131.166 Y128.807 E8.39001
G1 X130.759 Y130.827 E8.45854
G1 X130.674 Y131.223 E8.47201
G1 X130.602 Y131.534 E8.48263
G1 X130.551 Y131.741 E8.48972
G1 X130.292 Y132.624 E8.52033
G1 X129.958 Y133.482 E8.55095
G1 X129.55 Y134.307 E8.58156
G1 X129.072 Y135.094 E8.61219
G1 X128.528 Y135.837 E8.64282
G1 X127.921 Y136.529 E8.67343
G1 X127.257 Y137.167 E8.70406
G1 X126.54 Y137.744 E8.73467
G1 X125.436 Y138.455 E8.77835
G1 X125.193 Y138.591 E8.78761
G1 X124.371 Y139.005 E8.81822
G1 X123.516 Y139.347 E8.84885
G1 X122.634 Y139.613 E8.87949
G1 X121.733 Y139.801 E8.9101
G1 X120.819 Y139.911 E8.94072
G1 X120.237 Y139.939 E8.9601
G1 X119.184 Y139.961 E8.99513
G1 X118.966 Y139.963 E9.00238
G1 X115.523 Y139.963 E9.1169
G1 X113.737 Y139.969 E9.1763
G1 X113.588 Y139.963 E9.18126
G1 X100.548 Y139.963 E9.61497
G1 X99.866 Y139.953 E9.63766
G1 X98.946 Y139.899 E9.66831
G1 X98.036 Y139.766 E9.6989
G1 X97.139 Y139.555 E9.72954
G1 X96.265 Y139.266 E9.76016
G1 X95.419 Y138.903 E9.79078
G1 X94.952 Y138.663 E9.80824
G1 X94.671 Y138.51 E9.81889
G1 X93.882 Y138.036 E9.8495
G1 X93.138 Y137.494 E9.88012
G1 X92.443 Y136.89 E9.91074
G1 X91.804 Y136.228 E9.94134
G1 X91.224 Y135.512 E9.97199
G1 X90.708 Y134.75 E10.0026
G1 X90.261 Y133.945 E10.03322
G1 X89.885 Y133.105 E10.06383
G1 X89.497 Y131.927 E10.10509
G1 X89.464 Y131.803 E10.10935
G1 X89.313 Y131.156 E10.13145
G1 X89.108 Y130.132 E10.16618
G1 X88.562 Y127.585 E10.25282
G1 X87.976 Y125.181 E10.33512
G1 X87.403 Y123.118 E10.40633
G1 X87.304 Y122.739 E10.41936
G1 X87.11 Y121.839 E10.44998
G1 X86.995 Y120.926 E10.48059
G1 X86.962 Y120.283 E10.50201
G1 X86.939 Y119.191 E10.53833
G1 X86.937 Y118.968 E10.54575
G1 X86.937 Y106.266 E10.96822
G1 X86.941 Y105.234 E11.00255
G1 X86.937 Y104.663 E11.02154
G1 X86.938 Y100.528 E11.15907
G1 X86.948 Y99.844 E11.18182
G1 X87.002 Y98.925 E11.21244
G1 X87.135 Y98.014 E11.24306
G1 X87.346 Y97.118 E11.27368
G1 X87.635 Y96.244 E11.30429
G1 X88.171 Y95.054 E11.3477
G1 X88.296 Y94.817 E11.35662
G1 X88.761 Y94.022 E11.38725
G1 X89.292 Y93.27 E11.41787
G1 X89.887 Y92.568 E11.44847
G1 X90.541 Y91.919 E11.47912
G0 F6000 X90.861 Y92.169
G1 F1200 X91.559 Y91.597 E11.50913
G1 X92.306 Y91.088 E11.5392
G1 X93.094 Y90.647 E11.56923
G1 X93.918 Y90.278 E11.59926
G1 X94.77 Y89.984 E11.62924
G1 X94.925 Y89.938 E11.63462
G1 X95.801 Y89.719 E11.66465
G1 X96.694 Y89.579 E11.69471
G1 X97.613 Y89.518 E11.72535
G1 X98.661 Y89.496 E11.76021
G1 X98.875 Y89.494 E11.76733
G1 X103.381 Y89.495 E11.9172
G1 X104.341 Y89.509 E11.94913
G1 X107.663 Y89.497 E12.05962
G1 X107.998 Y89.493 E12.07077
G1 X112.477 Y89.495 E12.21974
G1 X113.44 Y89.509 E12.25177
G1 X116.781 Y89.497 E12.36289
G1 X117.116 Y89.493 E12.37404
G1 X121.611 Y89.495 E12.52354
G1 X122.305 Y89.505 E12.54663
G1 X123.207 Y89.558 E12.57668
G1 X124.1 Y89.691 E12.60671
G1 X124.978 Y89.902 E12.63674
G1 X125.834 Y90.189 E12.66677
G1 X126.887 Y90.666 E12.70522
G1 X127.124 Y90.79 E12.71411
G1 X127.904 Y91.244 E12.74413
G1 X128.642 Y91.765 E12.77418
G1 X129.331 Y92.349 E12.80422
G1 X129.965 Y92.992 E12.83425
G1 X130.54 Y93.688 E12.86428
G1 X131.051 Y94.433 E12.89433
G1 X131.495 Y95.22 E12.92438
G1 X131.867 Y96.043 E12.95442
G1 X132.179 Y96.943 E12.9861
G1 X132.225 Y97.099 E12.99151
G1 X132.441 Y97.976 E13.02155
G1 X132.58 Y98.868 E13.05158
G1 X132.639 Y99.767 E13.08154
G1 X132.661 Y100.799 E13.11588
G1 X132.663 Y101.016 E13.12309
G1 X132.663 Y113.733 E13.54606
G1 X132.659 Y114.769 E13.58052
G1 X132.663 Y115.34 E13.59951
G1 X132.662 Y119.444 E13.73601
G1 X132.652 Y120.146 E13.75936
G1 X132.599 Y121.048 E13.78942
G1 X132.467 Y121.941 E13.81944
G1 X132.353 Y122.456 E13.83698
G1 X132.253 Y122.846 E13.85038
G1 X132.001 Y123.757 E13.88181
G1 X131.347 Y126.255 E13.9677
G1 X130.778 Y128.71 E14.05152
G1 X130.368 Y130.743 E14.12049
G1 X130.283 Y131.139 E14.13397
G1 X130.214 Y131.438 E14.14417
G1 X130.163 Y131.645 E14.15126
G1 X129.908 Y132.512 E14.18132
G1 X129.578 Y133.352 E14.21134
G1 X129.175 Y134.16 E14.24137
G1 X128.701 Y134.929 E14.27141
G1 X128.162 Y135.654 E14.30146
G1 X127.561 Y136.327 E14.33147
G1 X126.902 Y136.945 E14.36152
G1 X126.191 Y137.503 E14.39158
G1 X125.241 Y138.106 E14.42901
G1 X124.998 Y138.242 E14.43827
G1 X124.191 Y138.648 E14.46831
G1 X123.351 Y138.98 E14.49836
G1 X122.485 Y139.238 E14.52841
G1 X121.6 Y139.417 E14.55844
G1 X120.703 Y139.518 E14.58846
G1 X120.229 Y139.539 E14.60425
G1 X119.176 Y139.561 E14.63928
G1 X118.966 Y139.563 E14.64626
G1 X115.529 Y139.563 E14.76058
G1 X113.736 Y139.569 E14.82021
G1 X113.59 Y139.563 E14.82507
G1 X100.553 Y139.563 E15.25868
G1 X99.871 Y139.553 E15.28137
G1 X98.97 Y139.5 E15.31139
G1 X98.077 Y139.367 E15.34142
G1 X97.199 Y139.156 E15.37145
G1 X96.343 Y138.868 E15.40149
G1 X95.143 Y138.312 E15.44548
G1 X94.862 Y138.159 E15.45612
G1 X94.089 Y137.693 E15.48614
G1 X93.36 Y137.16 E15.51618
G1 X92.681 Y136.564 E15.54623
G1 X92.058 Y135.911 E15.57625
G1 X91.494 Y135.205 E15.6063
G1 X90.995 Y134.452 E15.63634
G1 X90.565 Y133.658 E15.66638
G1 X90.207 Y132.829 E15.69641
G1 X89.883 Y131.824 E15.73153
G1 X89.85 Y131.7 E15.7358
G1 X89.705 Y131.077 E15.75707
G1 X89.499 Y130.048 E15.79198
G1 X88.957 Y127.52 E15.87797
G1 X88.36 Y125.069 E15.96187
G1 X87.79 Y123.017 E16.03271
G1 X87.691 Y122.638 E16.04574
G1 X87.502 Y121.755 E16.07577
G1 X87.391 Y120.859 E16.1058
G1 X87.362 Y120.275 E16.12525
G1 X87.339 Y119.183 E16.16158
G1 X87.337 Y118.968 E16.16873
G1 X87.337 Y106.267 E16.59116
G1 X87.341 Y105.231 E16.62562
G1 X87.337 Y104.66 E16.64461
G1 X87.338 Y100.534 E16.78185
G1 X87.348 Y99.85 E16.8046
G1 X87.401 Y98.948 E16.83465
G1 X87.534 Y98.055 E16.86468
G1 X87.745 Y97.177 E16.89471
G1 X88.033 Y96.321 E16.92475
G1 X88.525 Y95.241 E16.96422
G1 X88.65 Y95.004 E16.97314
G1 X89.106 Y94.224 E17.00319
G1 X89.63 Y93.488 E17.03324
G1 X90.216 Y92.801 E17.06327
G1 X90.861 Y92.169 E17.0933
G1 F1500 E10.5933
;MESH:Switch_X4.stl(1)
G0 F6000 X97.158 Y99.323
G0 X97.951 Y100.108
G0 X98.537 Y100.694
;TYPE:WALL-INNER
G1 F1500 E17.0933
G1 F1200 X103.263 Y100.694 E17.25049
G1 X103.264 Y104.105 E17.36394
G1 X103.264 Y104.304 E17.37056
G1 X103.065 Y104.304 E17.37484
G1 X102.764 Y104.304 E17.38485
G1 X102.763 Y106.804 E17.468
G1 X102.763 Y107.003 E17.47462
G1 X102.962 Y107.003 E17.47891
G1 X103.263 Y107.003 E17.48892
G1 X103.264 Y119.108 E17.89153
G1 X103.264 Y119.307 E17.89815
G1 X103.065 Y119.307 E17.90243
G1 X98.537 Y119.306 E18.05303
G1 X98.537 Y107.003 E18.46223
G1 X99.036 Y107.003 E18.47883
G1 X99.036 Y104.303 E18.56863
G1 X98.537 Y104.303 E18.58523
G1 X98.537 Y100.694 E18.70527
G0 F6000 X98.137 Y100.294
G1 F1200 X103.663 Y100.294 E18.88906
G1 X103.664 Y104.505 E19.02912
G1 X103.664 Y104.704 E19.03574
G1 X103.465 Y104.704 E19.04002
G1 X103.164 Y104.704 E19.05003
G1 X103.163 Y106.404 E19.10657
G1 X103.163 Y106.603 E19.11319
G1 X103.362 Y106.603 E19.11748
G1 X103.663 Y106.603 E19.12749
G1 X103.664 Y119.508 E19.55671
G1 X103.664 Y119.707 E19.56333
G1 X103.465 Y119.707 E19.56761
G1 X98.137 Y119.706 E19.74482
G1 X98.137 Y106.603 E20.18063
G1 X98.636 Y106.603 E20.19722
G1 X98.636 Y104.703 E20.26042
G1 X98.137 Y104.703 E20.27701
G1 X98.137 Y100.294 E20.42366
G0 F6000 X97.788 Y99.915
;TYPE:WALL-OUTER
G1 F1200 X97.865 Y99.894 E20.42631
G1 X103.939 Y99.894 E20.62834
G1 X104.042 Y99.945 E20.63216
G1 X104.063 Y100.022 E20.63481
G1 X104.064 Y104.98 E20.79972
G1 X104.012 Y105.083 E20.80355
G1 X103.937 Y105.104 E20.80614
G1 X103.564 Y105.104 E20.81855
G1 X103.563 Y106.203 E20.8551
G1 X103.939 Y106.203 E20.86761
G1 X104.042 Y106.254 E20.87143
G1 X104.063 Y106.331 E20.87409
G1 X104.064 Y119.983 E21.32815
G1 X104.012 Y120.086 E21.33199
G1 X103.937 Y120.107 E21.33458
G1 X97.861 Y120.106 E21.53667
G1 X97.758 Y120.055 E21.54049
G1 X97.737 Y119.979 E21.54312
G1 X97.737 Y106.327 E21.99718
G1 X97.789 Y106.224 E22.00102
G1 X97.864 Y106.203 E22.00361
G1 X98.236 Y106.203 E22.01598
G1 X98.236 Y105.103 E22.05257
G1 X97.862 Y105.103 E22.06501
G1 X97.758 Y105.05 E22.06889
G1 X97.737 Y104.975 E22.07148
G1 X97.737 Y100.018 E22.23635
G1 X97.788 Y99.915 E22.24018
G0 F6000 X98.007 Y100.164
G0 X98.927 Y100.804
G0 X98.927 Y101.084
;TYPE:SKIN
G1 F1200 X102.873 Y101.084 E22.37142
G1 X102.874 Y103.914 E22.46555
G1 X102.374 Y103.914 E22.48218
G1 X102.373 Y107.393 E22.59789
G1 X102.873 Y107.393 E22.61452
G1 X102.874 Y118.917 E22.99781
G1 X98.927 Y118.916 E23.12909
G1 X98.927 Y107.393 E23.51234
G1 X99.426 Y107.393 E23.52894
G1 X99.426 Y103.913 E23.64468
G1 X98.927 Y103.913 E23.66128
G1 X98.927 Y101.084 E23.75537
G0 F6000 X98.927 Y100.804
G0 X102.375 Y100.804
G0 X102.375 Y101.244
G1 F1200 X102.712 Y101.581 E23.77123
G0 F6000 X102.712 Y102.147
G1 F1200 X101.809 Y101.244 E23.8137
G0 F6000 X101.244 Y101.244
G1 F1200 X102.713 Y102.713 E23.8828
G0 F6000 X102.713 Y103.279
G1 F1200 X100.678 Y101.244 E23.97852
G0 F6000 X100.112 Y101.244
G1 F1200 X102.621 Y103.753 E24.09653
G0 F6000 X102.214 Y103.911
G1 F1200 X99.547 Y101.244 E24.22198
G0 F6000 X99.086 Y101.349
G1 F1200 X102.214 Y104.477 E24.36911
G0 F6000 X102.214 Y105.042
G1 F1200 X99.086 Y101.915 E24.51622
G0 F6000 X99.086 Y102.48
G1 F1200 X102.214 Y105.608 E24.66335
G0 F6000 X102.213 Y106.173
G1 F1200 X99.086 Y103.046 E24.81044
G0 F6000 X98.647 Y103.046
G0 X98.719 Y104.121
G0 X99.146 Y104.111
G0 X99.586 Y104.111
G1 F1200 X102.213 Y106.739 E24.93403
G0 F6000 X102.213 Y107.304
G1 F1200 X99.586 Y104.677 E25.05759
G0 F6000 X99.226 Y103.752
G1 F1200 X99.086 Y103.612 E25.06418
G0 F6000 X98.647 Y103.612
G0 X98.719 Y100.876
G0 X103.081 Y100.876
G0 X103.082 Y104.122
G0 X102.623 Y107.143
G0 X102.461 Y107.552
G1 F1200 X102.713 Y107.804 E25.07603
G0 F6000 X102.713 Y108.37
G1 F1200 X99.586 Y105.242 E25.22314
G0 F6000 X99.586 Y105.808
G1 F1200 X102.713 Y108.936 E25.37025
G0 F6000 X102.713 Y109.501
G1 F1200 X99.586 Y106.374 E25.51733
G0 F6000 X99.586 Y106.94
G1 F1200 X102.713 Y110.067 E25.66442
G0 F6000 X102.713 Y110.633
G1 F1200 X99.586 Y107.505 E25.81152
G0 F6000 X99.086 Y107.572
