;FLAVOR:Marlin
;TIME:8040
;Filament used: 5.05707m
;Layer height: 0.2
;MINX:56
;MINY:56
;MINZ:0.2
;MAXX:164
;MAXY:164
;MAXZ:6.4
;Generated with Cura_SteamEngine 4.11.0
M140 S60
M105
M190 S60
M104 S210
M105
M109 S210
M82 ;absolute extrusion mode
; Ender 3 Custom Start G-code
G92 E0 ; Reset Extruder
G28 ; Home all axes
M420 S1
G1 Z2.0 F3000 ; Move Z Axis up little to prevent scratching of Heat Bed
G1 X0.1 Y20 Z0.3 F5000.0 ; Move to start position
G1 X0.1 Y200.0 Z0.3 F1500.0 E15 ; Draw the first line
G1 X0.4 Y200.0 Z0.3 F5000.0 ; Move to side a little
G1 X0.4 Y20 Z0.3 F1500.0 E30 ; Draw the second line
G92 E0 ; Reset Extruder
G1 Z2.0 F3000 ; Move Z Axis up little to prevent scratching of Heat Bed
G1 X5 Y20 Z0.3 F5000.0 ; Move over to prevent blob squish
G92 E0
G92 E0
G1 F1500 E-6.5
;LAYER_COUNT:32
;LAYER:0
M107
G0 F6000 X76.141 Y59.87 Z0.2
;TYPE:SKIRT
G1 F1500 E0
G1 F1200 X76.78 Y59.183 E0.03121
G1 X77.474 Y58.553 E0.06238
G1 X78.22 Y57.985 E0.09357
G1 X79.012 Y57.482 E0.12477
G1 X79.843 Y57.048 E0.15595
G1 X80.709 Y56.687 E0.18716
G1 X81.602 Y56.4 E0.21836
G1 X82.516 Y56.191 E0.24954
G1 X83.445 Y56.061 E0.28074
G1 X84.201 Y56.013 E0.30594
G1 X84.521 Y56.004 E0.31658
G1 X84.83 Y56 E0.32686
G1 X100.266 Y56 E0.84027
G1 X101.674 Y56.005 E0.8871
G1 X102.345 Y56 E0.90941
G1 X117.45 Y56.001 E1.41181
G1 X118.152 Y56.011 E1.43516
G1 X119.088 Y56.064 E1.46634
G1 X120.016 Y56.197 E1.49752
G1 X120.93 Y56.409 E1.52873
G1 X121.823 Y56.697 E1.55994
G1 X122.687 Y57.061 E1.59112
G1 X123.518 Y57.497 E1.62233
G1 X124.308 Y58.002 E1.65352
G1 X125.052 Y58.572 E1.68469
G1 X125.745 Y59.204 E1.71588
G1 X126.55 Y60.096 E1.75585
G1 X127.21 Y60.914 E1.79081
G1 X127.661 Y61.49 E1.81514
G1 X129.268 Y63.424 E1.89877
G1 X130.917 Y65.298 E1.9818
G1 X132.658 Y67.17 E2.06682
G1 X134.383 Y68.923 E2.14862
G1 X136.214 Y70.679 E2.233
G1 X138.102 Y72.39 E2.31775
G1 X140.003 Y74.018 E2.40099
G1 X142.062 Y75.68 E2.489
G1 X142.286 Y75.856 E2.49848
G1 X142.998 Y76.467 E2.52968
G1 X143.656 Y77.136 E2.56089
G1 X144.038 Y77.583 E2.58045
G1 X144.723 Y78.431 E2.61671
G1 X145.157 Y78.985 E2.64011
G1 X146.768 Y80.924 E2.72396
G1 X148.417 Y82.798 E2.80698
G1 X150.158 Y84.67 E2.89201
G1 X151.883 Y86.423 E2.97381
G1 X153.714 Y88.179 E3.05819
G1 X155.602 Y89.89 E3.14294
G1 X157.503 Y91.518 E3.22618
G1 X159.586 Y93.199 E3.31521
G1 X159.81 Y93.376 E3.3247
G1 X160.52 Y93.989 E3.3559
G1 X161.176 Y94.659 E3.38709
G1 X161.772 Y95.383 E3.41828
G1 X162.304 Y96.155 E3.44946
G1 X162.769 Y96.97 E3.48067
G1 X163.163 Y97.821 E3.51186
G1 X163.482 Y98.703 E3.54306
G1 X163.725 Y99.609 E3.57425
G1 X163.891 Y100.532 E3.60545
G1 X163.985 Y101.667 E3.64333
G1 X163.995 Y101.99 E3.65407
G1 X164 Y102.33 E3.66538
G1 X163.999 Y117.427 E4.16751
G1 X163.989 Y118.147 E4.19146
G1 X163.936 Y119.083 E4.22264
G1 X163.803 Y120.012 E4.25386
G1 X163.592 Y120.925 E4.28502
G1 X163.304 Y121.818 E4.31623
G1 X162.941 Y122.683 E4.34743
G1 X162.505 Y123.513 E4.37861
G1 X162 Y124.304 E4.40983
G1 X161.43 Y125.048 E4.441
G1 X160.799 Y125.742 E4.4722
G1 X159.907 Y126.547 E4.51216
G1 X159.069 Y127.223 E4.54797
G1 X158.515 Y127.657 E4.57138
G1 X156.594 Y129.253 E4.65445
G1 X154.683 Y130.935 E4.73912
G1 X152.83 Y132.658 E4.82328
G1 X151.077 Y134.383 E4.90508
G1 X149.321 Y136.214 E4.98946
G1 X147.609 Y138.103 E5.07425
G1 X145.982 Y140.003 E5.15745
G1 X144.32 Y142.062 E5.24545
G1 X144.144 Y142.286 E5.25493
G1 X143.533 Y142.998 E5.28613
G1 X142.864 Y143.656 E5.31735
G1 X142.417 Y144.038 E5.3369
G1 X141.569 Y144.723 E5.37316
G1 X141.015 Y145.157 E5.39657
G1 X139.094 Y146.753 E5.47963
G1 X137.183 Y148.435 E5.56431
G1 X135.33 Y150.158 E5.64846
G1 X133.577 Y151.883 E5.73026
G1 X131.821 Y153.714 E5.81464
G1 X130.109 Y155.603 E5.89943
G1 X128.482 Y157.503 E5.98263
G1 X126.797 Y159.591 E6.07187
G1 X126.619 Y159.816 E6.08141
G1 X126.006 Y160.526 E6.11261
G1 X125.335 Y161.181 E6.1438
G1 X124.611 Y161.777 E6.17499
G1 X123.838 Y162.309 E6.2062
G1 X123.023 Y162.773 E6.23739
G1 X122.172 Y163.166 E6.26857
G1 X121.29 Y163.485 E6.29977
G1 X120.384 Y163.728 E6.33096
G1 X119.461 Y163.893 E6.36215
G1 X118.299 Y163.987 E6.40092
G1 X117.977 Y163.996 E6.41164
G1 X117.67 Y164 E6.42185
G1 X102.55 Y163.999 E6.92474
G1 X101.85 Y163.989 E6.94803
G1 X100.914 Y163.936 E6.97921
G1 X99.985 Y163.803 E7.01042
G1 X99.071 Y163.591 E7.04163
G1 X98.179 Y163.302 E7.07282
G1 X97.315 Y162.939 E7.10399
G1 X96.484 Y162.503 E7.1352
G1 X95.694 Y161.998 E7.16638
G1 X94.949 Y161.427 E7.1976
G1 X94.256 Y160.796 E7.22878
G1 X93.458 Y159.912 E7.26839
G1 X92.745 Y159.029 E7.30613
G1 X92.34 Y158.511 E7.328
G1 X90.747 Y156.594 E7.4109
G1 X89.065 Y154.683 E7.49558
G1 X87.342 Y152.83 E7.57974
G1 X85.617 Y151.077 E7.66153
G1 X83.786 Y149.321 E7.74591
G1 X81.897 Y147.609 E7.83071
G1 X79.997 Y145.982 E7.9139
G1 X77.938 Y144.32 E8.00191
G1 X77.714 Y144.144 E8.01139
G1 X77.002 Y143.533 E8.04259
G1 X76.344 Y142.864 E8.0738
G1 X75.962 Y142.417 E8.09336
G1 X75.277 Y141.569 E8.12962
G1 X74.843 Y141.015 E8.15302
G1 X73.247 Y139.094 E8.23609
G1 X71.565 Y137.183 E8.32076
G1 X69.842 Y135.33 E8.40492
G1 X68.117 Y133.577 E8.48672
G1 X66.286 Y131.821 E8.5711
G1 X64.397 Y130.109 E8.65589
G1 X62.497 Y128.482 E8.73909
G1 X60.433 Y126.816 E8.82731
G1 X60.208 Y126.639 E8.83683
G1 X59.496 Y126.028 E8.86804
G1 X58.839 Y125.359 E8.89923
G1 X58.241 Y124.636 E8.93043
G1 X57.707 Y123.865 E8.96163
G1 X57.241 Y123.051 E8.99282
G1 X56.846 Y122.201 E9.024
G1 X56.524 Y121.32 E9.0552
G1 X56.279 Y120.414 E9.08641
G1 X56.112 Y119.492 E9.11758
G1 X56.013 Y118.299 E9.15739
G1 X56.004 Y117.976 E9.16814
G1 X56 Y117.67 E9.17832
G1 X56.001 Y102.535 E9.68171
G1 X56.012 Y101.83 E9.70516
G1 X56.067 Y100.894 E9.73635
G1 X56.201 Y99.966 E9.76753
G1 X56.414 Y99.052 E9.79875
G1 X56.704 Y98.16 E9.82994
G1 X57.068 Y97.296 E9.86113
G1 X57.505 Y96.467 E9.8923
G1 X58.152 Y95.482 E9.93149
G1 X58.479 Y95.039 E9.94981
G1 X59.657 Y93.49 E10.01453
G1 X61.113 Y91.458 E10.09767
G1 X62.52 Y89.373 E10.18133
G1 X63.867 Y87.25 E10.26496
G1 X65.163 Y85.069 E10.34934
G1 X66.377 Y82.895 E10.43216
G1 X67.559 Y80.627 E10.51722
G1 X68.632 Y78.415 E10.59899
G1 X69.687 Y76.075 E10.68437
G1 X70.655 Y73.759 E10.76785
G1 X71.558 Y71.414 E10.85143
G1 X72.399 Y69.022 E10.93576
G1 X73.161 Y66.648 E11.01869
G1 X73.938 Y63.971 E11.1114
G1 X74.235 Y63.081 E11.14261
G1 X74.607 Y62.221 E11.17377
G1 X75.051 Y61.394 E11.20499
G1 X75.564 Y60.609 E11.23618
G1 X76.141 Y59.87 E11.26737
G0 F6000 X76.501 Y60.066
G1 F1200 X77.133 Y59.397 E11.29798
G1 X77.822 Y58.785 E11.32863
G1 X78.56 Y58.236 E11.35922
G1 X79.344 Y57.753 E11.38985
G1 X80.167 Y57.34 E11.42048
G1 X81.022 Y56.999 E11.45109
G1 X81.904 Y56.734 E11.48172
G1 X82.805 Y56.547 E11.51233
G1 X83.72 Y56.439 E11.54297
G1 X84.212 Y56.413 E11.55936
G1 X84.532 Y56.404 E11.57001
G1 X84.83 Y56.4 E11.57992
G1 X100.265 Y56.4 E12.09329
G1 X101.676 Y56.405 E12.14022
G1 X102.348 Y56.4 E12.16257
G1 X117.444 Y56.401 E12.66467
G1 X118.146 Y56.411 E12.68802
G1 X119.065 Y56.464 E12.71863
G1 X119.976 Y56.597 E12.74925
G1 X120.872 Y56.808 E12.77987
G1 X121.747 Y57.096 E12.81051
G1 X122.593 Y57.459 E12.84113
G1 X123.404 Y57.894 E12.87174
G1 X124.175 Y58.398 E12.90237
G1 X124.899 Y58.966 E12.93298
G1 X125.571 Y59.596 E12.96362
G1 X126.239 Y60.347 E12.99705
G1 X126.895 Y61.16 E13.03179
G1 X127.354 Y61.746 E13.05655
G1 X128.959 Y63.678 E13.14009
G1 X130.625 Y65.571 E13.22396
G1 X132.362 Y67.439 E13.3088
G1 X134.121 Y69.227 E13.39223
G1 X135.951 Y70.981 E13.47653
G1 X137.819 Y72.674 E13.56038
G1 X139.738 Y74.317 E13.64441
G1 X141.869 Y76.038 E13.73551
G1 X142.039 Y76.171 E13.74269
G1 X142.737 Y76.771 E13.77331
G1 X143.381 Y77.429 E13.80393
G1 X143.727 Y77.835 E13.82167
G1 X144.408 Y78.677 E13.85769
G1 X144.85 Y79.241 E13.88152
G1 X146.459 Y81.178 E13.96527
G1 X148.125 Y83.071 E14.04915
G1 X149.862 Y84.939 E14.13399
G1 X151.621 Y86.727 E14.21741
G1 X153.451 Y88.481 E14.30172
G1 X155.319 Y90.174 E14.38557
G1 X157.238 Y91.817 E14.46959
G1 X159.373 Y93.541 E14.56086
G1 X159.562 Y93.69 E14.56887
G1 X160.259 Y94.292 E14.5995
G1 X160.901 Y94.952 E14.63013
G1 X161.483 Y95.665 E14.66074
G1 X162.001 Y96.425 E14.69133
G1 X162.452 Y97.228 E14.72196
G1 X162.831 Y98.068 E14.75261
G1 X163.135 Y98.936 E14.7832
G1 X163.364 Y99.828 E14.81383
G1 X163.514 Y100.737 E14.84447
G1 X163.585 Y101.679 E14.87589
G1 X163.595 Y102.002 E14.88664
G1 X163.6 Y102.33 E14.89755
G1 X163.599 Y117.421 E15.39948
G1 X163.589 Y118.141 E15.42343
G1 X163.536 Y119.06 E15.45405
G1 X163.404 Y119.971 E15.48466
G1 X163.193 Y120.868 E15.51531
G1 X162.905 Y121.742 E15.54592
G1 X162.543 Y122.588 E15.57652
G1 X162.108 Y123.4 E15.60716
G1 X161.604 Y124.171 E15.6378
G1 X161.036 Y124.895 E15.66841
G1 X160.407 Y125.567 E15.69902
G1 X159.656 Y126.236 E15.73247
G1 X158.823 Y126.908 E15.76807
G1 X158.259 Y127.35 E15.7919
G1 X156.323 Y128.959 E15.87563
G1 X154.428 Y130.626 E15.95957
G1 X152.561 Y132.362 E16.04437
G1 X150.773 Y134.121 E16.12779
G1 X149.019 Y135.951 E16.2121
G1 X147.344 Y137.8 E16.29508
G1 X145.667 Y139.758 E16.38082
G1 X143.962 Y141.869 E16.47108
G1 X143.829 Y142.039 E16.47825
G1 X143.229 Y142.737 E16.50887
G1 X142.571 Y143.381 E16.53949
G1 X142.165 Y143.727 E16.55723
G1 X141.323 Y144.408 E16.59325
G1 X140.759 Y144.85 E16.61708
G1 X138.823 Y146.459 E16.70081
G1 X136.928 Y148.126 E16.78476
G1 X135.061 Y149.862 E16.86955
G1 X133.273 Y151.621 E16.95297
G1 X131.519 Y153.451 E17.03728
G1 X129.844 Y155.3 E17.12026
G1 X128.167 Y157.258 E17.206
G1 X126.455 Y159.378 E17.29664
G1 X126.305 Y159.568 E17.30469
G1 X125.703 Y160.264 E17.3353
G1 X125.043 Y160.906 E17.36592
G1 X124.33 Y161.488 E17.39653
G1 X123.568 Y162.006 E17.42718
G1 X122.765 Y162.456 E17.45779
G1 X121.926 Y162.834 E17.4884
G1 X121.057 Y163.138 E17.51902
G1 X120.165 Y163.366 E17.54964
G1 X119.256 Y163.515 E17.58028
G1 X118.288 Y163.587 E17.61256
G1 X117.966 Y163.596 E17.62328
G1 X117.67 Y163.6 E17.63312
G1 X102.556 Y163.599 E18.13582
G1 X101.856 Y163.589 E18.1591
G1 X100.936 Y163.536 E18.18975
G1 X100.025 Y163.403 E18.22037
G1 X99.129 Y163.192 E18.25099
G1 X98.255 Y162.904 E18.2816
G1 X97.409 Y162.541 E18.31221
G1 X96.597 Y162.106 E18.34285
G1 X95.827 Y161.602 E18.37346
G1 X95.103 Y161.033 E18.40409
G1 X94.431 Y160.404 E18.4347
G1 X93.769 Y159.66 E18.46783
G1 X93.06 Y158.783 E18.50534
G1 X92.647 Y158.255 E18.52763
G1 X91.041 Y156.323 E18.61119
G1 X89.374 Y154.428 E18.69514
G1 X87.638 Y152.561 E18.77993
G1 X85.879 Y150.773 E18.86335
G1 X84.049 Y149.019 E18.94766
G1 X82.2 Y147.344 E19.03064
G1 X80.242 Y145.667 E19.11639
G1 X78.131 Y143.962 E19.20664
G1 X77.961 Y143.829 E19.21382
G1 X77.263 Y143.229 E19.24443
G1 X76.619 Y142.571 E19.27505
G1 X76.273 Y142.165 E19.2928
G1 X75.592 Y141.323 E19.32881
G1 X75.15 Y140.759 E19.35265
G1 X73.541 Y138.823 E19.43637
G1 X71.874 Y136.928 E19.52032
G1 X70.138 Y135.061 E19.60511
G1 X68.379 Y133.273 E19.68853
G1 X66.549 Y131.519 E19.77284
G1 X64.7 Y129.844 E19.85582
G1 X62.742 Y128.167 E19.94157
G1 X60.625 Y126.458 E20.03206
G1 X60.455 Y126.324 E20.03926
G1 X59.757 Y125.724 E20.06987
G1 X59.114 Y125.066 E20.10047
G1 X58.53 Y124.354 E20.1311
G1 X58.01 Y123.594 E20.16173
G1 X57.558 Y122.792 E20.19235
G1 X57.177 Y121.954 E20.22297
G1 X56.87 Y121.086 E20.25359
G1 X56.64 Y120.194 E20.28423
G1 X56.488 Y119.286 E20.31485
G1 X56.413 Y118.288 E20.34813
G1 X56.404 Y117.965 E20.35888
G1 X56.4 Y117.67 E20.36869
G1 X56.401 Y102.542 E20.87185
G1 X56.412 Y101.837 E20.89531
G1 X56.467 Y100.918 E20.92593
G1 X56.6 Y100.007 E20.95655
G1 X56.813 Y99.111 E20.98718
G1 X57.102 Y98.237 E21.0178
G1 X57.466 Y97.391 E21.04843
G1 X57.902 Y96.58 E21.07905
G1 X58.474 Y95.719 E21.11343
G1 X58.797 Y95.282 E21.13151
G1 X59.973 Y93.736 E21.19611
G1 X61.437 Y91.693 E21.27971
G1 X62.862 Y89.58 E21.36448
G1 X64.215 Y87.447 E21.44849
G1 X65.498 Y85.29 E21.53196
G1 X66.738 Y83.068 E21.6166
G1 X67.909 Y80.821 E21.70087
G1 X69.013 Y78.545 E21.78501
G1 X70.044 Y76.258 E21.86844
G1 X71.026 Y73.908 E21.95316
G1 X71.944 Y71.525 E22.03809
G1 X72.759 Y69.205 E22.11988
G1 X73.552 Y66.734 E22.20619
G1 X74.322 Y64.081 E22.29807
G1 X74.615 Y63.209 E22.32867
G1 X74.982 Y62.364 E22.35931
G1 X75.421 Y61.555 E22.38992
G1 X75.928 Y60.787 E22.42053
G1 X76.501 Y60.066 E22.45116
G0 F6000 X76.86 Y60.263
G1 F1200 X77.486 Y59.613 E22.48118
G1 X78.168 Y59.02 E22.51124
G1 X78.899 Y58.491 E22.54125
G1 X79.675 Y58.028 E22.5713
G1 X80.488 Y57.635 E22.60134
G1 X81.333 Y57.316 E22.63138
G1 X82.203 Y57.073 E22.66142
G1 X83.091 Y56.908 E22.69146
G1 X84.223 Y56.813 E22.72925
G1 X84.543 Y56.804 E22.73989
G1 X84.83 Y56.8 E22.74944
G1 X100.263 Y56.8 E23.26274
G1 X101.677 Y56.805 E23.30977
G1 X102.351 Y56.8 E23.33219
G1 X117.438 Y56.801 E23.83399
G1 X118.14 Y56.811 E23.85734
G1 X119.042 Y56.864 E23.88739
G1 X119.935 Y56.996 E23.91742
G1 X120.813 Y57.207 E23.94745
G1 X121.669 Y57.495 E23.97749
G1 X122.497 Y57.857 E24.00754
G1 X123.289 Y58.291 E24.03758
G1 X124.039 Y58.794 E24.06762
G1 X124.742 Y59.36 E24.09764
G1 X125.392 Y59.987 E24.12767
G1 X125.928 Y60.599 E24.15473
G1 X126.58 Y61.407 E24.18927
G1 X127.03 Y61.982 E24.21355
G1 X128.653 Y63.934 E24.29798
G1 X130.349 Y65.862 E24.38339
G1 X132.067 Y67.71 E24.46731
G1 X133.825 Y69.496 E24.55066
G1 X135.671 Y71.267 E24.63575
G1 X137.574 Y72.991 E24.72115
G1 X139.472 Y74.617 E24.80428
G1 X141.659 Y76.381 E24.89773
G1 X141.792 Y76.486 E24.90337
G1 X142.477 Y77.074 E24.93339
G1 X143.106 Y77.722 E24.96343
G1 X143.417 Y78.087 E24.97938
G1 X144.093 Y78.924 E25.01516
G1 X144.526 Y79.477 E25.03852
G1 X146.153 Y81.434 E25.12317
G1 X147.849 Y83.362 E25.20858
G1 X149.567 Y85.21 E25.2925
G1 X151.325 Y86.996 E25.37585
G1 X153.171 Y88.767 E25.46094
G1 X155.074 Y90.491 E25.54634
G1 X156.972 Y92.117 E25.62947
G1 X159.16 Y93.882 E25.72297
G1 X159.314 Y94.004 E25.7295
G1 X159.997 Y94.595 E25.75954
G1 X160.625 Y95.244 E25.78958
G1 X161.193 Y95.945 E25.81959
G1 X161.697 Y96.695 E25.84964
G1 X162.133 Y97.486 E25.87968
G1 X162.497 Y98.312 E25.9097
G1 X162.787 Y99.168 E25.93976
G1 X163 Y100.045 E25.96978
G1 X163.134 Y100.938 E25.99981
G1 X163.185 Y101.691 E26.02492
G1 X163.195 Y102.014 E26.03566
G1 X163.2 Y102.33 E26.04618
G1 X163.199 Y117.416 E26.54794
G1 X163.189 Y118.136 E26.57189
G1 X163.137 Y119.037 E26.60191
G1 X163.004 Y119.931 E26.63197
G1 X162.794 Y120.809 E26.66199
G1 X162.506 Y121.665 E26.69203
G1 X162.144 Y122.492 E26.72206
G1 X161.711 Y123.284 E26.75208
G1 X161.209 Y124.035 E26.78212
G1 X160.642 Y124.738 E26.81216
G1 X160.015 Y125.389 E26.84223
G1 X159.404 Y125.925 E26.86926
G1 X158.576 Y126.593 E26.90464
G1 X158.023 Y127.026 E26.928
G1 X156.045 Y128.669 E27.01353
G1 X154.157 Y130.331 E27.09719
G1 X152.29 Y132.067 E27.18198
G1 X150.504 Y133.825 E27.26533
G1 X148.734 Y135.67 E27.35037
G1 X147.011 Y137.572 E27.43573
G1 X145.381 Y139.475 E27.51907
G1 X143.608 Y141.672 E27.61297
G1 X143.514 Y141.792 E27.61804
G1 X142.926 Y142.477 E27.64806
G1 X142.278 Y143.106 E27.6781
G1 X141.913 Y143.417 E27.69405
G1 X141.076 Y144.093 E27.72983
G1 X140.523 Y144.526 E27.75319
G1 X138.545 Y146.169 E27.83872
G1 X136.657 Y147.831 E27.92238
G1 X134.79 Y149.567 E28.00717
G1 X133.004 Y151.325 E28.09052
G1 X131.233 Y153.171 E28.17561
G1 X129.511 Y155.072 E28.26092
G1 X127.881 Y156.975 E28.34426
G1 X125.991 Y159.319 E28.4444
G1 X125.4 Y160.002 E28.47444
G1 X124.751 Y160.63 E28.50448
G1 X124.049 Y161.198 E28.53452
G1 X123.299 Y161.702 E28.56457
G1 X122.508 Y162.137 E28.59459
G1 X121.681 Y162.5 E28.62463
G1 X120.826 Y162.789 E28.65465
G1 X119.948 Y163.002 E28.6847
G1 X119.055 Y163.135 E28.71473
G1 X118.277 Y163.187 E28.74066
G1 X117.955 Y163.196 E28.75138
G1 X117.67 Y163.2 E28.76086
G1 X102.561 Y163.199 E29.26339
G1 X101.861 Y163.189 E29.28667
G1 X100.96 Y163.136 E29.31669
G1 X100.066 Y163.004 E29.34675
G1 X99.188 Y162.793 E29.37678
G1 X98.332 Y162.505 E29.40682
G1 X97.505 Y162.143 E29.43684
G1 X96.713 Y161.709 E29.46688
G1 X95.963 Y161.206 E29.49692
G1 X95.26 Y160.639 E29.52696
G1 X94.609 Y160.013 E29.557
G1 X94.08 Y159.409 E29.5837
G1 X93.375 Y158.536 E29.62102
G1 X92.97 Y158.019 E29.64287
G1 X91.331 Y156.045 E29.7282
G1 X89.669 Y154.157 E29.81186
G1 X87.933 Y152.29 E29.89666
G1 X86.175 Y150.504 E29.98001
