;FLAVOR:Marlin
;TIME:21335
;Filament used: 12.7383m
;Layer height: 0.2
;MINX:56
;MINY:54.4
;MINZ:0.2
;MAXX:164
;MAXY:165.6
;MAXZ:22.4
;Generated with Cura_SteamEngine 4.11.0
M140 S60
M105
M190 S60
M104 S210
M105
M109 S210
M82 ;absolute extrusion mode
; Ender 3 Custom Start G-code
G92 E0 ; Reset Extruder
G28 ; Home all axes
M420 S1
G1 Z2.0 F3000 ; Move Z Axis up little to prevent scratching of Heat Bed
G1 X0.1 Y20 Z0.3 F5000.0 ; Move to start position
G1 X0.1 Y200.0 Z0.3 F1500.0 E15 ; Draw the first line
G1 X0.4 Y200.0 Z0.3 F5000.0 ; Move to side a little
G1 X0.4 Y20 Z0.3 F1500.0 E30 ; Draw the second line
G92 E0 ; Reset Extruder
G1 Z2.0 F3000 ; Move Z Axis up little to prevent scratching of Heat Bed
G1 X5 Y20 Z0.3 F5000.0 ; Move over to prevent blob squish
G92 E0
G92 E0
G1 F1500 E-6.5
;LAYER_COUNT:112
;LAYER:0
M107
G0 F6000 X59.895 Y76.119 Z0.2
;TYPE:SKIRT
G1 F1500 E0
G1 F1200 X60.635 Y75.544 E0.03117
G1 X61.422 Y75.033 E0.06238
G1 X62.101 Y74.664 E0.08808
G1 X62.957 Y74.281 E0.11927
G1 X63.644 Y74.034 E0.14355
G1 X64.858 Y73.642 E0.18598
G1 X67.283 Y72.822 E0.27113
G1 X69.694 Y71.929 E0.35664
G1 X72.005 Y70.997 E0.43952
G1 X74.309 Y69.992 E0.52312
G1 X76.571 Y68.928 E0.60627
G1 X78.841 Y67.781 E0.69086
G1 X81.052 Y66.584 E0.77448
G1 X83.223 Y65.327 E0.85792
G1 X85.383 Y63.995 E0.94232
G1 X87.434 Y62.648 E1.02394
G1 X89.557 Y61.168 E1.11001
G1 X91.56 Y59.683 E1.19294
G1 X93.546 Y58.123 E1.27694
G1 X94.437 Y57.382 E1.31548
G1 X95.089 Y56.855 E1.34337
G1 X95.843 Y56.297 E1.37457
G1 X96.642 Y55.806 E1.40576
G1 X97.479 Y55.384 E1.43693
G1 X98.35 Y55.035 E1.46814
G1 X99.247 Y54.761 E1.49934
G1 X100.164 Y54.565 E1.53053
G1 X101.095 Y54.448 E1.56174
G1 X101.667 Y54.415 E1.58079
G1 X101.993 Y54.405 E1.59164
G1 X102.33 Y54.4 E1.60285
G1 X117.293 Y54.4 E2.10052
G1 X118.152 Y54.411 E2.12909
G1 X119.088 Y54.464 E2.16028
G1 X120.016 Y54.597 E2.19146
G1 X120.93 Y54.809 E2.22266
G1 X121.823 Y55.097 E2.25387
G1 X122.687 Y55.461 E2.28505
G1 X123.518 Y55.897 E2.31627
G1 X124.308 Y56.402 E2.34745
G1 X125.052 Y56.972 E2.37862
G1 X125.745 Y57.604 E2.40982
G1 X126.382 Y58.293 E2.44103
G1 X126.924 Y58.985 E2.47026
G1 X127.589 Y59.909 E2.50813
G1 X129.108 Y61.96 E2.59302
G1 X130.669 Y63.949 E2.67711
G1 X132.264 Y65.865 E2.76003
G1 X133.936 Y67.761 E2.84411
G1 X135.662 Y69.612 E2.92829
G1 X137.409 Y71.383 E3.01102
G1 X139.245 Y73.139 E3.09552
G1 X141.116 Y74.831 E3.17943
G1 X142.29 Y75.836 E3.23083
G1 X142.755 Y76.245 E3.25142
G1 X143.432 Y76.894 E3.28262
G1 X144.04 Y77.584 E3.3132
G1 X144.71 Y78.414 E3.34868
G1 X145.156 Y78.983 E3.37273
G1 X146.768 Y80.924 E3.45665
G1 X148.417 Y82.798 E3.53967
G1 X150.158 Y84.67 E3.6247
G1 X151.883 Y86.423 E3.7065
G1 X153.714 Y88.179 E3.79088
G1 X155.602 Y89.89 E3.87562
G1 X157.503 Y91.518 E3.95887
G1 X159.586 Y93.199 E4.0479
G1 X159.81 Y93.376 E4.05739
G1 X160.52 Y93.989 E4.08859
G1 X161.176 Y94.659 E4.11978
G1 X161.772 Y95.383 E4.15097
G1 X162.304 Y96.155 E4.18215
G1 X162.769 Y96.97 E4.21336
G1 X163.163 Y97.821 E4.24455
G1 X163.482 Y98.703 E4.27574
G1 X163.725 Y99.609 E4.30694
G1 X163.891 Y100.532 E4.33813
G1 X163.985 Y101.667 E4.37601
G1 X163.995 Y101.99 E4.38676
G1 X164 Y102.33 E4.39807
G1 X163.999 Y117.427 E4.9002
G1 X163.989 Y118.147 E4.92415
G1 X163.936 Y119.083 E4.95533
G1 X163.803 Y120.012 E4.98654
G1 X163.592 Y120.925 E5.01771
G1 X163.304 Y121.818 E5.04892
G1 X162.941 Y122.683 E5.08012
G1 X162.505 Y123.513 E5.1113
G1 X162 Y124.304 E5.14252
G1 X161.43 Y125.048 E5.17369
G1 X160.799 Y125.742 E5.20489
G1 X159.907 Y126.547 E5.24485
G1 X159.069 Y127.223 E5.28066
G1 X158.515 Y127.657 E5.30407
G1 X156.594 Y129.253 E5.38713
G1 X154.683 Y130.935 E5.47181
G1 X152.83 Y132.658 E5.55596
G1 X151.077 Y134.383 E5.63776
G1 X149.321 Y136.214 E5.72214
G1 X147.609 Y138.103 E5.80694
G1 X145.982 Y140.003 E5.89013
G1 X144.32 Y142.062 E5.97814
G1 X144.144 Y142.286 E5.98762
G1 X143.533 Y142.998 E6.01882
G1 X142.66 Y143.836 E6.05907
G1 X142.017 Y144.388 E6.08726
G1 X140.054 Y146.118 E6.17428
G1 X138.216 Y147.832 E6.25787
G1 X136.424 Y149.601 E6.34162
G1 X134.715 Y151.388 E6.42386
G1 X132.984 Y153.301 E6.50967
G1 X131.347 Y155.218 E6.59352
G1 X129.805 Y157.13 E6.67521
G1 X128.246 Y159.179 E6.76085
G1 X127.123 Y160.744 E6.82491
G1 X126.999 Y160.914 E6.83191
G1 X126.804 Y161.175 E6.84275
G1 X126.211 Y161.902 E6.87395
G1 X125.559 Y162.575 E6.90512
G1 X124.851 Y163.191 E6.93633
G1 X124.094 Y163.744 E6.96751
G1 X123.292 Y164.23 E6.9987
G1 X122.451 Y164.647 E7.02992
G1 X121.579 Y164.99 E7.06109
G1 X120.68 Y165.258 E7.09229
G1 X119.761 Y165.448 E7.1235
G1 X118.83 Y165.559 E7.15469
G1 X118.299 Y165.587 E7.17237
G1 X117.977 Y165.596 E7.18309
G1 X117.67 Y165.6 E7.1933
G1 X102.55 Y165.599 E7.69619
G1 X101.849 Y165.589 E7.71951
G1 X100.913 Y165.536 E7.75069
G1 X99.984 Y165.403 E7.78191
G1 X99.071 Y165.191 E7.81308
G1 X98.178 Y164.903 E7.84429
G1 X97.314 Y164.539 E7.87547
G1 X96.483 Y164.103 E7.90668
G1 X95.693 Y163.598 E7.93787
G1 X94.949 Y163.028 E7.96904
G1 X94.256 Y162.396 E8.00024
G1 X93.451 Y161.505 E8.04017
G1 X92.745 Y160.629 E8.0776
G1 X92.34 Y160.111 E8.09946
G1 X90.747 Y158.194 E8.18237
G1 X89.065 Y156.283 E8.26704
G1 X87.342 Y154.43 E8.3512
G1 X85.617 Y152.677 E8.433
G1 X83.786 Y150.921 E8.51738
G1 X81.897 Y149.209 E8.60217
G1 X79.997 Y147.582 E8.68537
G1 X77.909 Y145.897 E8.77461
G1 X77.719 Y145.748 E8.78264
G1 X77.007 Y145.138 E8.81382
G1 X76.349 Y144.47 E8.84501
G1 X75.581 Y143.52 E8.88564
G1 X74.943 Y142.634 E8.92195
G1 X73.389 Y140.535 E9.00881
G1 X71.85 Y138.576 E9.09167
G1 X70.218 Y136.615 E9.17653
G1 X68.564 Y134.739 E9.25971
G1 X66.838 Y132.888 E9.34389
G1 X65.091 Y131.117 E9.42663
G1 X63.255 Y129.361 E9.51113
G1 X61.386 Y127.671 E9.59494
G1 X60.21 Y126.664 E9.64643
G1 X59.745 Y126.255 E9.66703
G1 X59.068 Y125.606 E9.69822
G1 X58.448 Y124.902 E9.72942
G1 X57.891 Y124.147 E9.76063
G1 X57.4 Y123.348 E9.79182
G1 X56.979 Y122.51 E9.82301
G1 X56.631 Y121.639 E9.85421
G1 X56.358 Y120.742 E9.88539
G1 X56.163 Y119.824 E9.91661
G1 X56.047 Y118.894 E9.94778
G1 X56.015 Y118.333 E9.96647
G1 X56.005 Y118.008 E9.97728
G1 X56 Y117.67 E9.98853
G1 X56 Y102.234 E10.50193
G1 X56.005 Y100.863 E10.54753
G1 X56 Y100.155 E10.57108
G1 X56.001 Y85.039 E11.07384
G1 X56.011 Y84.349 E11.09679
G1 X56.065 Y83.412 E11.12801
G1 X56.198 Y82.484 E11.15919
G1 X56.41 Y81.57 E11.19039
G1 X56.698 Y80.678 E11.22157
G1 X57.062 Y79.813 E11.25278
G1 X57.498 Y78.983 E11.28397
G1 X58.003 Y78.193 E11.31515
G1 X58.574 Y77.449 E11.34634
G1 X59.206 Y76.756 E11.37754
G1 X59.895 Y76.119 E11.40875
G0 F6000 X60.283 Y76.316
G1 F1200 X61.019 Y75.763 E11.43937
G1 X61.801 Y75.276 E11.47001
G1 X62.28 Y75.022 E11.48804
G1 X63.12 Y74.646 E11.51865
G1 X63.767 Y74.414 E11.54151
G1 X65.024 Y74.009 E11.58544
G1 X67.445 Y73.189 E11.67045
G1 X69.816 Y72.311 E11.75455
G1 X72.135 Y71.376 E11.83771
G1 X74.49 Y70.349 E11.92316
G1 X76.757 Y69.283 E12.00648
G1 X79.018 Y68.14 E12.09075
G1 X81.252 Y66.931 E12.17523
G1 X83.412 Y65.68 E12.25825
G1 X85.59 Y64.336 E12.34338
G1 X87.677 Y62.966 E12.42641
G1 X89.779 Y61.501 E12.51163
G1 X91.8 Y60.003 E12.5953
G1 X93.803 Y58.429 E12.68003
G1 X94.689 Y57.693 E12.71834
G1 X95.341 Y57.166 E12.74622
G1 X96.081 Y56.619 E12.77683
G1 X96.866 Y56.138 E12.80745
G1 X97.69 Y55.727 E12.83807
G1 X98.547 Y55.39 E12.8687
G1 X99.429 Y55.127 E12.89931
G1 X100.331 Y54.943 E12.92993
G1 X101.679 Y54.815 E12.97497
G1 X102.005 Y54.805 E12.98582
G1 X102.33 Y54.8 E12.99663
G1 X117.293 Y54.8 E13.4943
G1 X118.146 Y54.811 E13.52267
G1 X119.065 Y54.864 E13.55329
G1 X119.976 Y54.997 E13.58391
G1 X120.872 Y55.208 E13.61453
G1 X121.747 Y55.496 E13.64517
G1 X122.593 Y55.859 E13.67578
G1 X123.404 Y56.294 E13.70639
G1 X124.175 Y56.798 E13.73703
G1 X124.899 Y57.366 E13.76764
G1 X125.571 Y57.996 E13.79827
G1 X126.185 Y58.681 E13.82887
G1 X126.599 Y59.219 E13.85145
G1 X127.228 Y60.093 E13.88726
G1 X128.804 Y62.222 E13.97536
G1 X130.346 Y64.185 E14.05839
G1 X131.973 Y66.14 E14.14299
G1 X133.644 Y68.035 E14.22702
G1 X135.367 Y69.883 E14.31105
G1 X137.131 Y71.67 E14.39457
G1 X138.982 Y73.442 E14.4798
G1 X140.833 Y75.116 E14.5628
G1 X142.026 Y76.137 E14.61503
G1 X142.491 Y76.546 E14.63563
G1 X143.155 Y77.183 E14.66623
G1 X143.729 Y77.835 E14.69512
G1 X144.395 Y78.66 E14.73039
G1 X144.854 Y79.246 E14.75515
G1 X146.459 Y81.178 E14.83869
G1 X148.125 Y83.071 E14.92256
G1 X149.862 Y84.939 E15.0074
G1 X151.621 Y86.727 E15.09082
G1 X153.451 Y88.481 E15.17513
G1 X155.319 Y90.174 E15.25898
G1 X157.238 Y91.817 E15.343
G1 X159.373 Y93.541 E15.43428
G1 X159.562 Y93.69 E15.44228
G1 X160.259 Y94.292 E15.47291
G1 X160.901 Y94.952 E15.50354
G1 X161.483 Y95.665 E15.53415
G1 X162.001 Y96.425 E15.56474
G1 X162.452 Y97.228 E15.59537
G1 X162.831 Y98.068 E15.62602
G1 X163.135 Y98.936 E15.65661
G1 X163.364 Y99.828 E15.68724
G1 X163.514 Y100.737 E15.71788
G1 X163.585 Y101.679 E15.7493
G1 X163.595 Y102.002 E15.76005
G1 X163.6 Y102.33 E15.77096
G1 X163.599 Y117.421 E16.27289
G1 X163.589 Y118.141 E16.29684
G1 X163.536 Y119.06 E16.32746
G1 X163.404 Y119.971 E16.35807
G1 X163.193 Y120.868 E16.38872
G1 X162.905 Y121.742 E16.41933
G1 X162.543 Y122.588 E16.44993
G1 X162.108 Y123.4 E16.48057
G1 X161.604 Y124.171 E16.51121
G1 X161.036 Y124.895 E16.54182
G1 X160.407 Y125.567 E16.57243
G1 X159.656 Y126.236 E16.60588
G1 X158.823 Y126.908 E16.64148
G1 X158.264 Y127.346 E16.6651
G1 X156.323 Y128.959 E16.74904
G1 X154.428 Y130.626 E16.83298
G1 X152.561 Y132.362 E16.91778
G1 X150.773 Y134.121 E17.0012
G1 X149.019 Y135.951 E17.08551
G1 X147.344 Y137.8 E17.16849
G1 X145.667 Y139.758 E17.25423
G1 X143.962 Y141.869 E17.34449
G1 X143.829 Y142.039 E17.35167
G1 X143.229 Y142.737 E17.38228
G1 X142.399 Y143.532 E17.42051
G1 X141.777 Y144.066 E17.44777
G1 X139.78 Y145.826 E17.53631
G1 X137.944 Y147.537 E17.61978
G1 X136.154 Y149.306 E17.70348
G1 X134.395 Y151.145 E17.78812
G1 X132.714 Y153.002 E17.87143
G1 X131.033 Y154.971 E17.95754
G1 X129.478 Y156.899 E18.03993
G1 X127.932 Y158.932 E18.12487
G1 X126.798 Y160.511 E18.18953
G1 X126.484 Y160.935 E18.20708
G1 X125.901 Y161.648 E18.23771
G1 X125.259 Y162.308 E18.26834
G1 X124.562 Y162.909 E18.29895
G1 X123.815 Y163.448 E18.32959
G1 X123.025 Y163.92 E18.36019
G1 X122.196 Y164.322 E18.39084
G1 X121.336 Y164.65 E18.42145
G1 X120.451 Y164.902 E18.45206
G1 X119.547 Y165.076 E18.48267
G1 X118.288 Y165.187 E18.52471
G1 X117.966 Y165.196 E18.53543
G1 X117.67 Y165.2 E18.54527
G1 X102.556 Y165.199 E19.04797
G1 X101.855 Y165.189 E19.07128
G1 X100.936 Y165.136 E19.1019
G1 X100.025 Y165.003 E19.13252
G1 X99.129 Y164.792 E19.16314
G1 X98.254 Y164.504 E19.19378
G1 X97.408 Y164.141 E19.22439
G1 X96.597 Y163.706 E19.255
G1 X95.826 Y163.202 E19.28564
G1 X95.102 Y162.633 E19.31627
G1 X94.43 Y162.004 E19.34688
G1 X93.763 Y161.254 E19.38026
G1 X93.06 Y160.383 E19.41749
G1 X92.647 Y159.855 E19.43979
G1 X91.041 Y157.923 E19.52335
G1 X89.374 Y156.028 E19.60729
G1 X87.638 Y154.161 E19.69209
G1 X85.879 Y152.373 E19.77551
G1 X84.049 Y150.619 E19.85982
G1 X82.2 Y148.944 E19.9428
G1 X80.242 Y147.267 E20.02854
G1 X78.122 Y145.556 E20.11915
G1 X77.966 Y145.433 E20.12576
G1 X77.267 Y144.834 E20.15638
G1 X76.623 Y144.177 E20.18698
G1 X75.905 Y143.286 E20.22504
G1 X75.268 Y142.401 E20.2613
G1 X73.709 Y140.296 E20.34843
G1 X72.139 Y138.297 E20.43297
G1 X70.527 Y136.36 E20.51679
G1 X68.856 Y134.465 E20.60082
G1 X67.133 Y132.617 E20.68485
G1 X65.369 Y130.83 E20.76837
G1 X63.514 Y129.054 E20.85379
G1 X61.669 Y127.386 E20.93651
G1 X60.474 Y126.363 E20.98883
G1 X60.009 Y125.954 E21.00943
G1 X59.345 Y125.317 E21.04003
G1 X58.739 Y124.624 E21.07065
G1 X58.195 Y123.881 E21.10128
G1 X57.717 Y123.094 E21.13191
G1 X57.31 Y122.269 E21.1625
G1 X56.975 Y121.411 E21.19314
G1 X56.717 Y120.527 E21.22377
G1 X56.536 Y119.624 E21.2544
G1 X56.415 Y118.321 E21.29792
G1 X56.405 Y117.996 E21.30874
G1 X56.4 Y117.67 E21.31958
G1 X56.4 Y102.235 E21.83295
G1 X56.405 Y100.86 E21.87868
G1 X56.4 Y100.152 E21.90223
G1 X56.401 Y85.044 E22.40473
G1 X56.411 Y84.354 E22.42768
G1 X56.464 Y83.435 E22.4583
G1 X56.597 Y82.524 E22.48892
G1 X56.809 Y81.628 E22.51954
G1 X57.097 Y80.754 E22.55015
G1 X57.46 Y79.908 E22.58077
G1 X57.895 Y79.097 E22.61138
G1 X58.399 Y78.326 E22.64201
G1 X58.968 Y77.602 E22.67264
G1 X59.598 Y76.93 E22.70328
G1 X60.283 Y76.316 E22.73387
G0 F6000 X60.671 Y76.517
G1 F1200 X61.403 Y75.988 E22.76391
G1 X62.458 Y75.38 E22.80441
G1 X63.283 Y75.012 E22.83446
G1 X63.89 Y74.795 E22.8559
G1 X65.128 Y74.396 E22.89916
G1 X67.575 Y73.567 E22.98509
G1 X69.956 Y72.686 E23.06953
G1 X72.295 Y71.742 E23.15342
G1 X74.654 Y70.714 E23.23901
G1 X76.929 Y69.644 E23.32263
G1 X79.225 Y68.483 E23.4082
G1 X81.422 Y67.294 E23.49129
G1 X83.643 Y66.008 E23.57665
G1 X85.79 Y64.684 E23.66054
G1 X87.929 Y63.279 E23.74566
G1 X90 Y61.835 E23.82963
G1 X92.039 Y60.324 E23.91404
G1 X94.043 Y58.75 E23.9988
G1 X94.94 Y58.004 E24.0376
G1 X95.592 Y57.477 E24.06548
G1 X96.319 Y56.941 E24.09553
G1 X97.09 Y56.472 E24.12554
G1 X97.9 Y56.072 E24.15559
G1 X98.742 Y55.746 E24.18562
G1 X99.61 Y55.495 E24.21567
G1 X100.496 Y55.322 E24.2457
G1 X101.691 Y55.215 E24.2856
G1 X102.017 Y55.205 E24.29645
G1 X102.33 Y55.2 E24.30686
G1 X117.293 Y55.2 E24.80453
G1 X118.14 Y55.211 E24.83271
G1 X119.042 Y55.264 E24.86276
G1 X119.935 Y55.396 E24.89278
G1 X120.813 Y55.607 E24.92282
G1 X121.669 Y55.895 E24.95286
G1 X122.497 Y56.257 E24.98291
G1 X123.289 Y56.691 E25.01295
G1 X124.039 Y57.194 E25.04298
G1 X124.742 Y57.76 E25.073
G1 X125.392 Y58.387 E25.10304
G1 X125.984 Y59.069 E25.13308
G1 X126.274 Y59.453 E25.14908
G1 X126.902 Y60.325 E25.18482
G1 X128.467 Y62.439 E25.27231
G1 X130.043 Y64.446 E25.35718
G1 X131.664 Y66.394 E25.44147
G1 X133.352 Y68.308 E25.52635
G1 X135.089 Y70.171 E25.61107
G1 X136.835 Y71.94 E25.69374
G1 X138.702 Y73.727 E25.7797
G1 X140.588 Y75.433 E25.86428
G1 X141.762 Y76.437 E25.91566
G1 X142.227 Y76.846 E25.93626
G1 X142.878 Y77.472 E25.96629
G1 X143.418 Y78.087 E25.99352
G1 X144.08 Y78.907 E26.02857
G1 X144.53 Y79.482 E26.05285
G1 X146.153 Y81.434 E26.13729
G1 X147.849 Y83.362 E26.22269
G1 X149.556 Y85.198 E26.30607
G1 X151.325 Y86.996 E26.38997
G1 X153.171 Y88.767 E26.47505
G1 X155.074 Y90.491 E26.56046
G1 X156.972 Y92.117 E26.64358
G1 X159.16 Y93.882 E26.73708
G1 X159.314 Y94.004 E26.74362
G1 X159.997 Y94.595 E26.77366
G1 X160.625 Y95.244 E26.80369
G1 X161.193 Y95.945 E26.8337
G1 X161.697 Y96.695 E26.86376
G1 X162.133 Y97.486 E26.8938
G1 X162.497 Y98.312 E26.92382
G1 X162.787 Y99.168 E26.95388
G1 X163 Y100.045 E26.9839
G1 X163.134 Y100.938 E27.01393
G1 X163.185 Y101.691 E27.03903
G1 X163.195 Y102.014 E27.04978
G1 X163.2 Y102.33 E27.06029
G1 X163.199 Y117.416 E27.56205
G1 X163.189 Y118.136 E27.586
G1 X163.137 Y119.037 E27.61602
G1 X163.004 Y119.931 E27.64608
G1 X162.794 Y120.809 E27.67611
G1 X162.506 Y121.665 E27.70615
G1 X162.144 Y122.492 E27.73617
G1 X161.711 Y123.284 E27.7662
G1 X161.209 Y124.035 E27.79624
G1 X160.642 Y124.738 E27.82628
G1 X160.015 Y125.389 E27.85634
G1 X159.404 Y125.925 E27.88337
G1 X158.576 Y126.593 E27.91876
G1 X158.023 Y127.026 E27.94212
G1 X156.045 Y128.669 E28.02764
G1 X154.157 Y130.331 E28.1113
G1 X152.29 Y132.067 E28.1961
G1 X150.504 Y133.825 E28.27945
G1 X148.733 Y135.671 E28.36453
G1 X147.011 Y137.572 E28.44984
G1 X145.381 Y139.475 E28.53318
G1 X143.608 Y141.672 E28.62708
G1 X143.514 Y141.792 E28.63215
G1 X142.926 Y142.477 E28.66218
G1 X142.138 Y143.229 E28.69841
G1 X141.538 Y143.744 E28.7247
G1 X139.507 Y145.534 E28.81475
G1 X137.656 Y147.259 E28.8989
G1 X135.866 Y149.027 E28.98258
G1 X134.109 Y150.865 E29.06715
G1 X132.396 Y152.757 E29.15204
G1 X130.751 Y154.684 E29.23631
G1 X129.146 Y156.673 E29.32132
G1 X127.621 Y158.679 E29.40513
G1 X126.473 Y160.278 E29.4706
G1 X126.163 Y160.696 E29.48791
G1 X125.591 Y161.395 E29.51795
G1 X124.96 Y162.04 E29.54796
G1 X124.273 Y162.627 E29.57801
G1 X123.538 Y163.152 E29.60806
G1 X122.759 Y163.609 E29.63809
G1 X121.943 Y163.995 E29.66812
G1 X121.095 Y164.307 E29.69817
G1 X120.224 Y164.544 E29.72819
G1 X119.335 Y164.702 E29.75823
G1 X118.277 Y164.787 E29.79353
G1 X117.955 Y164.796 E29.80424
G1 X117.67 Y164.8 E29.81372
G1 X102.562 Y164.799 E30.31622
G1 X101.861 Y164.789 E30.33953
