;FLAVOR:Marlin
;TIME:22074
;Filament used: 13.3861m
;Layer height: 0.2
;MINX:65.5
;MINY:52
;MINZ:0.2
;MAXX:157.7
;MAXY:151.3
;MAXZ:35.2
;Generated with Cura_SteamEngine 4.11.0
M140 S60
M105
M190 S60
M104 S210
M105
M109 S210
M82 ;absolute extrusion mode
; Ender 3 Custom Start G-code
G92 E0 ; Reset Extruder
G28 ; Home all axes
M420 S1
G1 Z2.0 F3000 ; Move Z Axis up little to prevent scratching of Heat Bed
G1 X0.1 Y20 Z0.3 F5000.0 ; Move to start position
G1 X0.1 Y200.0 Z0.3 F1500.0 E15 ; Draw the first line
G1 X0.4 Y200.0 Z0.3 F5000.0 ; Move to side a little
G1 X0.4 Y20 Z0.3 F1500.0 E30 ; Draw the second line
G92 E0 ; Reset Extruder
G1 Z2.0 F3000 ; Move Z Axis up little to prevent scratching of Heat Bed
G1 X5 Y20 Z0.3 F5000.0 ; Move over to prevent blob squish
G92 E0
G92 E0
G1 F1500 E-6.5
;LAYER_COUNT:176
;LAYER:0
M107
G0 F6000 X68.706 Y65.555 Z0.2
;TYPE:SKIRT
G1 F1500 E0
G1 F1200 X69.395 Y64.918 E0.03121
G1 X70.135 Y64.343 E0.06238
G1 X70.922 Y63.832 E0.09359
G1 X71.974 Y63.286 E0.13301
G1 X72.956 Y62.842 E0.16885
G1 X73.506 Y62.603 E0.1888
G1 X75.759 Y61.548 E0.27154
G1 X78.001 Y60.419 E0.35503
G1 X80.219 Y59.224 E0.43883
G1 X82.422 Y57.954 E0.52341
G1 X84.547 Y56.65 E0.60633
G1 X86.648 Y55.277 E0.68981
G1 X88.119 Y54.251 E0.74946
G1 X88.631 Y53.904 E0.77003
G1 X89.429 Y53.412 E0.80121
G1 X90.266 Y52.989 E0.8324
G1 X91.136 Y52.639 E0.86359
G1 X92.033 Y52.364 E0.8948
G1 X92.95 Y52.167 E0.92599
G1 X93.88 Y52.049 E0.95717
G1 X94.467 Y52.015 E0.97673
G1 X94.795 Y52.005 E0.98764
G1 X95.13 Y52 E0.99879
G1 X124.493 Y52 E1.97541
G1 X125.352 Y52.011 E2.00398
G1 X126.289 Y52.064 E2.03519
G1 X127.217 Y52.197 E2.06637
G1 X128.131 Y52.409 E2.09758
G1 X129.023 Y52.697 E2.12876
G1 X129.888 Y53.061 E2.15997
G1 X130.718 Y53.497 E2.19115
G1 X131.509 Y54.002 E2.22237
G1 X131.977 Y54.349 E2.24174
G1 X132.548 Y54.797 E2.26588
G1 X133.836 Y55.836 E2.32092
G1 X135.809 Y57.336 E2.40336
G1 X137.87 Y58.813 E2.48769
G1 X139.948 Y60.216 E2.57108
G1 X142.108 Y61.587 E2.65618
G1 X144.22 Y62.844 E2.73792
G1 X146.443 Y64.083 E2.82257
G1 X148.681 Y65.251 E2.90653
G1 X150.966 Y66.362 E2.99104
G1 X151.38 Y66.557 E3.00626
G1 X152.21 Y66.993 E3.03744
G1 X153.001 Y67.498 E3.06865
G1 X153.746 Y68.068 E3.09985
G1 X154.439 Y68.7 E3.13105
G1 X155.076 Y69.388 E3.16223
G1 X155.652 Y70.128 E3.19342
G1 X156.163 Y70.915 E3.22463
G1 X156.605 Y71.742 E3.25582
G1 X156.975 Y72.604 E3.28702
G1 X157.27 Y73.494 E3.31821
G1 X157.488 Y74.406 E3.34939
G1 X157.628 Y75.333 E3.38058
G1 X157.687 Y76.201 E3.40951
G1 X157.696 Y76.523 E3.42023
G1 X157.7 Y76.83 E3.43044
G1 X157.699 Y91.95 E3.93333
G1 X157.689 Y92.652 E3.95668
G1 X157.636 Y93.588 E3.98786
G1 X157.56 Y94.181 E4.00775
G1 X157.293 Y95.429 E4.0502
G1 X156.911 Y96.812 E4.09792
G1 X156.273 Y99.256 E4.18193
G1 X155.706 Y101.707 E4.2656
G1 X155.209 Y104.181 E4.34953
G1 X154.789 Y106.63 E4.43218
G1 X154.429 Y109.143 E4.51661
G1 X154.145 Y111.625 E4.5997
G1 X153.927 Y114.159 E4.68429
G1 X153.783 Y116.675 E4.76811
G1 X153.71 Y119.181 E4.8515
G1 X153.7 Y120.578 E4.89796
G1 X153.699 Y124.627 E5.03263
G1 X153.689 Y125.348 E5.05662
G1 X153.636 Y126.284 E5.0878
G1 X153.503 Y127.212 E5.11898
G1 X153.292 Y128.126 E5.15018
G1 X153.004 Y129.019 E5.18139
G1 X152.641 Y129.883 E5.21256
G1 X152.205 Y130.714 E5.24377
G1 X151.701 Y131.504 E5.27494
G1 X151.13 Y132.249 E5.30616
G1 X150.499 Y132.942 E5.33733
G1 X149.81 Y133.579 E5.36854
G1 X149.138 Y134.106 E5.39694
G1 X146.962 Y135.719 E5.48703
G1 X145.036 Y137.233 E5.56851
G1 X143.06 Y138.877 E5.65401
G1 X141.193 Y140.525 E5.73684
G1 X139.344 Y142.25 E5.82094
G1 X137.571 Y144.002 E5.90385
G1 X135.808 Y145.842 E5.9886
G1 X134.245 Y147.57 E6.0661
G1 X133.925 Y147.91 E6.08163
G1 X133.247 Y148.559 E6.11284
G1 X132.516 Y149.147 E6.14405
G1 X131.738 Y149.67 E6.17523
G1 X130.918 Y150.126 E6.20643
G1 X130.063 Y150.51 E6.23761
G1 X129.177 Y150.819 E6.26882
G1 X128.269 Y151.053 E6.3
G1 X127.344 Y151.207 E6.33119
G1 X126.299 Y151.287 E6.36605
G1 X125.978 Y151.296 E6.37673
G1 X125.67 Y151.3 E6.38698
G1 X94.535 Y151.299 E7.42253
G1 X93.831 Y151.288 E7.44595
G1 X92.895 Y151.233 E7.47713
G1 X91.967 Y151.099 E7.50832
G1 X91.053 Y150.886 E7.53953
G1 X90.161 Y150.596 E7.57073
G1 X89.297 Y150.232 E7.60191
G1 X88.467 Y149.795 E7.63311
G1 X87.678 Y149.289 E7.66429
G1 X86.934 Y148.717 E7.6955
G1 X86.242 Y148.084 E7.72669
G1 X85.851 Y147.674 E7.74554
G1 X85.026 Y146.763 E7.78641
G1 X83.239 Y144.847 E7.87356
G1 X81.477 Y143.061 E7.957
G1 X79.66 Y141.321 E8.04068
G1 X77.77 Y139.609 E8.12549
G1 X75.877 Y137.993 E8.20828
G1 X73.914 Y136.407 E8.29221
G1 X71.858 Y134.844 E8.37811
G1 X70.764 Y134.034 E8.42339
G1 X70.034 Y133.444 E8.45461
G1 X69.358 Y132.794 E8.4858
G1 X68.739 Y132.09 E8.51698
G1 X68.183 Y131.334 E8.54819
G1 X67.693 Y130.535 E8.57936
G1 X67.273 Y129.696 E8.61057
G1 X66.926 Y128.825 E8.64175
G1 X66.654 Y127.927 E8.67296
G1 X66.46 Y127.01 E8.70414
G1 X66.345 Y126.079 E8.73534
G1 X66.313 Y125.499 E8.75466
G1 X66.304 Y125.176 E8.7654
G1 X66.3 Y124.87 E8.77558
G1 X66.3 Y101.986 E9.53671
G1 X66.263 Y99.378 E9.62346
G1 X66.156 Y96.856 E9.70742
G1 X65.981 Y94.392 E9.78958
G1 X65.71 Y91.679 E9.88026
G1 X65.58 Y90.54 E9.91839
G1 X65.513 Y89.599 E9.94977
G1 X65.504 Y89.28 E9.96038
G1 X65.5 Y88.97 E9.97069
G1 X65.501 Y73.839 E10.47395
G1 X65.511 Y73.148 E10.49694
G1 X65.565 Y72.211 E10.52815
G1 X65.698 Y71.283 E10.55933
G1 X65.909 Y70.369 E10.59053
G1 X66.198 Y69.477 E10.62172
G1 X66.562 Y68.613 E10.6529
G1 X66.998 Y67.782 E10.68411
G1 X67.503 Y66.992 E10.7153
G1 X68.074 Y66.248 E10.74649
G1 X68.706 Y65.555 E10.77769
G0 F6000 X69.098 Y65.73
G1 F1200 X69.783 Y65.115 E10.80831
G1 X70.519 Y64.562 E10.83892
G1 X71.301 Y64.075 E10.86957
G1 X72.139 Y63.65 E10.90082
G1 X73.116 Y63.209 E10.93647
G1 X73.657 Y62.974 E10.95609
G1 X75.93 Y61.909 E11.03957
G1 X78.192 Y60.771 E11.12379
G1 X80.414 Y59.573 E11.20775
G1 X82.625 Y58.299 E11.29263
G1 X84.769 Y56.983 E11.3763
G1 X86.866 Y55.612 E11.45963
G1 X88.343 Y54.582 E11.51952
G1 X88.855 Y54.235 E11.54009
G1 X89.639 Y53.752 E11.57072
G1 X90.462 Y53.339 E11.60134
G1 X91.317 Y52.999 E11.63195
G1 X92.199 Y52.735 E11.66257
G1 X93.1 Y52.547 E11.69318
G1 X94.015 Y52.439 E11.72383
G1 X94.479 Y52.415 E11.73928
G1 X94.807 Y52.405 E11.75019
G1 X95.13 Y52.4 E11.76094
G1 X124.493 Y52.4 E12.73756
G1 X125.347 Y52.411 E12.76596
G1 X126.266 Y52.464 E12.79658
G1 X127.177 Y52.597 E12.8272
G1 X128.073 Y52.808 E12.85782
G1 X128.947 Y53.096 E12.88842
G1 X129.794 Y53.459 E12.91907
G1 X130.605 Y53.894 E12.94968
G1 X131.731 Y54.664 E12.99505
G1 X132.297 Y55.109 E13.019
G1 X133.567 Y56.133 E13.07326
G1 X135.579 Y57.664 E13.15735
G1 X137.635 Y59.137 E13.24147
G1 X139.756 Y60.569 E13.32659
G1 X141.854 Y61.9 E13.40923
G1 X144.068 Y63.218 E13.49493
G1 X146.242 Y64.43 E13.57771
G1 X148.5 Y65.608 E13.66242
G1 X150.799 Y66.726 E13.74745
G1 X151.209 Y66.919 E13.76252
G1 X152.024 Y67.347 E13.79314
G1 X152.799 Y67.845 E13.82377
G1 X153.528 Y68.408 E13.85441
G1 X154.205 Y69.031 E13.88501
G1 X154.825 Y69.711 E13.91562
G1 X155.384 Y70.443 E13.94625
G1 X155.878 Y71.22 E13.97688
G1 X156.302 Y72.037 E14.00749
G1 X156.654 Y72.888 E14.03812
G1 X156.93 Y73.766 E14.06873
G1 X157.13 Y74.665 E14.09936
G1 X157.25 Y75.578 E14.12999
G1 X157.287 Y76.212 E14.15111
G1 X157.296 Y76.534 E14.16183
G1 X157.3 Y76.83 E14.17167
G1 X157.299 Y91.944 E14.67437
G1 X157.289 Y92.646 E14.69772
G1 X157.236 Y93.565 E14.72834
G1 X157.165 Y94.12 E14.74694
G1 X156.908 Y95.322 E14.78783
G1 X156.533 Y96.678 E14.83462
G1 X155.882 Y99.171 E14.92032
G1 X155.311 Y101.637 E15.00451
G1 X154.821 Y104.078 E15.08732
G1 X154.392 Y106.577 E15.17165
G1 X154.034 Y109.073 E15.25552
G1 X153.743 Y111.621 E15.34081
G1 X153.53 Y114.1 E15.42357
G1 X153.385 Y116.64 E15.50819
G1 X153.31 Y119.212 E15.59377
G1 X153.3 Y120.576 E15.63914
G1 X153.299 Y124.621 E15.77367
G1 X153.289 Y125.342 E15.79766
G1 X153.236 Y126.261 E15.82827
G1 X153.104 Y127.172 E15.85889
G1 X152.893 Y128.068 E15.88951
G1 X152.605 Y128.943 E15.92014
G1 X152.243 Y129.789 E15.95075
G1 X151.808 Y130.601 E15.98139
G1 X151.305 Y131.372 E16.01201
G1 X150.736 Y132.096 E16.04263
G1 X150.107 Y132.768 E16.07325
G1 X149.422 Y133.383 E16.10387
G1 X148.875 Y133.804 E16.12683
G1 X146.745 Y135.381 E16.21497
G1 X144.757 Y136.944 E16.29908
G1 X142.825 Y138.552 E16.38269
G1 X140.899 Y140.251 E16.46811
G1 X139.091 Y141.938 E16.55035
G1 X137.266 Y143.742 E16.6357
G1 X135.505 Y145.579 E16.72034
G1 X133.948 Y147.301 E16.79756
G1 X133.733 Y147.532 E16.80805
G1 X133.636 Y147.633 E16.81271
G1 X132.97 Y148.269 E16.84334
G1 X132.252 Y148.845 E16.87396
G1 X131.486 Y149.356 E16.90458
G1 X130.679 Y149.798 E16.93518
G1 X129.836 Y150.169 E16.96582
G1 X128.964 Y150.465 E16.99645
G1 X128.07 Y150.685 E17.02707
G1 X127.16 Y150.826 E17.0577
G1 X126.288 Y150.887 E17.08677
G1 X125.967 Y150.896 E17.09745
G1 X125.67 Y150.9 E17.10733
G1 X94.541 Y150.899 E18.14268
G1 X93.837 Y150.888 E18.1661
G1 X92.918 Y150.833 E18.19672
G1 X92.007 Y150.699 E18.22735
G1 X91.112 Y150.487 E18.25794
G1 X90.238 Y150.198 E18.28856
G1 X89.392 Y149.834 E18.31919
G1 X88.581 Y149.398 E18.34981
G1 X87.811 Y148.893 E18.38044
G1 X87.088 Y148.323 E18.41106
G1 X86.147 Y147.405 E18.45479
G1 X85.297 Y146.467 E18.49689
G1 X83.551 Y144.595 E18.58203
G1 X81.755 Y142.774 E18.6671
G1 X79.904 Y141.001 E18.75235
G1 X78.068 Y139.339 E18.83472
G1 X76.124 Y137.679 E18.91974
G1 X74.161 Y136.093 E19.00368
G1 X72.033 Y134.475 E19.09259
G1 X71.002 Y133.712 E19.13525
G1 X70.286 Y133.133 E19.16588
G1 X69.624 Y132.494 E19.19648
G1 X69.019 Y131.799 E19.22713
G1 X68.477 Y131.055 E19.25774
G1 X68.002 Y130.266 E19.28837
G1 X67.597 Y129.44 E19.31897
G1 X67.265 Y128.581 E19.3496
G1 X67.009 Y127.697 E19.38021
G1 X66.831 Y126.793 E19.41086
G1 X66.713 Y125.488 E19.45444
G1 X66.704 Y125.165 E19.46519
G1 X66.7 Y124.87 E19.475
G1 X66.7 Y101.98 E20.23632
G1 X66.663 Y99.355 E20.32364
G1 X66.556 Y96.847 E20.40713
G1 X66.38 Y94.358 E20.49012
G1 X66.105 Y91.6 E20.58231
G1 X65.978 Y90.495 E20.6193
G1 X65.913 Y89.588 E20.64955
G1 X65.904 Y89.269 E20.66016
G1 X65.9 Y88.97 E20.67011
G1 X65.901 Y73.845 E21.17317
G1 X65.911 Y73.154 E21.19615
G1 X65.964 Y72.235 E21.22677
G1 X66.097 Y71.323 E21.25742
G1 X66.309 Y70.427 E21.28805
G1 X66.597 Y69.553 E21.31865
G1 X66.96 Y68.707 E21.34927
G1 X67.395 Y67.896 E21.37988
G1 X67.899 Y67.125 E21.41052
G1 X68.468 Y66.401 E21.44115
G1 X69.098 Y65.73 E21.47176
G0 F6000 X69.489 Y65.908
G1 F1200 X70.171 Y65.316 E21.5018
G1 X70.903 Y64.787 E21.53183
G1 X71.678 Y64.324 E21.56186
G1 X72.304 Y64.014 E21.58509
G1 X73.275 Y63.576 E21.62052
G1 X73.82 Y63.339 E21.64029
G1 X76.086 Y62.278 E21.72351
G1 X78.397 Y61.115 E21.80956
G1 X80.598 Y59.929 E21.89272
G1 X82.839 Y58.637 E21.97875
G1 X84.967 Y57.331 E22.0618
G1 X87.107 Y55.931 E22.14685
G1 X88.568 Y54.913 E22.20608
G1 X89.08 Y54.566 E22.22665
G1 X89.849 Y54.093 E22.25668
G1 X90.657 Y53.69 E22.28671
G1 X91.498 Y53.36 E22.31676
G1 X92.364 Y53.106 E22.34677
G1 X93.25 Y52.929 E22.37682
G1 X94.491 Y52.815 E22.41827
G1 X94.819 Y52.805 E22.42919
G1 X95.13 Y52.8 E22.43953
G1 X124.493 Y52.8 E23.41615
G1 X125.341 Y52.811 E23.44436
G1 X126.243 Y52.864 E23.47441
G1 X127.136 Y52.996 E23.50443
G1 X128.014 Y53.207 E23.53447
G1 X128.87 Y53.495 E23.56451
G1 X129.697 Y53.857 E23.59453
G1 X130.489 Y54.291 E23.62457
G1 X131.484 Y54.979 E23.6648
G1 X132.046 Y55.42 E23.68856
G1 X133.319 Y56.447 E23.74297
G1 X135.35 Y57.991 E23.82782
G1 X137.424 Y59.478 E23.9127
G1 X139.524 Y60.895 E23.99696
G1 X141.656 Y62.249 E24.08096
G1 X143.833 Y63.545 E24.16523
G1 X146.084 Y64.799 E24.25093
G1 X148.318 Y65.965 E24.33475
G1 X150.6 Y67.074 E24.41913
G1 X151.039 Y67.281 E24.43528
G1 X151.838 Y67.702 E24.46531
G1 X152.597 Y68.192 E24.49536
G1 X153.309 Y68.747 E24.52539
G1 X153.97 Y69.362 E24.55542
G1 X154.573 Y70.034 E24.58545
G1 X155.115 Y70.757 E24.6155
G1 X155.591 Y71.525 E24.64555
G1 X155.997 Y72.331 E24.67557
G1 X156.33 Y73.171 E24.70562
G1 X156.587 Y74.036 E24.73564
G1 X156.767 Y74.921 E24.76567
G1 X156.887 Y76.223 E24.80916
G1 X156.896 Y76.545 E24.81988
G1 X156.9 Y76.83 E24.82936
G1 X156.899 Y91.938 E25.33185
G1 X156.889 Y92.64 E25.3552
G1 X156.836 Y93.542 E25.38525
G1 X156.769 Y94.059 E25.40259
G1 X156.522 Y95.216 E25.44194
G1 X156.143 Y96.587 E25.48925
G1 X155.5 Y99.051 E25.57395
G1 X154.916 Y101.573 E25.66005
G1 X154.429 Y103.997 E25.74229
G1 X153.995 Y106.525 E25.8276
G1 X153.634 Y109.046 E25.9123
G1 X153.35 Y111.538 E25.99572
G1 X153.128 Y114.114 E26.08172
G1 X152.985 Y116.605 E26.16471
G1 X152.91 Y119.198 E26.25098
G1 X152.9 Y120.573 E26.29672
G1 X152.899 Y124.615 E26.43116
G1 X152.889 Y125.336 E26.45514
G1 X152.837 Y126.238 E26.48519
G1 X152.704 Y127.131 E26.51522
G1 X152.494 Y128.01 E26.54528
G1 X152.207 Y128.866 E26.57531
G1 X151.845 Y129.693 E26.60533
G1 X151.411 Y130.485 E26.63537
G1 X150.909 Y131.236 E26.66541
G1 X150.342 Y131.939 E26.69545
G1 X149.716 Y132.59 E26.72549
G1 X149.034 Y133.182 E26.75553
G1 X148.59 Y133.516 E26.77401
G1 X146.5 Y135.065 E26.86053
G1 X144.521 Y136.621 E26.94426
G1 X142.55 Y138.26 E27.02952
G1 X140.664 Y139.925 E27.1132
G1 X138.785 Y141.678 E27.19867
G1 X136.996 Y143.446 E27.28233
G1 X135.221 Y145.299 E27.36767
G1 X133.652 Y147.033 E27.44545
G1 X133.348 Y147.356 E27.4602
G1 X132.694 Y147.979 E27.49024
G1 X131.988 Y148.542 E27.52028
G1 X131.234 Y149.04 E27.55033
G1 X130.44 Y149.47 E27.58036
G1 X129.61 Y149.827 E27.61042
G1 X128.753 Y150.11 E27.64043
G1 X127.873 Y150.316 E27.67049
G1 X126.979 Y150.443 E27.70053
G1 X126.277 Y150.487 E27.72392
G1 X125.956 Y150.496 E27.7346
G1 X125.67 Y150.5 E27.74412
G1 X94.548 Y150.499 E28.77924
G1 X93.844 Y150.488 E28.80266
G1 X92.942 Y150.434 E28.83271
G1 X92.049 Y150.3 E28.86274
G1 X91.171 Y150.088 E28.89279
G1 X90.315 Y149.799 E28.92283
G1 X89.489 Y149.436 E28.95284
G1 X88.697 Y149.001 E28.9829
G1 X87.948 Y148.497 E29.01292
G1 X87.245 Y147.929 E29.04298
G1 X86.444 Y147.137 E29.08045
G1 X85.605 Y146.211 E29.12201
G1 X83.828 Y144.305 E29.20868
G1 X82.034 Y142.487 E29.29363
G1 X80.203 Y140.733 E29.37797
G1 X78.314 Y139.023 E29.46271
G1 X76.39 Y137.38 E29.54686
G1 X74.393 Y135.767 E29.63224
G1 X72.326 Y134.195 E29.71862
G1 X71.24 Y133.391 E29.76356
G1 X70.538 Y132.822 E29.79361
G1 X69.89 Y132.193 E29.82365
G1 X69.3 Y131.509 E29.85369
G1 X68.773 Y130.776 E29.88372
G1 X68.312 Y129.999 E29.91377
G1 X67.922 Y129.185 E29.94379
G1 X67.606 Y128.339 E29.97383
G1 X67.366 Y127.468 E30.00388
G1 X67.204 Y126.58 E30.0339
G1 X67.113 Y125.477 E30.07071
G1 X67.104 Y125.154 E30.08146
G1 X67.1 Y124.87 E30.0909
G1 X67.1 Y101.974 E30.85243
G1 X67.063 Y99.368 E30.93911
G1 X66.954 Y96.8 E31.0246
G1 X66.779 Y94.329 E31.10699
G1 X66.504 Y91.575 E31.19905
G1 X66.375 Y90.449 E31.23674
G1 X66.313 Y89.577 E31.26582
G1 X66.304 Y89.258 E31.27643
G1 X66.3 Y88.97 E31.28601
G1 X66.301 Y73.85 E31.78891
G1 X66.311 Y73.159 E31.81189
G1 X66.364 Y72.258 E31.84191
G1 X66.497 Y71.365 E31.87194
G1 X66.708 Y70.486 E31.90201
G1 X66.996 Y69.63 E31.93204
G1 X67.358 Y68.803 E31.96207
G1 X67.792 Y68.011 E31.99211
G1 X68.295 Y67.261 E32.02214
G1 X68.862 Y66.558 E32.05218
G1 X69.489 Y65.908 E32.08222
G1 F1500 E25.58222
;MESH:1x1x2 Brick Headlight.stl(1)
G0 F6000 X81.027 Y77.165
G0 X81.027 Y75.73
G0 X89.728 Y76.072
G0 X89.9 Y86.7
;TYPE:WALL-INNER
G1 F1500 E32.08222
G1 F1200 X89.9 Y75.9 E32.44143
G1 X79.1 Y75.9 E32.80064
G1 X79.1 Y86.7 E33.15985
G1 X89.9 Y86.7 E33.51906
G0 F6000 X89.5 Y86.3
;TYPE:WALL-OUTER
G1 F1200 X89.5 Y76.3 E33.85166
G1 X79.5 Y76.3 E34.18426
G1 X79.5 Y86.3 E34.51686
G1 X89.5 Y86.3 E34.84946
G1 F1500 E28.34946
G0 F6000 X89.8 Y86.3
G0 X90.096 Y86.896
G0 X91.69 Y86.896
G0 X91.9 Y88.7
;TYPE:WALL-INNER
G1 F1500 E34.84946
G1 F1200 X77.1 Y88.7 E35.34171
G1 X77.1 Y73.9 E35.83396
G1 X91.9 Y73.9 E36.32621
G1 X91.9 Y88.7 E36.81846
G0 F6000 X92.3 Y89.1
;TYPE:WALL-OUTER
G1 F1200 X76.7 Y89.1 E37.33732
G1 X76.7 Y73.5 E37.85618
G1 X92.3 Y73.5 E38.37504
G1 X92.3 Y89.1 E38.8939
G0 F6000 X92.03 Y88.83
G0 X91.79 Y88.31
G0 X91.51 Y88.31
;TYPE:SKIN
G1 F1200 X77.49 Y88.31 E39.3602
G1 X77.49 Y74.29 E39.82651
G1 X91.51 Y74.29 E40.29282
G1 X91.51 Y88.31 E40.75912
G1 F1500 E34.25912
G0 F6000 X91.79 Y88.31
G0 X91.69 Y86.84
