;FLAVOR:Marlin
;TIME:14650
;Filament used: 8.64147m
;Layer height: 0.2
;MINX:56.768
;MINY:56.779
;MINZ:0.2
;MAXX:163.2
;MAXY:163.2
;MAXZ:12.6
;Generated with Cura_SteamEngine 4.11.0
M140 S60
M105
M190 S60
M104 S210
M105
M109 S210
M82 ;absolute extrusion mode
; Ender 3 Custom Start G-code
G92 E0 ; Reset Extruder
G28 ; Home all axes
M420 S1
G1 Z2.0 F3000 ; Move Z Axis up little to prevent scratching of Heat Bed
G1 X0.1 Y20 Z0.3 F5000.0 ; Move to start position
G1 X0.1 Y200.0 Z0.3 F1500.0 E15 ; Draw the first line
G1 X0.4 Y200.0 Z0.3 F5000.0 ; Move to side a little
G1 X0.4 Y20 Z0.3 F1500.0 E30 ; Draw the second line
G92 E0 ; Reset Extruder
G1 Z2.0 F3000 ; Move Z Axis up little to prevent scratching of Heat Bed
G1 X5 Y20 Z0.3 F5000.0 ; Move over to prevent blob squish
G92 E0
G92 E0
G1 F1500 E-6.5
;LAYER_COUNT:64
;LAYER:0
M107
G0 F6000 X62.011 Y62.193 Z0.2
;TYPE:SKIRT
G1 F1500 E0
G1 F1200 X62.695 Y61.551 E0.0312
G1 X63.32 Y61.052 E0.0578
G1 X63.71 Y60.772 E0.07377
G1 X64.262 Y60.394 E0.09602
G1 X65.543 Y59.538 E0.14726
G1 X66.245 Y59.084 E0.17507
G1 X67.054 Y58.61 E0.20626
G1 X67.901 Y58.206 E0.23747
G1 X68.779 Y57.876 E0.26867
G1 X69.7 Y57.617 E0.30049
G1 X70.023 Y57.544 E0.3115
G1 X70.645 Y57.414 E0.33263
G1 X72.328 Y57.079 E0.38971
G1 X72.968 Y56.962 E0.41135
G1 X73.404 Y56.892 E0.42604
G1 X74.338 Y56.799 E0.45725
G1 X75.442 Y56.792 E0.49397
G1 X76.216 Y56.826 E0.51974
G1 X78.813 Y56.902 E0.60616
G1 X81.336 Y56.906 E0.69007
G1 X83.891 Y56.836 E0.77508
G1 X84.408 Y56.811 E0.7923
G1 X85.253 Y56.784 E0.82042
G1 X85.581 Y56.779 E0.83133
G1 X91.744 Y56.779 E1.03631
G1 X92.605 Y56.79 E1.06495
G1 X92.917 Y56.799 E1.07533
G1 X94.024 Y56.846 E1.11218
G1 X96.568 Y56.919 E1.19683
G1 X99.09 Y56.919 E1.28071
G1 X101.685 Y56.846 E1.36706
G1 X102.197 Y56.823 E1.38411
G1 X102.804 Y56.805 E1.4043
G1 X103.13 Y56.8 E1.41515
G1 X116.646 Y56.801 E1.86469
G1 X117.36 Y56.811 E1.88844
G1 X117.675 Y56.82 E1.89892
G1 X118.336 Y56.848 E1.92093
G1 X120.876 Y56.921 E2.00544
G1 X123.403 Y56.921 E2.08949
G1 X125.973 Y56.85 E2.175
G1 X127.049 Y56.805 E2.21082
G1 X127.987 Y56.805 E2.24202
G1 X128.922 Y56.886 E2.27323
G1 X129.479 Y56.973 E2.29198
G1 X130.345 Y57.132 E2.32127
G1 X131.741 Y57.411 E2.36862
G1 X132.58 Y57.591 E2.39716
G1 X133.488 Y57.827 E2.42836
G1 X134.372 Y58.139 E2.45954
G1 X135.227 Y58.526 E2.49076
G1 X136.089 Y59.011 E2.52365
G1 X136.352 Y59.177 E2.534
G1 X136.83 Y59.489 E2.55298
G1 X138.117 Y60.348 E2.60445
G1 X138.844 Y60.848 E2.63379
G1 X139.593 Y61.412 E2.66498
G1 X140.291 Y62.039 E2.69619
G1 X140.933 Y62.722 E2.72736
G1 X141.406 Y63.31 E2.75246
G1 X142.968 Y65.395 E2.83911
G1 X144.529 Y67.361 E2.92261
G1 X146.157 Y69.296 E3.00671
G1 X147.827 Y71.17 E3.0902
G1 X149.548 Y72.997 E3.17368
G1 X151.334 Y74.786 E3.25776
G1 X153.138 Y76.495 E3.34041
G1 X155.037 Y78.195 E3.42518
G1 X156.378 Y79.331 E3.48364
G1 X156.739 Y79.643 E3.49951
G1 X157.422 Y80.285 E3.53068
G1 X158.047 Y80.984 E3.56187
G1 X158.411 Y81.452 E3.58159
G1 X158.658 Y81.798 E3.59573
G1 X159.053 Y82.377 E3.61904
G1 X159.782 Y83.47 E3.66274
G1 X160.167 Y84.065 E3.68631
G1 X160.643 Y84.874 E3.71753
G1 X161.048 Y85.72 E3.74873
G1 X161.379 Y86.597 E3.7799
G1 X161.689 Y87.742 E3.81936
G1 X161.856 Y88.528 E3.84608
G1 X162.111 Y89.812 E3.88962
G1 X162.237 Y90.498 E3.91282
G1 X162.367 Y91.427 E3.94402
G1 X162.409 Y92.035 E3.96429
G1 X162.45 Y93.036 E3.99761
G1 X162.469 Y93.725 E4.02054
G1 X162.605 Y96.243 E4.10441
G1 X162.815 Y98.784 E4.18921
G1 X162.988 Y100.412 E4.24366
G1 X163.118 Y101.544 E4.28156
G1 X163.185 Y102.467 E4.31234
G1 X163.195 Y102.797 E4.32332
G1 X163.2 Y103.13 E4.3344
G1 X163.199 Y116.626 E4.78328
G1 X163.189 Y117.351 E4.80739
G1 X163.18 Y117.663 E4.81778
G1 X163.148 Y118.41 E4.84264
G1 X163.072 Y121.097 E4.93205
G1 X163.072 Y123.597 E5.0152
G1 X163.14 Y126.072 E5.09755
G1 X163.183 Y127.122 E5.1325
G1 X163.191 Y127.415 E5.14225
G1 X163.2 Y128.143 E5.16647
G1 X163.199 Y134.163 E5.36669
G1 X163.189 Y134.869 E5.39018
G1 X163.18 Y135.178 E5.40046
G1 X163.144 Y136.03 E5.42882
G1 X163.069 Y138.679 E5.51696
G1 X163.069 Y141.181 E5.60018
G1 X163.137 Y143.641 E5.68203
G1 X163.174 Y144.547 E5.71219
G1 X163.172 Y145.484 E5.74335
G1 X163.052 Y146.692 E5.78373
G1 X162.98 Y147.122 E5.79823
G1 X162.87 Y147.705 E5.81796
G1 X162.539 Y149.366 E5.87429
G1 X162.393 Y150.049 E5.89752
G1 X162.158 Y150.957 E5.92872
G1 X161.847 Y151.842 E5.95992
G1 X161.461 Y152.697 E5.99112
G1 X160.964 Y153.58 E6.02482
G1 X160.8 Y153.839 E6.03502
G1 X160.468 Y154.349 E6.05526
G1 X159.549 Y155.723 E6.11024
G1 X159.134 Y156.325 E6.13456
G1 X158.569 Y157.074 E6.16576
G1 X157.942 Y157.772 E6.19697
G1 X157.259 Y158.414 E6.22815
G1 X156.535 Y158.987 E6.25885
G1 X156.213 Y159.216 E6.272
G1 X155.716 Y159.556 E6.29203
G1 X154.458 Y160.397 E6.34236
G1 X153.721 Y160.875 E6.37157
G1 X152.913 Y161.351 E6.40276
G1 X152.067 Y161.756 E6.43396
G1 X151.189 Y162.087 E6.46517
G1 X150.386 Y162.319 E6.49297
G1 X150.289 Y162.343 E6.49629
G1 X149.916 Y162.428 E6.50902
G1 X149.295 Y162.559 E6.53012
G1 X147.817 Y162.853 E6.58025
G1 X146.991 Y163.006 E6.60819
G1 X146.063 Y163.137 E6.63936
G1 X145.126 Y163.188 E6.67057
G1 X144.206 Y163.161 E6.70118
G1 X142.713 Y163.053 E6.75097
G1 X142.359 Y163.026 E6.76278
G1 X139.797 Y162.888 E6.84811
G1 X137.301 Y162.823 E6.93116
G1 X134.777 Y162.83 E7.01511
G1 X132.256 Y162.907 E7.099
G1 X129.723 Y163.057 E7.18339
G1 X129.036 Y163.114 E7.20632
G1 X128.258 Y163.167 E7.23226
G1 X127.657 Y163.191 E7.25226
G1 X126.912 Y163.2 E7.27704
G1 X120.882 Y163.199 E7.4776
G1 X120.312 Y163.191 E7.49656
G1 X117.665 Y163.191 E7.5846
G1 X117.371 Y163.197 E7.59438
G1 X116.969 Y163.2 E7.60775
G1 X103.382 Y163.199 E8.05966
G1 X102.825 Y163.191 E8.07818
G1 X100.206 Y163.191 E8.16529
G1 X99.899 Y163.197 E8.17551
G1 X99.463 Y163.2 E8.19001
G1 X85.85 Y163.199 E8.64278
G1 X85.148 Y163.189 E8.66613
G1 X84.212 Y163.136 E8.69731
G1 X83.284 Y163.003 E8.72849
G1 X82.37 Y162.791 E8.7597
G1 X81.477 Y162.503 E8.7909
G1 X80.613 Y162.139 E8.82209
G1 X79.782 Y161.703 E8.8533
G1 X78.992 Y161.198 E8.88449
G1 X78.248 Y160.628 E8.91566
G1 X77.555 Y159.996 E8.94685
G1 X76.918 Y159.307 E8.97806
G1 X76.342 Y158.567 E9.00925
G1 X76.016 Y158.082 E9.02869
G1 X75.741 Y157.646 E9.04583
G1 X74.746 Y156.033 E9.10887
G1 X73.331 Y153.878 E9.19461
G1 X71.928 Y151.865 E9.27622
G1 X70.411 Y149.817 E9.36099
G1 X68.848 Y147.827 E9.44516
G1 X67.249 Y145.906 E9.52829
G1 X65.593 Y144.026 E9.61161
G1 X63.868 Y142.176 E9.69574
G1 X62.49 Y140.785 E9.76087
G1 X61.979 Y140.258 E9.78528
G1 X61.355 Y139.558 E9.81647
G1 X61.014 Y139.118 E9.83499
G1 X60.752 Y138.751 E9.84998
G1 X60.381 Y138.208 E9.87186
G1 X59.456 Y136.822 E9.92728
G1 X59.085 Y136.25 E9.94996
G1 X58.609 Y135.442 E9.98115
G1 X58.203 Y134.596 E10.01236
G1 X57.871 Y133.719 E10.04355
G1 X57.598 Y132.746 E10.07716
G1 X57.53 Y132.447 E10.08736
G1 X57.4 Y131.825 E10.10849
G1 X57.064 Y130.136 E10.16577
G1 X56.945 Y129.483 E10.18785
G1 X56.817 Y128.554 E10.21904
G1 X56.768 Y127.618 E10.25021
G1 X56.778 Y127.028 E10.26984
G1 X56.827 Y125.918 E10.30679
G1 X56.904 Y123.312 E10.39351
G1 X56.908 Y120.789 E10.47742
G1 X56.84 Y118.255 E10.56173
G1 X56.827 Y117.942 E10.57215
G1 X56.805 Y117.193 E10.59707
G1 X56.8 Y116.87 E10.60782
G1 X56.801 Y103.365 E11.057
G1 X56.809 Y102.797 E11.07589
G1 X56.809 Y100.205 E11.1621
G1 X56.803 Y99.898 E11.17231
G1 X56.8 Y99.463 E11.18678
G1 X56.801 Y85.852 E11.63949
G1 X56.811 Y85.141 E11.66314
G1 X56.82 Y84.83 E11.67348
G1 X56.834 Y84.49 E11.6848
G1 X56.908 Y81.856 E11.77244
G1 X56.908 Y79.331 E11.85643
G1 X56.837 Y76.844 E11.93918
G1 X56.821 Y76.525 E11.9498
G1 X56.776 Y75.413 E11.98682
G1 X56.778 Y74.475 E12.01801
G1 X56.901 Y73.259 E12.05866
G1 X56.968 Y72.861 E12.07209
G1 X57.086 Y72.231 E12.09341
G1 X57.407 Y70.619 E12.14807
G1 X57.561 Y69.903 E12.17243
G1 X57.797 Y68.995 E12.20364
G1 X58.11 Y68.111 E12.23483
G1 X58.496 Y67.257 E12.266
G1 X58.979 Y66.398 E12.29878
G1 X59.142 Y66.142 E12.30887
G1 X59.497 Y65.598 E12.33048
G1 X60.448 Y64.175 E12.3874
G1 X60.818 Y63.639 E12.40906
G1 X61.384 Y62.891 E12.44026
G1 X62.011 Y62.193 E12.47147
G0 F6000 X62.32 Y62.449
G1 F1200 X62.994 Y61.822 E12.50209
G1 X63.558 Y61.373 E12.52606
G1 X63.936 Y61.102 E12.54153
G1 X64.485 Y60.727 E12.56365
G1 X65.91 Y59.776 E12.62063
G1 X66.462 Y59.42 E12.64247
G1 X67.257 Y58.955 E12.67311
G1 X68.089 Y58.561 E12.70372
G1 X68.952 Y58.24 E12.73435
G1 X69.791 Y58.007 E12.76331
G1 X70.106 Y57.936 E12.77405
G1 X70.723 Y57.806 E12.79502
G1 X72.4 Y57.473 E12.85189
G1 X73.04 Y57.356 E12.87353
G1 X73.461 Y57.288 E12.88771
G1 X74.377 Y57.197 E12.91833
G1 X75.425 Y57.191 E12.95319
G1 X76.258 Y57.228 E12.98092
G1 X78.8 Y57.302 E13.0655
G1 X81.347 Y57.306 E13.15022
G1 X83.92 Y57.236 E13.23583
G1 X84.628 Y57.203 E13.2594
G1 X85.265 Y57.184 E13.2806
G1 X85.581 Y57.179 E13.29111
G1 X91.744 Y57.179 E13.49609
G1 X92.599 Y57.19 E13.52453
G1 X92.9 Y57.199 E13.53454
G1 X93.925 Y57.243 E13.56867
G1 X96.591 Y57.319 E13.65737
G1 X99.101 Y57.319 E13.74086
G1 X101.671 Y57.247 E13.82637
G1 X101.996 Y57.231 E13.83719
G1 X102.816 Y57.205 E13.86448
G1 X103.13 Y57.2 E13.87492
G1 X116.64 Y57.201 E14.32427
G1 X117.354 Y57.211 E14.34802
G1 X117.658 Y57.22 E14.35813
G1 X118.236 Y57.245 E14.37738
G1 X120.9 Y57.321 E14.46602
G1 X123.414 Y57.321 E14.54963
G1 X125.93 Y57.251 E14.63335
G1 X127.066 Y57.204 E14.67116
G1 X127.987 Y57.206 E14.7018
G1 X128.904 Y57.287 E14.73242
G1 X129.407 Y57.366 E14.74935
G1 X130.088 Y57.49 E14.77237
G1 X131.662 Y57.804 E14.82576
G1 X132.496 Y57.982 E14.85412
G1 X133.387 Y58.214 E14.88474
G1 X134.254 Y58.523 E14.91536
G1 X135.092 Y58.906 E14.946
G1 X135.877 Y59.35 E14.976
G1 X136.133 Y59.512 E14.98607
G1 X136.608 Y59.821 E15.00492
G1 X137.895 Y60.68 E15.05639
G1 X138.617 Y61.177 E15.08554
G1 X139.352 Y61.732 E15.11617
G1 X140.036 Y62.348 E15.14679
G1 X140.663 Y63.022 E15.1774
G1 X141.086 Y63.55 E15.19991
G1 X142.65 Y65.638 E15.28668
G1 X144.228 Y67.625 E15.37107
G1 X145.834 Y69.533 E15.45402
G1 X147.538 Y71.446 E15.53923
G1 X149.256 Y73.271 E15.62259
G1 X151.059 Y75.076 E15.70744
G1 X152.879 Y76.8 E15.79082
G1 X154.775 Y78.497 E15.87546
G1 X156.116 Y79.633 E15.93391
G1 X156.477 Y79.945 E15.94978
G1 X157.147 Y80.577 E15.98041
G1 X157.759 Y81.264 E16.01102
G1 X158.124 Y81.738 E16.03091
G1 X158.328 Y82.024 E16.0426
G1 X158.721 Y82.6 E16.06579
G1 X159.36 Y83.556 E16.10404
G1 X159.831 Y84.283 E16.13285
G1 X160.298 Y85.076 E16.16346
G1 X160.693 Y85.908 E16.19409
G1 X161.015 Y86.77 E16.22469
G1 X161.298 Y87.826 E16.26106
G1 X161.464 Y88.607 E16.28761
G1 X161.718 Y89.884 E16.33092
G1 X161.844 Y90.57 E16.35412
G1 X161.97 Y91.482 E16.38474
G1 X162.009 Y92.051 E16.40371
G1 X162.055 Y93.211 E16.44232
G1 X162.069 Y93.757 E16.46048
G1 X162.205 Y96.261 E16.54389
G1 X162.416 Y98.815 E16.62913
G1 X162.58 Y100.363 E16.6809
G1 X162.721 Y101.59 E16.72198
G1 X162.785 Y102.479 E16.75162
G1 X162.795 Y102.809 E16.76261
G1 X162.8 Y103.13 E16.77328
G1 X162.799 Y116.62 E17.22196
G1 X162.789 Y117.345 E17.24608
G1 X162.781 Y117.646 E17.25609
G1 X162.746 Y118.486 E17.28406
G1 X162.672 Y121.086 E17.37057
G1 X162.672 Y123.608 E17.45445
G1 X162.741 Y126.099 E17.53733
G1 X162.783 Y127.138 E17.57192
G1 X162.791 Y127.421 E17.58133
G1 X162.8 Y128.143 E17.60535
G1 X162.799 Y134.157 E17.80538
G1 X162.789 Y134.863 E17.82886
G1 X162.781 Y135.161 E17.83878
G1 X162.744 Y136.032 E17.86777
G1 X162.669 Y138.668 E17.95548
G1 X162.669 Y141.192 E18.03943
G1 X162.736 Y143.635 E18.12071
G1 X162.774 Y144.563 E18.15161
G1 X162.772 Y145.484 E18.18224
G1 X162.656 Y146.63 E18.22055
G1 X162.587 Y147.048 E18.23464
G1 X162.478 Y147.628 E18.25427
G1 X162.148 Y149.283 E18.3104
G1 X162.002 Y149.966 E18.33363
G1 X161.77 Y150.857 E18.36425
G1 X161.463 Y151.725 E18.39487
G1 X161.081 Y152.562 E18.42547
G1 X160.625 Y153.368 E18.45627
G1 X160.465 Y153.621 E18.46623
G1 X160.135 Y154.126 E18.48629
G1 X159.219 Y155.496 E18.54111
G1 X158.804 Y156.098 E18.56543
G1 X158.249 Y156.833 E18.59606
G1 X157.633 Y157.517 E18.62668
G1 X156.959 Y158.144 E18.65729
G1 X156.3 Y158.663 E18.68519
G1 X155.986 Y158.886 E18.698
G1 X155.494 Y159.223 E18.71784
G1 X154.105 Y160.151 E18.7734
G1 X153.504 Y160.54 E18.79721
G1 X152.71 Y161.006 E18.82783
G1 X151.878 Y161.401 E18.85846
G1 X151.016 Y161.723 E18.88907
G1 X150.29 Y161.931 E18.91419
G1 X149.834 Y162.037 E18.92976
G1 X149.217 Y162.166 E18.95072
G1 X147.596 Y162.488 E19.00569
G1 X146.919 Y162.613 E19.02859
G1 X146.007 Y162.74 E19.05921
G1 X145.087 Y162.789 E19.08986
G1 X144.235 Y162.762 E19.11821
G1 X142.744 Y162.655 E19.16793
G1 X142.368 Y162.626 E19.18047
G1 X139.794 Y162.488 E19.2662
G1 X137.31 Y162.423 E19.34885
G1 X134.765 Y162.43 E19.4335
G1 X132.254 Y162.507 E19.51705
G1 X129.669 Y162.66 E19.60318
G1 X129.008 Y162.714 E19.62524
G1 X128.23 Y162.767 E19.65118
G1 X127.652 Y162.791 E19.67042
G1 X126.912 Y162.8 E19.69503
G1 X120.887 Y162.799 E19.89542
G1 X120.317 Y162.791 E19.91438
G1 X117.703 Y162.791 E20.00133
G1 X117.368 Y162.797 E20.01247
G1 X116.966 Y162.8 E20.02584
G1 X103.388 Y162.799 E20.47745
G1 X102.831 Y162.791 E20.49597
G1 X100.197 Y162.791 E20.58358
G1 X99.896 Y162.797 E20.5936
G1 X99.46 Y162.8 E20.6081
G1 X85.856 Y162.799 E21.06057
G1 X85.154 Y162.789 E21.08392
G1 X84.235 Y162.736 E21.11454
G1 X83.324 Y162.603 E21.14516
G1 X82.428 Y162.392 E21.17577
G1 X81.553 Y162.104 E21.20641
G1 X80.707 Y161.741 E21.23703
G1 X79.896 Y161.306 E21.26764
G1 X79.125 Y160.802 E21.29828
G1 X78.401 Y160.234 E21.32888
G1 X77.729 Y159.604 E21.35952
G1 X77.115 Y158.919 E21.39012
G1 X76.354 Y157.868 E21.43327
G1 X76.081 Y157.436 E21.45027
G1 X75.072 Y155.8 E21.5142
G1 X73.678 Y153.676 E21.5987
G1 X72.249 Y151.628 E21.68176
G1 X70.714 Y149.555 E21.76755
G1 X69.172 Y147.591 E21.8506
G1 X67.555 Y145.649 E21.93465
G1 X65.864 Y143.729 E22.01975
G1 X64.178 Y141.921 E22.10197
G1 X62.777 Y140.507 E22.16818
G1 X62.266 Y139.98 E22.19259
G1 X61.379 Y138.938 E22.23811
G1 X61.082 Y138.526 E22.255
G1 X60.714 Y137.986 E22.27673
G1 X59.792 Y136.604 E22.33199
G1 X59.421 Y136.032 E22.35467
G1 X58.954 Y135.239 E22.38528
G1 X58.557 Y134.408 E22.41591
G1 X58.235 Y133.546 E22.44651
G1 X57.987 Y132.655 E22.47727
G1 X57.922 Y132.364 E22.48719
G1 X57.792 Y131.747 E22.50816
G1 X57.491 Y130.238 E22.55934
G1 X57.339 Y129.411 E22.58731
G1 X57.213 Y128.499 E22.61793
G1 X57.167 Y127.58 E22.64853
G1 X57.177 Y127.046 E22.6663
G1 X57.228 Y125.878 E22.70518
G1 X57.304 Y123.325 E22.79013
G1 X57.308 Y120.779 E22.87481
G1 X57.239 Y118.226 E22.95976
G1 X57.227 Y117.93 E22.96961
G1 X57.205 Y117.181 E22.99453
G1 X57.2 Y116.87 E23.00488
G1 X57.201 Y103.37 E23.45389
G1 X57.209 Y102.809 E23.47255
G1 X57.209 Y100.196 E23.55946
G1 X57.203 Y99.895 E23.56947
G1 X57.2 Y99.46 E23.58394
G1 X57.201 Y85.858 E24.03635
G1 X57.211 Y85.147 E24.06
G1 X57.22 Y84.847 E24.06998
G1 X57.234 Y84.518 E24.08093
G1 X57.308 Y81.867 E24.16914
G1 X57.308 Y79.355 E24.25269
G1 X57.234 Y76.771 E24.33867
G1 X57.221 Y76.509 E24.34739
G1 X57.176 Y75.397 E24.38441
G1 X57.178 Y74.476 E24.41504
G1 X57.296 Y73.321 E24.45366
G1 X57.361 Y72.934 E24.46671
G1 X57.478 Y72.309 E24.48786
G1 X57.763 Y70.871 E24.53662
G1 X57.952 Y69.987 E24.56668
G1 X58.184 Y69.096 E24.5973
G1 X58.493 Y68.229 E24.62792
G1 X58.876 Y67.392 E24.65853
G1 X59.319 Y66.61 E24.68843
G1 X59.477 Y66.36 E24.69826
G1 X59.829 Y65.82 E24.7197
G1 X60.684 Y64.539 E24.77093
G1 X61.148 Y63.866 E24.79811
G1 X61.703 Y63.132 E24.82872
G1 X62.32 Y62.449 E24.85933
G0 F6000 X62.629 Y62.705
G1 F1200 X63.293 Y62.093 E24.88937
G1 X63.796 Y61.694 E24.91072
G1 X64.162 Y61.432 E24.92569
G1 X64.707 Y61.059 E24.94766
G1 X66.127 Y60.112 E25.00443
G1 X66.679 Y59.756 E25.02627
G1 X67.459 Y59.301 E25.05631
G1 X68.276 Y58.916 E25.08635
G1 X69.124 Y58.605 E25.11639
G1 X69.883 Y58.396 E25.14257
G1 X70.189 Y58.327 E25.15301
G1 X70.802 Y58.198 E25.17384
G1 X72.472 Y57.866 E25.23047
G1 X73.112 Y57.749 E25.25211
G1 X73.518 Y57.684 E25.26579
G1 X74.416 Y57.596 E25.2958
G1 X75.407 Y57.591 E25.32876
G1 X76.159 Y57.624 E25.3538
G1 X78.823 Y57.702 E25.44244
G1 X81.356 Y57.706 E25.52669
G1 X83.906 Y57.636 E25.61153
G1 X84.447 Y57.61 E25.62955
G1 X85.277 Y57.584 E25.65717
