;FLAVOR:Marlin
;TIME:4866
;Filament used: 1.1222m
;Layer height: 0.12
;MINX:90
;MINY:70.5
;MINZ:0.12
;MAXX:149.5
;MAXY:149.5
;MAXZ:11.4
;Generated with Cura_SteamEngine 4.11.0
M140 S60
M105
M190 S60
M104 S210
M105
M109 S210
M82 ;absolute extrusion mode
; Ender 3 Custom Start G-code
G92 E0 ; Reset Extruder
G28 ; Home all axes
G1 Z2.0 F3000 ; Move Z Axis up little to prevent scratching of Heat Bed
G1 X0.1 Y20 Z0.3 F5000.0 ; Move to start position
G1 X0.1 Y200.0 Z0.3 F1500.0 E15 ; Draw the first line
G1 X0.4 Y200.0 Z0.3 F5000.0 ; Move to side a little
G1 X0.4 Y20 Z0.3 F1500.0 E30 ; Draw the second line
G92 E0 ; Reset Extruder
G1 Z2.0 F3000 ; Move Z Axis up little to prevent scratching of Heat Bed
G1 X5 Y20 Z0.3 F5000.0 ; Move over to prevent blob squish
G92 E0
G92 E0
G1 F1500 E-6.5
;LAYER_COUNT:95
;LAYER:0
M107
G0 F6000 X92.566 Y74.458 Z0.12
;TYPE:SKIRT
G1 F1500 E0
G1 F1200 X93.198 Y73.764 E0.01873
G1 X93.886 Y73.127 E0.03744
G1 X94.626 Y72.551 E0.05616
G1 X95.412 Y72.039 E0.07488
G1 X96.239 Y71.597 E0.09359
G1 X97.101 Y71.227 E0.11231
G1 X97.991 Y70.931 E0.13103
G1 X98.903 Y70.713 E0.14974
G1 X99.83 Y70.572 E0.16845
G1 X100.701 Y70.513 E0.18587
G1 X101.022 Y70.504 E0.19228
G1 X101.33 Y70.5 E0.19843
G1 X118.293 Y70.5 E0.53694
G1 X119.152 Y70.511 E0.55409
G1 X120.088 Y70.564 E0.5728
G1 X121.016 Y70.697 E0.5915
G1 X121.93 Y70.909 E0.61023
G1 X122.823 Y71.197 E0.62895
G1 X123.687 Y71.561 E0.64766
G1 X124.518 Y71.997 E0.66639
G1 X125.308 Y72.502 E0.6851
G1 X126.052 Y73.072 E0.70381
G1 X126.745 Y73.704 E0.72252
G1 X127.382 Y74.393 E0.74125
G1 X127.739 Y74.835 E0.75259
G1 X128.001 Y75.178 E0.7612
G1 X129.553 Y77.154 E0.81134
G1 X131.182 Y79.112 E0.86217
G1 X132.845 Y80.998 E0.91235
G1 X134.56 Y82.836 E0.96252
G1 X136.321 Y84.619 E1.01253
G1 X138.146 Y86.367 E1.06296
G1 X140.019 Y88.06 E1.11334
G1 X141.95 Y89.709 E1.16402
G1 X143.886 Y91.271 E1.21366
G1 X144.445 Y91.697 E1.22768
G1 X145.282 Y92.354 E1.24892
G1 X145.994 Y92.964 E1.26763
G1 X146.652 Y93.633 E1.28635
G1 X147.251 Y94.355 E1.30508
G1 X147.785 Y95.125 E1.32378
G1 X148.253 Y95.938 E1.3425
G1 X148.649 Y96.789 E1.36123
G1 X148.971 Y97.669 E1.37993
G1 X149.218 Y98.574 E1.39865
G1 X149.386 Y99.497 E1.41737
G1 X149.485 Y100.667 E1.4408
G1 X149.495 Y100.99 E1.44725
G1 X149.5 Y101.33 E1.45404
G1 X149.499 Y118.45 E1.79568
G1 X149.489 Y119.152 E1.8097
G1 X149.436 Y120.088 E1.8284
G1 X149.303 Y121.016 E1.84711
G1 X149.091 Y121.93 E1.86584
G1 X148.803 Y122.823 E1.88456
G1 X148.439 Y123.687 E1.90327
G1 X148.003 Y124.518 E1.922
G1 X147.498 Y125.308 E1.94071
G1 X146.928 Y126.052 E1.95941
G1 X146.296 Y126.745 E1.97813
G1 X145.607 Y127.382 E1.99686
G1 X145.168 Y127.736 E2.00811
G1 X144.854 Y127.976 E2.016
G1 X142.845 Y129.554 E2.06698
G1 X140.869 Y131.198 E2.11827
G1 X139.019 Y132.829 E2.16749
G1 X137.163 Y134.561 E2.21815
G1 X135.381 Y136.321 E2.26814
G1 X133.632 Y138.147 E2.31859
G1 X131.937 Y140.022 E2.36903
G1 X130.31 Y141.927 E2.41903
G1 X128.722 Y143.896 E2.46951
G1 X128.32 Y144.423 E2.48274
G1 X127.645 Y145.283 E2.50455
G1 X127.035 Y145.995 E2.52326
G1 X126.367 Y146.653 E2.54198
G1 X125.645 Y147.251 E2.56068
G1 X124.874 Y147.786 E2.57941
G1 X124.061 Y148.253 E2.59812
G1 X123.211 Y148.65 E2.61684
G1 X122.33 Y148.972 E2.63556
G1 X121.425 Y149.219 E2.65428
G1 X120.503 Y149.387 E2.67299
G1 X119.299 Y149.487 E2.6971
G1 X118.977 Y149.496 E2.70352
G1 X118.67 Y149.5 E2.70965
G1 X101.565 Y149.499 E3.051
G1 X100.867 Y149.49 E3.06493
G1 X99.931 Y149.438 E3.08364
G1 X99.002 Y149.306 E3.10236
G1 X98.088 Y149.096 E3.12108
G1 X97.195 Y148.809 E3.1398
G1 X96.33 Y148.446 E3.15852
G1 X95.499 Y148.012 E3.17723
G1 X94.708 Y147.508 E3.19594
G1 X93.963 Y146.938 E3.21466
G1 X93.269 Y146.307 E3.23338
G1 X92.632 Y145.62 E3.25208
G1 X92.055 Y144.88 E3.2708
G1 X91.543 Y144.094 E3.28952
G1 X91.1 Y143.267 E3.30825
G1 X90.729 Y142.406 E3.32696
G1 X90.433 Y141.516 E3.34567
G1 X90.214 Y140.604 E3.36439
G1 X90.073 Y139.677 E3.3831
G1 X90.013 Y138.788 E3.40088
G1 X90.004 Y138.455 E3.40753
G1 X90 Y138.158 E3.41346
G1 X90 Y120.734 E3.76117
G1 X90.005 Y119.363 E3.78853
G1 X90 Y118.655 E3.80266
G1 X90 Y101.234 E4.15032
G1 X90.005 Y99.863 E4.17768
G1 X90 Y99.155 E4.19181
G1 X90.001 Y82.025 E4.53366
G1 X90.01 Y81.36 E4.54693
G1 X90.063 Y80.424 E4.56564
G1 X90.195 Y79.495 E4.58436
G1 X90.406 Y78.581 E4.60308
G1 X90.694 Y77.689 E4.62179
G1 X91.057 Y76.824 E4.64051
G1 X91.492 Y75.993 E4.65923
G1 X91.996 Y75.203 E4.67793
G1 X92.566 Y74.458 E4.69665
G0 F6000 X92.961 Y74.611
G1 F1200 X93.589 Y73.939 E4.715
G1 X94.274 Y73.323 E4.73338
G1 X95.01 Y72.77 E4.75176
G1 X95.791 Y72.282 E4.77013
G1 X96.611 Y71.864 E4.7885
G1 X97.465 Y71.519 E4.80688
G1 X98.345 Y71.249 E4.82525
G1 X99.245 Y71.057 E4.84362
G1 X100.159 Y70.943 E4.862
G1 X100.712 Y70.913 E4.87305
G1 X101.033 Y70.904 E4.87946
G1 X101.33 Y70.9 E4.88539
G1 X118.293 Y70.9 E5.2239
G1 X119.146 Y70.911 E5.24092
G1 X120.065 Y70.964 E5.25929
G1 X120.976 Y71.097 E5.27767
G1 X121.872 Y71.308 E5.29604
G1 X122.747 Y71.596 E5.31442
G1 X123.593 Y71.959 E5.33279
G1 X124.404 Y72.394 E5.35116
G1 X125.175 Y72.898 E5.36954
G1 X125.899 Y73.466 E5.3879
G1 X126.571 Y74.096 E5.40629
G1 X127.421 Y75.078 E5.4322
G1 X127.653 Y75.382 E5.43984
G1 X129.264 Y77.433 E5.49188
G1 X130.873 Y79.366 E5.54207
G1 X132.553 Y81.272 E5.59277
G1 X134.265 Y83.107 E5.64286
G1 X136.042 Y84.906 E5.69332
G1 X137.884 Y86.67 E5.74422
G1 X139.719 Y88.33 E5.7936
G1 X141.703 Y90.023 E5.84564
G1 X143.638 Y91.584 E5.89526
G1 X144.198 Y92.012 E5.90932
G1 X145.035 Y92.669 E5.93056
G1 X145.734 Y93.268 E5.94893
G1 X146.378 Y93.926 E5.9673
G1 X146.963 Y94.637 E5.98568
G1 X147.483 Y95.396 E6.00404
G1 X147.936 Y96.198 E6.02242
G1 X148.318 Y97.036 E6.0408
G1 X148.626 Y97.904 E6.05918
G1 X148.857 Y98.795 E6.07755
G1 X149.009 Y99.703 E6.09592
G1 X149.085 Y100.679 E6.11545
G1 X149.095 Y101.002 E6.1219
G1 X149.1 Y101.33 E6.12845
G1 X149.099 Y118.444 E6.46998
G1 X149.089 Y119.146 E6.48399
G1 X149.036 Y120.065 E6.50236
G1 X148.903 Y120.976 E6.52073
G1 X148.692 Y121.872 E6.5391
G1 X148.404 Y122.747 E6.55748
G1 X148.041 Y123.593 E6.57586
G1 X147.606 Y124.404 E6.59422
G1 X147.102 Y125.175 E6.6126
G1 X146.534 Y125.899 E6.63097
G1 X145.904 Y126.571 E6.64935
G1 X144.925 Y127.418 E6.67518
G1 X144.651 Y127.627 E6.68206
G1 X142.566 Y129.265 E6.73497
G1 X140.633 Y130.874 E6.78516
G1 X138.728 Y132.553 E6.83584
G1 X136.892 Y134.266 E6.88595
G1 X135.111 Y136.024 E6.93589
G1 X133.313 Y137.903 E6.98779
G1 X131.652 Y139.739 E7.0372
G1 X129.993 Y141.683 E7.0882
G1 X128.426 Y143.626 E7.13801
G1 X128.005 Y144.176 E7.15183
G1 X127.33 Y145.036 E7.17365
G1 X126.731 Y145.734 E7.192
G1 X126.073 Y146.379 E7.21039
G1 X125.362 Y146.963 E7.22875
G1 X124.603 Y147.484 E7.24713
G1 X123.801 Y147.937 E7.26551
G1 X122.964 Y148.319 E7.28387
G1 X122.096 Y148.626 E7.30224
G1 X121.205 Y148.857 E7.32061
G1 X120.297 Y149.01 E7.33898
G1 X119.288 Y149.087 E7.35918
G1 X118.966 Y149.096 E7.36561
G1 X118.67 Y149.1 E7.37151
G1 X101.57 Y149.099 E7.71276
G1 X100.872 Y149.09 E7.72669
G1 X99.953 Y149.038 E7.74506
G1 X99.042 Y148.907 E7.76343
G1 X98.146 Y148.697 E7.7818
G1 X97.271 Y148.41 E7.80017
G1 X96.424 Y148.048 E7.81855
G1 X95.612 Y147.614 E7.83693
G1 X94.841 Y147.112 E7.85529
G1 X94.116 Y146.544 E7.87367
G1 X93.443 Y145.915 E7.89205
G1 X92.828 Y145.231 E7.91041
G1 X92.274 Y144.496 E7.92877
G1 X91.786 Y143.715 E7.94715
G1 X91.367 Y142.895 E7.96553
G1 X91.021 Y142.042 E7.9839
G1 X90.751 Y141.162 E8.00227
G1 X90.558 Y140.261 E8.02066
G1 X90.444 Y139.348 E8.03902
G1 X90.413 Y138.777 E8.05043
G1 X90.404 Y138.444 E8.05708
G1 X90.4 Y138.158 E8.06279
G1 X90.4 Y120.735 E8.41048
G1 X90.405 Y119.36 E8.43792
G1 X90.4 Y118.652 E8.45205
G1 X90.4 Y101.235 E8.79962
G1 X90.405 Y99.86 E8.82706
G1 X90.4 Y99.152 E8.84119
G1 X90.401 Y82.031 E9.18286
G1 X90.41 Y81.366 E9.19613
G1 X90.462 Y80.446 E9.21452
G1 X90.594 Y79.535 E9.23289
G1 X90.805 Y78.639 E9.25126
G1 X91.092 Y77.764 E9.26964
G1 X91.455 Y76.918 E9.28801
G1 X91.889 Y76.106 E9.30638
G1 X92.392 Y75.335 E9.32475
G1 X92.961 Y74.611 E9.34313
G0 F6000 X93.355 Y74.767
G1 F1200 X93.981 Y74.117 E9.36114
G1 X94.662 Y73.524 E9.37916
G1 X95.394 Y72.994 E9.3972
G1 X96.169 Y72.531 E9.41521
G1 X96.982 Y72.138 E9.43323
G1 X97.827 Y71.818 E9.45126
G1 X98.696 Y71.575 E9.46927
G1 X99.584 Y71.409 E9.4873
G1 X100.723 Y71.313 E9.51011
G1 X101.044 Y71.304 E9.51652
G1 X101.33 Y71.3 E9.52222
G1 X118.293 Y71.3 E9.86074
G1 X119.14 Y71.311 E9.87764
G1 X120.042 Y71.364 E9.89568
G1 X120.935 Y71.496 E9.91369
G1 X121.813 Y71.707 E9.93171
G1 X122.669 Y71.995 E9.94973
G1 X123.497 Y72.357 E9.96777
G1 X124.289 Y72.791 E9.98579
G1 X125.039 Y73.294 E10.00381
G1 X125.742 Y73.86 E10.02182
G1 X126.392 Y74.487 E10.03985
G1 X127.103 Y75.321 E10.06172
G1 X127.34 Y75.632 E10.06952
G1 X128.94 Y77.669 E10.12121
G1 X130.567 Y79.623 E10.17195
G1 X132.26 Y81.544 E10.22305
G1 X133.988 Y83.397 E10.27361
G1 X135.746 Y85.176 E10.32353
G1 X137.603 Y86.955 E10.37485
G1 X139.494 Y88.665 E10.42572
G1 X141.416 Y90.305 E10.47614
G1 X143.408 Y91.912 E10.52722
G1 X143.951 Y92.327 E10.54086
G1 X144.788 Y92.984 E10.56209
G1 X145.473 Y93.572 E10.58011
G1 X146.103 Y94.219 E10.59813
G1 X146.674 Y94.919 E10.61616
G1 X147.18 Y95.667 E10.63418
G1 X147.619 Y96.456 E10.6522
G1 X147.985 Y97.282 E10.67023
G1 X148.278 Y98.136 E10.68824
G1 X148.493 Y99.013 E10.70626
G1 X148.63 Y99.906 E10.72429
G1 X148.685 Y100.691 E10.74
G1 X148.695 Y101.014 E10.74645
G1 X148.7 Y101.33 E10.75275
G1 X148.699 Y118.438 E11.09416
G1 X148.689 Y119.14 E11.10817
G1 X148.636 Y120.042 E11.1262
G1 X148.504 Y120.935 E11.14422
G1 X148.293 Y121.813 E11.16224
G1 X148.005 Y122.669 E11.18026
G1 X147.643 Y123.497 E11.1983
G1 X147.209 Y124.289 E11.21632
G1 X146.706 Y125.039 E11.23434
G1 X146.14 Y125.742 E11.25235
G1 X145.513 Y126.392 E11.27037
G1 X144.683 Y127.1 E11.29214
G1 X144.366 Y127.342 E11.3001
G1 X142.33 Y128.941 E11.35177
G1 X140.358 Y130.583 E11.40298
G1 X138.492 Y132.228 E11.45262
G1 X136.585 Y134.006 E11.50465
G1 X134.824 Y135.746 E11.55405
G1 X133.044 Y137.604 E11.6054
G1 X131.335 Y139.494 E11.65625
G1 X129.694 Y141.417 E11.7067
G1 X128.098 Y143.396 E11.75744
G1 X127.691 Y143.929 E11.77082
G1 X127.016 Y144.789 E11.79264
G1 X126.427 Y145.474 E11.81066
G1 X125.78 Y146.104 E11.82869
G1 X125.08 Y146.675 E11.84671
G1 X124.333 Y147.181 E11.86472
G1 X123.543 Y147.619 E11.88274
G1 X122.718 Y147.986 E11.90076
G1 X121.863 Y148.279 E11.9188
G1 X120.986 Y148.494 E11.93682
G1 X120.094 Y148.631 E11.95483
G1 X119.277 Y148.687 E11.97117
G1 X118.955 Y148.696 E11.9776
G1 X118.67 Y148.7 E11.98329
G1 X101.575 Y148.699 E12.32444
G1 X100.877 Y148.69 E12.33837
G1 X99.976 Y148.639 E12.35638
G1 X99.082 Y148.507 E12.37441
G1 X98.204 Y148.298 E12.39242
G1 X97.347 Y148.011 E12.41046
G1 X96.52 Y147.65 E12.42847
G1 X95.727 Y147.217 E12.4465
G1 X94.976 Y146.716 E12.46451
G1 X94.272 Y146.15 E12.48254
G1 X93.621 Y145.524 E12.50056
G1 X93.028 Y144.843 E12.51858
G1 X92.498 Y144.112 E12.5366
G1 X92.034 Y143.337 E12.55463
G1 X91.64 Y142.524 E12.57266
G1 X91.32 Y141.68 E12.59067
G1 X91.076 Y140.81 E12.6087
G1 X90.91 Y139.922 E12.62673
G1 X90.813 Y138.767 E12.64986
G1 X90.804 Y138.434 E12.65651
G1 X90.8 Y138.158 E12.66202
G1 X90.8 Y120.737 E13.00967
G1 X90.805 Y119.357 E13.03721
G1 X90.8 Y118.649 E13.05134
G1 X90.8 Y101.237 E13.39881
G1 X90.805 Y99.857 E13.42635
G1 X90.8 Y99.149 E13.44048
G1 X90.801 Y82.036 E13.78199
G1 X90.81 Y81.371 E13.79526
G1 X90.862 Y80.469 E13.81329
G1 X90.994 Y79.576 E13.83131
G1 X91.204 Y78.698 E13.84932
G1 X91.491 Y77.841 E13.86736
G1 X91.853 Y77.014 E13.88538
G1 X92.286 Y76.222 E13.90339
G1 X92.788 Y75.471 E13.92142
G1 X93.355 Y74.767 E13.93945
G1 F1500 E7.43945
;MESH:v2-outer_gold_slab.stl
G0 F6000 X100.335 Y81.814
G0 X101.314 Y81.814
G0 X104.318 Y82.682
G0 X104.323 Y84.003
G0 X108.547 Y84.547
G0 X108.547 Y83.422
G0 X110.328 Y83.422
G0 X111.453 Y84.547
G0 X112.307 Y90.557
G0 X110.057 Y90.557
G0 X110.057 Y92.693
G0 X110.966 Y92.693
G0 X114.625 Y91.5
;TYPE:WALL-INNER
G1 F1500 E13.93945
G1 F1200 X116.625 Y91.5 E13.97937
G1 X118 Y91.5 E14.00681
G1 X118 Y92.875 E14.03425
G1 X116.625 Y92.875 E14.06169
G1 X116.625 Y91.75 E14.08414
G1 X114.625 Y91.75 E14.10914
G1 X111.25 Y91.75 E14.1765
G1 X111.25 Y92.875 E14.19895
G1 X110.125 Y92.875 E14.2214
G1 X110.125 Y94 E14.24385
G1 X107.875 Y94 E14.28875
G1 X107.875 Y95.125 E14.3112
G1 X107.625 Y95.125 E14.31619
G1 X107.625 Y94 E14.33026
G1 X106.5 Y94 E14.35271
G1 X102.25 Y94 E14.43752
G1 X102.25 Y95.125 E14.45997
G1 X102 Y95.125 E14.46496
G1 X102 Y94 E14.47903
G1 X102 Y93.75 E14.48341
G1 X102 Y89.5 E14.56822
G1 X102 Y82.5 E14.70791
G1 X104.5 Y82.5 E14.7578
G1 X104.5 Y84.75 E14.8027
G1 X105.625 Y84.75 E14.82515
G1 X106.75 Y84.75 E14.8476
G1 X106.75 Y85 E14.85259
G1 X105.625 Y85 E14.86666
G1 X105.625 Y86.125 E14.88911
G1 X104.5 Y86.125 E14.91156
G1 X104.5 Y89.25 E14.97392
G1 X105.625 Y89.25 E14.99637
G1 X105.625 Y89.5 E15.00136
G1 X104.5 Y89.5 E15.01543
G1 X102.25 Y89.5 E15.06033
G1 X102.25 Y93.75 E15.11347
G1 X106.5 Y93.75 E15.16661
G1 X106.5 Y92.625 E15.18906
G1 X106.5 Y90.375 E15.23397
G1 X106.75 Y90.375 E15.23895
G1 X106.75 Y92.625 E15.26709
G1 X109.875 Y92.625 E15.32945
G1 X109.875 Y90.375 E15.37435
G1 X112.125 Y90.375 E15.41925
G1 X112.125 Y83.875 E15.54897
G1 X111 Y83.875 E15.57142
G1 X111 Y82.75 E15.59387
G1 X107.875 Y82.75 E15.65623
G1 X107.875 Y83.875 E15.67868
G1 X107.625 Y83.875 E15.68367
G1 X107.625 Y82.75 E15.69774
G1 X107.625 Y82.5 E15.70212
G1 X107.875 Y82.5 E15.7065
G1 X111 Y82.5 E15.74557
G1 X114.625 Y82.5 E15.81791
G1 X118 Y82.5 E15.88526
G1 X118 Y82.75 E15.89025
G1 X114.625 Y82.75 E15.93245
G1 X114.625 Y83.875 E15.9549
G1 X113.5 Y83.875 E15.97735
G1 X113.5 Y88.125 E16.06217
G1 X114.625 Y88.125 E16.08462
G1 X117.75 Y88.125 E16.14698
G1 X117.75 Y87 E16.16943
G1 X118 Y87 E16.17442
G1 X118 Y88.125 E16.18849
G1 X118 Y88.375 E16.19287
G1 X117.75 Y88.375 E16.19725
G1 X114.625 Y88.375 E16.23632
G1 X114.625 Y91.5 E16.29868
G0 F6000 X115.025 Y91.1
G1 F1200 X118.4 Y91.1 E16.36604
G1 X118.4 Y93.275 E16.40944
G1 X116.225 Y93.275 E16.45284
G1 X116.225 Y92.15 E16.47529
G1 X111.65 Y92.15 E16.56659
G1 X111.65 Y93.275 E16.58904
G1 X110.525 Y93.275 E16.61149
G1 X110.525 Y94.4 E16.63395
G1 X108.275 Y94.4 E16.67885
G1 X108.275 Y95.525 E16.7013
G1 X107.225 Y95.525 E16.72225
G1 X107.225 Y94.4 E16.7447
G1 X102.65 Y94.4 E16.836
G1 X102.65 Y95.525 E16.85845
G1 X101.6 Y95.525 E16.87941
G1 X101.6 Y82.1 E17.14732
G1 X104.9 Y82.1 E17.21317
G1 X104.9 Y84.35 E17.25807
G1 X107.15 Y84.35 E17.30297
G1 X107.15 Y85.4 E17.32393
G1 X106.025 Y85.4 E17.34638
G1 X106.025 Y86.525 E17.36883
G1 X104.9 Y86.525 E17.39128
G1 X104.9 Y88.85 E17.43768
G1 X106.025 Y88.85 E17.46013
G1 X106.025 Y89.9 E17.48108
G1 X102.65 Y89.9 E17.54843
G1 X102.65 Y93.35 E17.61728
G1 X106.1 Y93.35 E17.68613
G1 X106.1 Y89.975 E17.75348
G1 X107.15 Y89.975 E17.77444
G1 X107.15 Y92.225 E17.81934
G1 X109.475 Y92.225 E17.86573
G1 X109.475 Y89.975 E17.91064
G1 X111.725 Y89.975 E17.95554
G1 X111.725 Y84.275 E18.06929
G1 X110.6 Y84.275 E18.09174
G1 X110.6 Y83.15 E18.11419
G1 X108.275 Y83.15 E18.16059
G1 X108.275 Y84.275 E18.18304
G1 X107.225 Y84.275 E18.20399
G1 X107.225 Y82.1 E18.24739
G1 X118.4 Y82.1 E18.4704
G1 X118.4 Y83.15 E18.49136
G1 X115.025 Y83.15 E18.55871
G1 X115.025 Y84.275 E18.58116
G1 X113.9 Y84.275 E18.60361
G1 X113.9 Y87.725 E18.67246
G1 X117.35 Y87.725 E18.74131
G1 X117.35 Y86.6 E18.76376
G1 X118.4 Y86.6 E18.78471
G1 X118.4 Y88.775 E18.82812
G1 X115.025 Y88.775 E18.89547
G1 X115.025 Y91.1 E18.94187
G0 F6000 X115.425 Y90.7
;TYPE:WALL-OUTER
G1 F1200 X118.075 Y90.7 E18.99475
G1 X118.075 Y89.175 E19.02518
G1 X115.425 Y89.175 E19.07807
G1 X115.425 Y90.7 E19.1085
G1 F1500 E12.6085
G0 F6000 X115.225 Y90.7
G0 X114.1 Y87.325
G1 F1500 E19.1085
G0 F6000 X114.3 Y87.325
G1 F1200 X116.95 Y87.325 E19.16138
G1 X116.95 Y86.2 E19.18383
G1 X118.075 Y86.2 E19.20628
G1 X118.075 Y83.55 E19.25917
G1 X115.425 Y83.55 E19.31205
G1 X115.425 Y84.675 E19.3345
G1 X114.3 Y84.675 E19.35695
G1 X114.3 Y87.325 E19.40984
G1 F1500 E12.90984
G0 F6000 X114.1 Y87.325
G0 X113.318 Y83.693
G0 X114.443 Y83.693
G0 X114.443 Y82.682
G0 X111.182 Y82.682
G0 X109.049 Y83.281
