;FLAVOR:Marlin
;TIME:5854
;Filament used: 1.44263m
;Layer height: 0.12
;MINX:90.832
;MINY:72.933
;MINZ:0.12
;MAXX:147.067
;MAXY:147.067
;MAXZ:10.56
;Generated with Cura_SteamEngine 4.11.0
M140 S60
M105
M190 S60
M104 S210
M105
M109 S210
M82 ;absolute extrusion mode
; Ender 3 Custom Start G-code
G92 E0 ; Reset Extruder
G28 ; Home all axes
G1 Z2.0 F3000 ; Move Z Axis up little to prevent scratching of Heat Bed
G1 X0.1 Y20 Z0.3 F5000.0 ; Move to start position
G1 X0.1 Y200.0 Z0.3 F1500.0 E15 ; Draw the first line
G1 X0.4 Y200.0 Z0.3 F5000.0 ; Move to side a little
G1 X0.4 Y20 Z0.3 F1500.0 E30 ; Draw the second line
G92 E0 ; Reset Extruder
G1 Z2.0 F3000 ; Move Z Axis up little to prevent scratching of Heat Bed
G1 X5 Y20 Z0.3 F5000.0 ; Move over to prevent blob squish
G92 E0
G92 E0
G1 F1500 E-6.5
;LAYER_COUNT:88
;LAYER:0
M107
G0 F6000 X93.399 Y76.891 Z0.12
;TYPE:SKIRT
G1 F1500 E0
G1 F1200 X94.031 Y76.197 E0.01873
G1 X94.719 Y75.56 E0.03744
G1 X95.459 Y74.984 E0.05616
G1 X96.245 Y74.472 E0.07488
G1 X97.072 Y74.03 E0.09359
G1 X97.934 Y73.66 E0.11231
G1 X98.824 Y73.364 E0.13103
G1 X99.736 Y73.146 E0.14974
G1 X100.663 Y73.005 E0.16845
G1 X101.534 Y72.946 E0.18587
G1 X101.855 Y72.937 E0.19228
G1 X102.163 Y72.933 E0.19843
G1 X117.46 Y72.933 E0.5037
G1 X118.319 Y72.944 E0.52084
G1 X119.255 Y72.997 E0.53955
G1 X120.183 Y73.13 E0.55826
G1 X121.097 Y73.342 E0.57698
G1 X121.99 Y73.63 E0.59571
G1 X122.854 Y73.994 E0.61442
G1 X123.685 Y74.43 E0.63314
G1 X124.475 Y74.935 E0.65185
G1 X125.219 Y75.505 E0.67056
G1 X125.912 Y76.137 E0.68928
G1 X126.72 Y77.032 E0.71334
G1 X127.258 Y77.7 E0.73045
G1 X128.07 Y78.733 E0.75668
G1 X129.682 Y80.668 E0.80693
G1 X131.344 Y82.551 E0.85706
G1 X133.07 Y84.401 E0.90755
G1 X134.832 Y86.186 E0.9576
G1 X136.653 Y87.927 E1.00788
G1 X138.524 Y89.618 E1.0582
G1 X140.431 Y91.245 E1.10823
G1 X142.373 Y92.812 E1.15803
G1 X142.862 Y93.197 E1.17045
G1 X143.573 Y93.808 E1.18916
G1 X144.23 Y94.478 E1.20788
G1 X144.827 Y95.201 E1.22659
G1 X145.361 Y95.972 E1.24531
G1 X145.827 Y96.786 E1.26403
G1 X146.222 Y97.636 E1.28273
G1 X146.543 Y98.518 E1.30146
G1 X146.788 Y99.423 E1.32017
G1 X146.955 Y100.346 E1.33889
G1 X147.052 Y101.5 E1.362
G1 X147.062 Y101.823 E1.36845
G1 X147.067 Y102.163 E1.37524
G1 X147.066 Y117.578 E1.68286
G1 X147.056 Y118.311 E1.69749
G1 X147.003 Y119.247 E1.7162
G1 X146.871 Y120.176 E1.73492
G1 X146.66 Y121.09 E1.75364
G1 X146.372 Y121.982 E1.77235
G1 X146.009 Y122.847 E1.79107
G1 X145.574 Y123.678 E1.80979
G1 X145.069 Y124.468 E1.8285
G1 X144.499 Y125.213 E1.84722
G1 X143.868 Y125.907 E1.86594
G1 X142.975 Y126.713 E1.88994
G1 X142.274 Y127.279 E1.90792
G1 X141.262 Y128.075 E1.93362
G1 X139.332 Y129.682 E1.98373
G1 X137.448 Y131.344 E2.03387
G1 X135.599 Y133.07 E2.08435
G1 X133.814 Y134.832 E2.1344
G1 X132.089 Y136.636 E2.18421
G1 X130.384 Y138.523 E2.23496
G1 X128.738 Y140.452 E2.28557
G1 X127.165 Y142.401 E2.33555
G1 X126.8 Y142.865 E2.34733
G1 X126.189 Y143.576 E2.36604
G1 X125.519 Y144.233 E2.38477
G1 X124.796 Y144.83 E2.40348
G1 X124.025 Y145.364 E2.42219
G1 X123.211 Y145.829 E2.4409
G1 X122.36 Y146.224 E2.45962
G1 X121.479 Y146.545 E2.47834
G1 X120.573 Y146.79 E2.49706
G1 X119.65 Y146.956 E2.51578
G1 X118.466 Y147.054 E2.53949
G1 X118.144 Y147.063 E2.54592
G1 X117.837 Y147.067 E2.55204
G1 X102.398 Y147.066 E2.86015
G1 X101.7 Y147.057 E2.87408
G1 X100.764 Y147.005 E2.89278
G1 X99.835 Y146.873 E2.91151
G1 X98.921 Y146.663 E2.93022
G1 X98.028 Y146.376 E2.94894
G1 X97.163 Y146.013 E2.96766
G1 X96.332 Y145.579 E2.98637
G1 X95.541 Y145.075 E3.00509
G1 X94.796 Y144.505 E3.02381
G1 X94.102 Y143.874 E3.04253
G1 X93.465 Y143.187 E3.06122
G1 X92.888 Y142.447 E3.07995
G1 X92.376 Y141.661 E3.09867
G1 X91.933 Y140.834 E3.11739
G1 X91.562 Y139.973 E3.1361
G1 X91.266 Y139.083 E3.15482
G1 X91.047 Y138.171 E3.17354
G1 X90.906 Y137.244 E3.19225
G1 X90.846 Y136.355 E3.21003
G1 X90.837 Y136.022 E3.21668
G1 X90.833 Y135.725 E3.22261
G1 X90.833 Y119.697 E3.54246
G1 X90.837 Y118.584 E3.56467
G1 X90.832 Y117.847 E3.57938
G1 X90.832 Y102.003 E3.89556
G1 X90.837 Y100.623 E3.9231
G1 X90.833 Y100.059 E3.93436
G1 X90.834 Y84.458 E4.24569
G1 X90.843 Y83.793 E4.25897
G1 X90.896 Y82.857 E4.27768
G1 X91.028 Y81.928 E4.2964
G1 X91.239 Y81.014 E4.31512
G1 X91.527 Y80.122 E4.33383
G1 X91.89 Y79.257 E4.35255
G1 X92.325 Y78.426 E4.37126
G1 X92.829 Y77.636 E4.38997
G1 X93.399 Y76.891 E4.40868
G0 F6000 X93.794 Y77.044
G1 F1200 X94.422 Y76.372 E4.42704
G1 X95.107 Y75.756 E4.44542
G1 X95.843 Y75.203 E4.4638
G1 X96.624 Y74.715 E4.48217
G1 X97.444 Y74.297 E4.50054
G1 X98.298 Y73.952 E4.51892
G1 X99.178 Y73.682 E4.53729
G1 X100.078 Y73.49 E4.55566
G1 X100.992 Y73.376 E4.57404
G1 X101.545 Y73.346 E4.58509
G1 X101.866 Y73.337 E4.5915
G1 X102.163 Y73.333 E4.59742
G1 X117.46 Y73.333 E4.90269
G1 X118.313 Y73.344 E4.91972
G1 X119.232 Y73.397 E4.93809
G1 X120.143 Y73.53 E4.95646
G1 X121.039 Y73.741 E4.97483
G1 X121.914 Y74.029 E4.99321
G1 X122.76 Y74.392 E5.01158
G1 X123.571 Y74.827 E5.02995
G1 X124.342 Y75.331 E5.04833
G1 X125.066 Y75.899 E5.0667
G1 X125.738 Y76.529 E5.08508
G1 X126.409 Y77.283 E5.10522
G1 X126.858 Y77.839 E5.11948
G1 X127.747 Y78.969 E5.14817
G1 X129.374 Y80.923 E5.19892
G1 X131.07 Y82.845 E5.25007
G1 X132.775 Y84.672 E5.29994
G1 X134.536 Y86.456 E5.34996
G1 X136.392 Y88.23 E5.4012
G1 X138.243 Y89.903 E5.45099
G1 X140.184 Y91.559 E5.50191
G1 X142.211 Y93.195 E5.55389
G1 X142.614 Y93.512 E5.56412
G1 X143.312 Y94.112 E5.58249
G1 X143.955 Y94.771 E5.60087
G1 X144.539 Y95.483 E5.61924
G1 X145.059 Y96.243 E5.63762
G1 X145.51 Y97.045 E5.65598
G1 X145.891 Y97.883 E5.67435
G1 X146.197 Y98.751 E5.69272
G1 X146.427 Y99.643 E5.7111
G1 X146.578 Y100.551 E5.72947
G1 X146.652 Y101.512 E5.7487
G1 X146.662 Y101.835 E5.75515
G1 X146.667 Y102.163 E5.7617
G1 X146.666 Y117.573 E6.06922
G1 X146.656 Y118.306 E6.08385
G1 X146.603 Y119.225 E6.10222
G1 X146.471 Y120.136 E6.12059
G1 X146.261 Y121.032 E6.13896
G1 X145.973 Y121.907 E6.15734
G1 X145.611 Y122.753 E6.1757
G1 X145.176 Y123.565 E6.19409
G1 X144.673 Y124.336 E6.21246
G1 X144.105 Y125.06 E6.23082
G1 X143.476 Y125.732 E6.24919
G1 X142.724 Y126.402 E6.26929
G1 X142.027 Y126.965 E6.28717
G1 X141.004 Y127.769 E6.31314
G1 X139.057 Y129.391 E6.36371
G1 X137.174 Y131.053 E6.41383
G1 X135.328 Y132.775 E6.46421
G1 X133.544 Y134.536 E6.51423
G1 X131.77 Y136.392 E6.56547
G1 X130.096 Y138.244 E6.61529
G1 X128.441 Y140.184 E6.66617
G1 X126.828 Y142.183 E6.71743
G1 X126.486 Y142.617 E6.72846
G1 X125.885 Y143.315 E6.74684
G1 X125.226 Y143.958 E6.76522
G1 X124.514 Y144.542 E6.78359
G1 X123.754 Y145.061 E6.80196
G1 X122.952 Y145.513 E6.82033
G1 X122.113 Y145.893 E6.83871
G1 X121.245 Y146.199 E6.85708
G1 X120.353 Y146.428 E6.87546
G1 X119.445 Y146.58 E6.89383
G1 X118.455 Y146.654 E6.91364
G1 X118.133 Y146.663 E6.92007
G1 X117.837 Y146.667 E6.92598
G1 X102.403 Y146.666 E7.23398
G1 X101.705 Y146.657 E7.24791
G1 X100.786 Y146.605 E7.26628
G1 X99.875 Y146.474 E7.28464
G1 X98.979 Y146.264 E7.30301
G1 X98.104 Y145.977 E7.32139
G1 X97.257 Y145.615 E7.33977
G1 X96.445 Y145.181 E7.35814
G1 X95.674 Y144.679 E7.3765
G1 X94.949 Y144.111 E7.39488
G1 X94.276 Y143.482 E7.41326
G1 X93.661 Y142.798 E7.43162
G1 X93.107 Y142.063 E7.44999
G1 X92.619 Y141.282 E7.46837
G1 X92.2 Y140.462 E7.48674
G1 X91.854 Y139.609 E7.50511
G1 X91.584 Y138.729 E7.52348
G1 X91.391 Y137.828 E7.54187
G1 X91.277 Y136.915 E7.56023
G1 X91.246 Y136.344 E7.57164
G1 X91.237 Y136.011 E7.57829
G1 X91.233 Y135.725 E7.584
G1 X91.233 Y119.698 E7.90384
G1 X91.237 Y118.581 E7.92613
G1 X91.232 Y117.844 E7.94083
G1 X91.232 Y102.005 E8.25692
G1 X91.237 Y100.62 E8.28456
G1 X91.233 Y100.056 E8.29581
G1 X91.234 Y84.464 E8.60697
G1 X91.243 Y83.799 E8.62024
G1 X91.295 Y82.879 E8.63863
G1 X91.427 Y81.968 E8.657
G1 X91.638 Y81.072 E8.67537
G1 X91.925 Y80.197 E8.69375
G1 X92.288 Y79.351 E8.71212
G1 X92.722 Y78.539 E8.73049
G1 X93.225 Y77.768 E8.74886
G1 X93.794 Y77.044 E8.76724
G0 F6000 X94.188 Y77.2
G1 F1200 X94.814 Y76.55 E8.78525
G1 X95.495 Y75.957 E8.80327
G1 X96.227 Y75.427 E8.8213
G1 X97.002 Y74.964 E8.83932
G1 X97.815 Y74.571 E8.85734
G1 X98.66 Y74.251 E8.87537
G1 X99.529 Y74.008 E8.89338
G1 X100.417 Y73.842 E8.91141
G1 X101.556 Y73.746 E8.93422
G1 X101.877 Y73.737 E8.94062
G1 X102.163 Y73.733 E8.94633
G1 X117.46 Y73.733 E9.2516
G1 X118.307 Y73.744 E9.2685
G1 X119.209 Y73.797 E9.28654
G1 X120.102 Y73.929 E9.30455
G1 X120.98 Y74.14 E9.32257
G1 X121.836 Y74.428 E9.34059
G1 X122.664 Y74.79 E9.35863
G1 X123.456 Y75.224 E9.37665
G1 X124.206 Y75.727 E9.39467
G1 X124.909 Y76.293 E9.41268
G1 X125.559 Y76.92 E9.43071
G1 X126.098 Y77.535 E9.44703
G1 X126.629 Y78.194 E9.46391
G1 X127.458 Y79.248 E9.49067
G1 X129.066 Y81.178 E9.54081
G1 X130.744 Y83.08 E9.59142
G1 X132.498 Y84.96 E9.64273
G1 X134.276 Y86.76 E9.69322
G1 X136.093 Y88.499 E9.74341
G1 X137.998 Y90.22 E9.79465
G1 X139.918 Y91.858 E9.84501
G1 X141.953 Y93.5 E9.89719
G1 X142.367 Y93.826 E9.90771
G1 X143.051 Y94.415 E9.92572
G1 X143.68 Y95.063 E9.94374
G1 X144.25 Y95.764 E9.96178
G1 X144.755 Y96.512 E9.97979
G1 X145.192 Y97.303 E9.99782
G1 X145.558 Y98.129 E10.01585
G1 X145.849 Y98.983 E10.03385
G1 X146.063 Y99.861 E10.05189
G1 X146.199 Y100.754 E10.06991
G1 X146.252 Y101.524 E10.08532
G1 X146.262 Y101.847 E10.09177
G1 X146.267 Y102.163 E10.09807
G1 X146.266 Y117.567 E10.40548
G1 X146.256 Y118.3 E10.42011
G1 X146.204 Y119.202 E10.43814
G1 X146.072 Y120.095 E10.45615
G1 X145.862 Y120.973 E10.47417
G1 X145.574 Y121.83 E10.49221
G1 X145.213 Y122.657 E10.51022
G1 X144.779 Y123.449 E10.52824
G1 X144.277 Y124.2 E10.54627
G1 X143.711 Y124.904 E10.56429
G1 X143.084 Y125.554 E10.58231
G1 X142.472 Y126.091 E10.59856
G1 X141.779 Y126.65 E10.61633
G1 X140.763 Y127.448 E10.64211
G1 X138.82 Y129.067 E10.69258
G1 X136.902 Y130.76 E10.74364
G1 X135.057 Y132.481 E10.79399
G1 X133.24 Y134.276 E10.84496
G1 X131.483 Y136.113 E10.89569
G1 X129.796 Y137.979 E10.94589
G1 X128.142 Y139.918 E10.99675
G1 X126.483 Y141.974 E11.04947
G1 X126.171 Y142.37 E11.05953
G1 X125.582 Y143.054 E11.07754
G1 X124.934 Y143.683 E11.09556
G1 X124.233 Y144.252 E11.11358
G1 X123.484 Y144.758 E11.13162
G1 X122.694 Y145.194 E11.14963
G1 X121.868 Y145.56 E11.16766
G1 X121.013 Y145.851 E11.18568
G1 X120.136 Y146.065 E11.20369
G1 X119.243 Y146.2 E11.22172
G1 X118.444 Y146.254 E11.2377
G1 X118.122 Y146.263 E11.24413
G1 X117.837 Y146.267 E11.24982
G1 X102.408 Y146.266 E11.55772
G1 X101.71 Y146.257 E11.57165
G1 X100.809 Y146.206 E11.58966
G1 X99.915 Y146.074 E11.60769
G1 X99.037 Y145.865 E11.6257
G1 X98.18 Y145.578 E11.64374
G1 X97.353 Y145.217 E11.66175
G1 X96.56 Y144.784 E11.67978
G1 X95.809 Y144.283 E11.69779
G1 X95.105 Y143.717 E11.71582
G1 X94.454 Y143.091 E11.73384
G1 X93.861 Y142.41 E11.75186
G1 X93.331 Y141.679 E11.76988
G1 X92.867 Y140.904 E11.78791
G1 X92.473 Y140.091 E11.80594
G1 X92.153 Y139.247 E11.82395
G1 X91.909 Y138.377 E11.84198
G1 X91.743 Y137.489 E11.86001
G1 X91.646 Y136.334 E11.88314
G1 X91.637 Y136.001 E11.88979
G1 X91.633 Y135.725 E11.8953
G1 X91.633 Y119.7 E12.21509
G1 X91.637 Y118.578 E12.23748
G1 X91.632 Y117.841 E12.25219
G1 X91.632 Y102.006 E12.5682
G1 X91.637 Y100.617 E12.59591
G1 X91.633 Y100.053 E12.60717
G1 X91.634 Y84.469 E12.91817
G1 X91.643 Y83.804 E12.93144
G1 X91.695 Y82.902 E12.94947
G1 X91.827 Y82.009 E12.96748
G1 X92.037 Y81.131 E12.9855
G1 X92.324 Y80.274 E13.00353
G1 X92.686 Y79.447 E13.02155
G1 X93.119 Y78.655 E13.03956
G1 X93.621 Y77.904 E13.05759
G1 X94.188 Y77.2 E13.07563
G1 F1500 E6.57563
;MESH:v2-inner_stem_slab.stl(1)
G0 F6000 X101.168 Y84.347
G0 X102.247 Y84.347
G0 X116.985 Y85.115
G0 X117.167 Y99.267
;TYPE:WALL-INNER
G1 F1500 E13.07563
G1 F1200 X102.833 Y99.267 E13.36168
G1 X102.833 Y84.933 E13.64773
G1 X117.167 Y84.933 E13.93378
G1 X117.167 Y99.267 E14.21983
G0 F6000 X117.567 Y99.667
G1 F1200 X102.433 Y99.667 E14.52185
G1 X102.433 Y84.533 E14.82386
G1 X117.567 Y84.533 E15.12588
G1 X117.567 Y99.667 E15.42789
G0 F6000 X117.967 Y100.067
;TYPE:WALL-OUTER
G1 F1200 X102.033 Y100.067 E15.74587
G1 X102.033 Y84.133 E16.06385
G1 X117.967 Y84.133 E16.38183
G1 X117.967 Y100.067 E16.69981
G0 F6000 X117.697 Y99.797
G0 X117.057 Y98.877
G0 X116.777 Y98.877
;TYPE:SKIN
G1 F1200 X103.223 Y98.877 E16.9703
G1 X103.223 Y85.323 E17.24078
G1 X116.777 Y85.323 E17.51127
G1 X116.777 Y98.877 E17.78175
G0 F6000 X117.057 Y98.877
G0 X117.057 Y86.069
G0 X116.616 Y86.069
G1 F1200 X116.029 Y85.482 E17.79832
G0 F6000 X115.464 Y85.482
G1 F1200 X116.616 Y86.635 E17.83084
G0 F6000 X116.616 Y87.201
G1 F1200 X114.898 Y85.482 E17.87934
G0 F6000 X114.332 Y85.482
G1 F1200 X116.616 Y87.766 E17.9438
G0 F6000 X116.616 Y88.332
G1 F1200 X113.767 Y85.482 E18.02422
G0 F6000 X113.201 Y85.482
G1 F1200 X116.616 Y88.898 E18.12061
G0 F6000 X116.616 Y89.463
G1 F1200 X112.635 Y85.482 E18.23297
G0 F6000 X112.07 Y85.482
G1 F1200 X116.616 Y90.029 E18.36128
G0 F6000 X116.616 Y90.595
G1 F1200 X111.504 Y85.482 E18.50557
G0 F6000 X110.938 Y85.482
G1 F1200 X116.616 Y91.16 E18.66581
G0 F6000 X116.616 Y91.726
G1 F1200 X110.373 Y85.482 E18.84202
G0 F6000 X109.807 Y85.482
G1 F1200 X116.616 Y92.292 E19.03419
G0 F6000 X116.616 Y92.857
G1 F1200 X109.241 Y85.482 E19.24233
G0 F6000 X108.675 Y85.482
G1 F1200 X116.616 Y93.423 E19.46645
G0 F6000 X116.616 Y93.989
G1 F1200 X108.11 Y85.482 E19.70652
G0 F6000 X107.544 Y85.482
G1 F1200 X116.616 Y94.555 E19.96256
G0 F6000 X116.616 Y95.12
G1 F1200 X106.978 Y85.482 E20.23457
G0 F6000 X106.413 Y85.482
G1 F1200 X116.616 Y95.686 E20.52253
G0 F6000 X116.616 Y96.252
G1 F1200 X105.847 Y85.482 E20.82647
G0 F6000 X105.281 Y85.482
G1 F1200 X116.616 Y96.817 E21.14637
G0 F6000 X116.616 Y97.383
G1 F1200 X104.716 Y85.482 E21.48223
G0 F6000 X104.15 Y85.482
G1 F1200 X116.616 Y97.949 E21.83406
G0 F6000 X116.616 Y98.514
G1 F1200 X103.584 Y85.482 E22.20185
G0 F6000 X103.382 Y85.846
G1 F1200 X116.253 Y98.717 E22.5651
G0 F6000 X115.687 Y98.717
G1 F1200 X103.382 Y86.411 E22.91239
G0 F6000 X103.382 Y86.977
G1 F1200 X115.121 Y98.717 E23.2437
G0 F6000 X114.556 Y98.717
G1 F1200 X103.382 Y87.543 E23.55905
G0 F6000 X103.382 Y88.109
G1 F1200 X113.99 Y98.717 E23.85843
G0 F6000 X113.424 Y98.717
G1 F1200 X103.382 Y88.674 E24.14186
G0 F6000 X103.382 Y89.24
G1 F1200 X112.859 Y98.717 E24.40932
G0 F6000 X112.293 Y98.717
G1 F1200 X103.382 Y89.806 E24.6608
G0 F6000 X103.382 Y90.371
G1 F1200 X111.727 Y98.717 E24.89633
G0 F6000 X111.162 Y98.717
G1 F1200 X103.382 Y90.937 E25.1159
G0 F6000 X103.382 Y91.503
G1 F1200 X110.596 Y98.717 E25.3195
G0 F6000 X110.03 Y98.717
G1 F1200 X103.382 Y92.068 E25.50713
G0 F6000 X103.382 Y92.634
G1 F1200 X109.465 Y98.717 E25.67881
G0 F6000 X108.899 Y98.717
G1 F1200 X103.382 Y93.2 E25.83451
G0 F6000 X103.382 Y93.765
G1 F1200 X108.333 Y98.717 E25.97425
G0 F6000 X107.768 Y98.717
G1 F1200 X103.382 Y94.331 E26.09803
G0 F6000 X103.382 Y94.897
G1 F1200 X107.202 Y98.717 E26.20584
G0 F6000 X106.636 Y98.717
G1 F1200 X103.382 Y95.462 E26.29769
G0 F6000 X103.382 Y96.028
G1 F1200 X106.07 Y98.717 E26.37356
G0 F6000 X105.505 Y98.717
G1 F1200 X103.382 Y96.594 E26.43348
G0 F6000 X103.382 Y97.16
G1 F1200 X104.939 Y98.717 E26.47742
G0 F6000 X104.373 Y98.717
G1 F1200 X103.382 Y97.725 E26.5054
G0 F6000 X103.382 Y98.291
G1 F1200 X103.808 Y98.717 E26.51743
G0 F6000 X103.808 Y99.457
G1 F1500 E20.01743
;MESH:v2-inner_stem_slab.stl
G0 F6000 X117.168 Y99.847
G0 X117.168 Y102.252
G0 X117.168 Y117.168
;TYPE:WALL-INNER
G1 F1500 E26.51743
G1 F1200 X102.832 Y117.168 E26.80352
G1 X102.832 Y102.832 E27.08961
G1 X117.168 Y102.832 E27.3757
G1 X117.168 Y117.168 E27.66179
G0 F6000 X117.568 Y117.568
G1 F1200 X102.432 Y117.568 E27.96384
G1 X102.432 Y102.432 E28.2659
G1 X117.568 Y102.432 E28.56795
G1 X117.568 Y117.568 E28.87001
G0 F6000 X117.968 Y117.968
;TYPE:WALL-OUTER
G1 F1200 X102.032 Y117.968 E29.18803
G1 X102.032 Y102.032 E29.50605
G1 X117.968 Y102.032 E29.82407
G1 X117.968 Y117.968 E30.14209
G0 F6000 X117.698 Y117.698
G0 X117.058 Y116.778
G0 X116.778 Y116.778
;TYPE:SKIN
G1 F1200 X103.222 Y116.778 E30.41261
G1 X103.222 Y103.222 E30.68314
G1 X116.778 Y103.222 E30.95366
G1 X116.778 Y116.778 E31.22419
G0 F6000 X117.058 Y116.778
G0 X117.058 Y103.606
G0 X116.617 Y103.606
