;FLAVOR:Marlin
;TIME:1508
;Filament used: 0.791111m
;Layer height: 0.2
;MINX:93.285
;MINY:64.715
;MINZ:0.2
;MAXX:127.641
;MAXY:155.088
;MAXZ:7.4
;Generated with Cura_SteamEngine 4.11.0
M140 S60
M105
M190 S60
M104 S210
M105
M109 S210
M82 ;absolute extrusion mode
; Ender 3 Custom Start G-code
G92 E0 ; Reset Extruder
G28 ; Home all axes
M420 S1 ; Enable ABL Mesh after G28
G1 Z2.0 F3000 ; Move Z Axis up little to prevent scratching of Heat Bed
G1 X0.1 Y20 Z0.3 F5000.0 ; Move to start position
G1 X0.1 Y200.0 Z0.3 F1500.0 E15 ; Draw the first line
G1 X0.4 Y200.0 Z0.3 F5000.0 ; Move to side a little
G1 X0.4 Y20 Z0.3 F1500.0 E30 ; Draw the second line
G92 E0 ; Reset Extruder
G1 Z2.0 F3000 ; Move Z Axis up little to prevent scratching of Heat Bed
G1 X5 Y20 Z0.3 F5000.0 ; Move over to prevent blob squish
G92 E0
G92 E0
G1 F1500 E-6.5
;LAYER_COUNT:37
;LAYER:0
M107
G0 F6000 X95.917 Y71.302 Z0.2
;TYPE:SKIRT
G1 F1500 E0
G1 F1200 X96.532 Y70.594 E0.03119
G1 X97.385 Y69.785 E0.07029
G1 X97.742 Y69.483 E0.08585
G1 X98.984 Y68.459 E0.13938
G1 X99.328 Y68.183 E0.15405
G1 X100.084 Y67.628 E0.18525
G1 X100.674 Y67.259 E0.20839
G1 X101.067 Y67.03 E0.22352
G1 X101.397 Y66.845 E0.2361
G1 X101.983 Y66.53 E0.25823
G1 X102.827 Y66.122 E0.28941
G1 X103.703 Y65.787 E0.3206
G1 X104.684 Y65.509 E0.35452
G1 X105.628 Y65.288 E0.38676
G1 X106.002 Y65.207 E0.39949
G1 X106.432 Y65.122 E0.41407
G1 X107.07 Y65.015 E0.43559
G1 X108.032 Y64.883 E0.46788
G1 X108.386 Y64.84 E0.47974
G1 X109.038 Y64.772 E0.50155
G1 X109.974 Y64.715 E0.53274
G1 X110.912 Y64.737 E0.56394
G1 X111.844 Y64.84 E0.59513
G1 X112.764 Y65.021 E0.62632
G1 X113.665 Y65.28 E0.6575
G1 X114.542 Y65.615 E0.68872
G1 X115.386 Y66.023 E0.7199
G1 X116.487 Y66.701 E0.76291
G1 X117.037 Y67.086 E0.78524
G1 X117.393 Y67.346 E0.7999
G1 X117.502 Y67.429 E0.80445
G1 X118.223 Y68.029 E0.83565
G1 X118.891 Y68.688 E0.86686
G1 X119.5 Y69.401 E0.89805
G1 X120.046 Y70.163 E0.92923
G1 X120.525 Y70.97 E0.96044
G1 X121.015 Y72.007 E0.99859
G1 X121.187 Y72.427 E1.01368
G1 X122.239 Y74.887 E1.10267
G1 X123.144 Y76.868 E1.17511
G1 X123.337 Y77.315 E1.1913
G1 X123.392 Y77.451 E1.19618
G1 X123.549 Y77.862 E1.21082
G1 X123.658 Y78.166 E1.22156
G1 X123.912 Y78.973 E1.2497
G1 X123.998 Y79.287 E1.26053
G1 X124.206 Y80.195 E1.29151
G1 X124.247 Y80.417 E1.29902
G1 X124.346 Y81.055 E1.32049
G1 X124.412 Y81.746 E1.34358
G1 X124.442 Y82.211 E1.35908
G1 X124.464 Y83.072 E1.38772
G1 X124.446 Y84.318 E1.42917
G1 X124.416 Y85.669 E1.47411
G1 X124.427 Y88.026 E1.55251
G1 X124.431 Y88.259 E1.56026
G1 X124.425 Y88.868 E1.58052
G1 X124.412 Y89.213 E1.592
G1 X124.346 Y91.917 E1.68196
G1 X124.345 Y92.139 E1.68935
G1 X124.332 Y93.089 E1.72095
G1 X124.323 Y93.406 E1.73149
G1 X124.269 Y94.647 E1.77281
G1 X124.246 Y95.044 E1.78603
G1 X124.173 Y97.544 E1.86922
G1 X124.171 Y100.068 E1.95317
G1 X124.24 Y102.609 E2.03771
G1 X124.303 Y103.769 E2.07635
G1 X124.329 Y104.449 E2.09899
G1 X124.336 Y105.05 E2.11898
G1 X124.33 Y105.414 E2.13108
G1 X124.267 Y107.427 E2.19807
G1 X124.259 Y109.948 E2.28192
G1 X124.323 Y112.507 E2.36706
G1 X124.454 Y114.966 E2.44896
G1 X124.663 Y117.526 E2.53439
G1 X124.938 Y120.011 E2.61755
G1 X125.28 Y122.472 E2.70019
G1 X125.705 Y125.004 E2.78558
G1 X126.186 Y127.44 E2.86817
G1 X126.741 Y129.888 E2.95165
G1 X126.957 Y130.719 E2.98021
G1 X126.991 Y130.875 E2.98552
G1 X127.314 Y132.169 E3.02988
G1 X127.502 Y133.088 E3.06108
G1 X127.612 Y134.019 E3.09226
G1 X127.641 Y134.957 E3.12347
G1 X127.618 Y135.564 E3.14368
G1 X127.57 Y136.285 E3.16771
G1 X127.427 Y139.075 E3.26063
G1 X127.381 Y140.291 E3.3011
G1 X127.305 Y141.226 E3.3323
G1 X127.15 Y142.151 E3.3635
G1 X126.91 Y143.082 E3.39547
G1 X126.751 Y143.603 E3.41359
G1 X126.591 Y144.088 E3.43058
G1 X126.53 Y144.259 E3.43662
G1 X126.177 Y145.128 E3.46781
G1 X125.752 Y145.964 E3.499
G1 X125.257 Y146.761 E3.53021
G1 X124.395 Y147.866 E3.57682
G1 X122.559 Y149.934 E3.6688
G1 X121.907 Y150.608 E3.69999
G1 X120.949 Y151.419 E3.74174
G1 X120.601 Y151.681 E3.75623
G1 X120.317 Y151.887 E3.76789
G1 X120.094 Y152.044 E3.77696
G1 X119.305 Y152.551 E3.80816
G1 X118.224 Y153.104 E3.84854
G1 X117.24 Y153.54 E3.88434
G1 X116.341 Y153.923 E3.91684
G1 X116.086 Y154.037 E3.92613
G1 X115.214 Y154.382 E3.95732
G1 X114.316 Y154.652 E3.98851
G1 X113.398 Y154.844 E4.0197
G1 X112.149 Y154.978 E4.06148
G1 X110.952 Y155.036 E4.10134
G1 X110.232 Y155.068 E4.12531
G1 X109.905 Y155.078 E4.1362
G1 X109.378 Y155.087 E4.15373
G1 X109.015 Y155.088 E4.1658
G1 X108.763 Y155.084 E4.17418
G1 X107.827 Y155.029 E4.20537
G1 X107.175 Y154.943 E4.22724
G1 X106.291 Y154.764 E4.25724
G1 X105.183 Y154.492 E4.29519
G1 X104.682 Y154.36 E4.31242
G1 X103.787 Y154.079 E4.34362
G1 X102.836 Y153.683 E4.37788
G1 X102.207 Y153.386 E4.40102
G1 X101.877 Y153.223 E4.41326
G1 X101.552 Y153.056 E4.42541
G1 X100.736 Y152.592 E4.45663
G1 X100.26 Y152.276 E4.47564
G1 X99.995 Y152.09 E4.4864
G1 X99.719 Y151.89 E4.49774
G1 X99.424 Y151.669 E4.51
G1 X98.698 Y151.075 E4.5412
G1 X98.025 Y150.421 E4.57241
G1 X97.41 Y149.713 E4.6036
G1 X96.858 Y148.955 E4.63479
G1 X96.373 Y148.152 E4.66599
G1 X95.958 Y147.311 E4.69719
G1 X95.616 Y146.44 E4.72831
G1 X95.483 Y146.053 E4.74192
G1 X95.375 Y145.721 E4.75353
G1 X95.292 Y145.452 E4.76289
G1 X95.054 Y144.545 E4.79408
G1 X94.894 Y143.621 E4.82527
G1 X94.813 Y142.686 E4.85649
G1 X94.827 Y141.489 E4.8963
G1 X94.899 Y140.402 E4.93253
G1 X94.957 Y139.684 E4.95649
G1 X95.091 Y137.164 E5.04043
G1 X95.152 Y134.652 E5.124
G1 X95.141 Y131.944 E5.21407
G1 X95.165 Y131.172 E5.23976
G1 X95.241 Y130.04 E5.27749
G1 X95.293 Y129.394 E5.29905
G1 X95.428 Y126.86 E5.38345
G1 X95.489 Y124.366 E5.46643
G1 X95.466 Y122.103 E5.5417
G1 X95.464 Y120.829 E5.58407
G1 X95.501 Y119.908 E5.61473
G1 X95.541 Y119.447 E5.63012
G1 X95.71 Y117.748 E5.68691
G1 X95.887 Y115.259 E5.7699
G1 X96.009 Y112.324 E5.8676
G1 X96.017 Y112.003 E5.87828
G1 X96.047 Y109.396 E5.965
G1 X96.005 Y106.903 E6.04793
G1 X95.895 Y104.602 E6.12455
G1 X95.824 Y102.705 E6.18769
G1 X95.691 Y100.139 E6.27315
G1 X95.487 Y97.593 E6.3581
G1 X95.22 Y95.139 E6.4402
G1 X94.874 Y92.62 E6.52477
G1 X94.259 Y89.021 E6.64621
G1 X94.133 Y87.995 E6.68059
G1 X94.036 Y86.689 E6.72415
G1 X94.016 Y86.349 E6.73547
G1 X93.79 Y83.816 E6.82006
G1 X93.487 Y81.249 E6.90603
G1 X93.37 Y80.364 E6.93572
G1 X93.287 Y79.43 E6.96691
G1 X93.285 Y78.492 E6.9981
G1 X93.362 Y77.558 E7.02927
G1 X93.518 Y76.633 E7.06047
G1 X93.754 Y75.721 E7.09181
G1 X93.925 Y75.16 E7.11131
G1 X94.047 Y74.784 E7.12446
G1 X94.119 Y74.575 E7.13181
G1 X94.462 Y73.702 E7.16301
G1 X94.878 Y72.862 E7.19419
G1 X95.364 Y72.06 E7.22538
G1 X95.917 Y71.302 E7.25658
G0 F6000 X96.272 Y71.499
G1 F1200 X96.881 Y70.808 E7.28722
G1 X97.644 Y70.089 E7.32209
G1 X97.996 Y69.792 E7.33741
G1 X99.235 Y68.771 E7.39081
G1 X99.579 Y68.495 E7.40547
G1 X100.321 Y67.951 E7.43608
G1 X100.875 Y67.604 E7.45782
G1 X101.268 Y67.375 E7.47295
G1 X101.586 Y67.197 E7.48507
G1 X102.172 Y66.882 E7.5072
G1 X103.001 Y66.482 E7.53781
G1 X103.862 Y66.155 E7.56844
G1 X104.775 Y65.898 E7.59999
G1 X105.719 Y65.677 E7.63224
G1 X106.079 Y65.599 E7.64449
G1 X106.509 Y65.514 E7.65907
G1 X107.124 Y65.411 E7.67981
G1 X108.086 Y65.279 E7.7121
G1 X108.427 Y65.238 E7.72352
G1 X109.079 Y65.17 E7.74533
G1 X109.998 Y65.115 E7.77595
G1 X110.919 Y65.139 E7.80659
G1 X111.833 Y65.243 E7.83719
G1 X112.736 Y65.426 E7.86783
G1 X113.619 Y65.687 E7.89846
G1 X114.476 Y66.023 E7.92907
G1 X115.3 Y66.432 E7.95967
G1 X116.258 Y67.029 E7.99721
G1 X116.808 Y67.414 E8.01954
G1 X117.151 Y67.665 E8.03368
G1 X117.26 Y67.748 E8.03824
G1 X117.967 Y68.337 E8.06884
G1 X118.621 Y68.985 E8.09946
G1 X119.216 Y69.687 E8.13007
G1 X119.748 Y70.439 E8.16071
G1 X120.213 Y71.234 E8.19134
G1 X120.645 Y72.159 E8.2253
G1 X120.83 Y72.611 E8.24154
G1 X121.866 Y75.033 E8.32916
G1 X122.781 Y77.034 E8.40234
G1 X122.966 Y77.465 E8.41794
G1 X123.021 Y77.601 E8.42282
G1 X123.172 Y77.997 E8.43691
G1 X123.281 Y78.301 E8.44766
G1 X123.526 Y79.079 E8.47478
G1 X123.612 Y79.393 E8.48561
G1 X123.813 Y80.268 E8.51547
G1 X123.854 Y80.49 E8.52298
G1 X123.949 Y81.106 E8.54371
G1 X124.013 Y81.772 E8.56597
G1 X124.043 Y82.237 E8.58146
G1 X124.064 Y83.066 E8.60905
G1 X124.046 Y84.309 E8.65039
G1 X124.016 Y85.662 E8.6954
G1 X124.027 Y88.036 E8.77436
G1 X124.031 Y88.267 E8.78205
G1 X124.026 Y88.853 E8.80154
G1 X124.01 Y89.281 E8.81579
G1 X123.946 Y91.908 E8.90319
G1 X123.945 Y92.133 E8.91067
G1 X123.932 Y93.083 E8.94227
G1 X123.923 Y93.389 E8.95245
G1 X123.87 Y94.624 E8.99357
G1 X123.846 Y95.045 E9.00759
G1 X123.773 Y97.532 E9.09034
G1 X123.771 Y100.078 E9.17502
G1 X123.84 Y102.607 E9.25917
G1 X123.895 Y103.607 E9.29248
G1 X123.929 Y104.464 E9.32101
G1 X123.936 Y105.044 E9.3403
G1 X123.926 Y105.568 E9.35773
G1 X123.866 Y107.448 E9.42029
G1 X123.859 Y109.957 E9.50374
G1 X123.922 Y112.503 E9.58845
G1 X124.057 Y115.021 E9.67232
G1 X124.262 Y117.532 E9.75611
G1 X124.543 Y120.073 E9.84114
G1 X124.889 Y122.562 E9.92472
G1 X125.304 Y125.035 E10.00812
G1 X125.798 Y127.541 E10.09308
G1 X126.352 Y129.981 E10.1763
G1 X126.57 Y130.82 E10.20513
G1 X126.602 Y130.97 E10.21023
G1 X126.926 Y132.266 E10.25466
G1 X127.11 Y133.168 E10.28528
G1 X127.215 Y134.083 E10.31591
G1 X127.241 Y135.003 E10.34653
G1 X127.219 Y135.538 E10.36434
G1 X127.168 Y136.308 E10.39
G1 X127.03 Y138.999 E10.47962
G1 X126.981 Y140.276 E10.52213
G1 X126.906 Y141.194 E10.55276
G1 X126.752 Y142.101 E10.58336
G1 X126.527 Y142.965 E10.61305
G1 X126.368 Y143.486 E10.63117
G1 X126.214 Y143.953 E10.64753
G1 X126.153 Y144.124 E10.65357
G1 X125.806 Y144.977 E10.68419
G1 X125.387 Y145.797 E10.71482
G1 X124.898 Y146.577 E10.74544
G1 X124.096 Y147.6 E10.78868
G1 X122.26 Y149.668 E10.88065
G1 X121.619 Y150.33 E10.9113
G1 X120.709 Y151.099 E10.95093
G1 X120.361 Y151.361 E10.96542
G1 X120.087 Y151.56 E10.97668
G1 X119.864 Y151.717 E10.98575
G1 X119.089 Y152.214 E11.01637
G1 X118.062 Y152.739 E11.05474
G1 X117.083 Y153.172 E11.09034
G1 X116.15 Y153.57 E11.12408
G1 X115.923 Y153.671 E11.13234
G1 X115.067 Y154.009 E11.16295
G1 X114.184 Y154.272 E11.19359
G1 X113.282 Y154.457 E11.22422
G1 X112.129 Y154.578 E11.26278
G1 X110.938 Y154.636 E11.30244
G1 X110.781 Y154.641 E11.30766
G1 X110.213 Y154.668 E11.32658
G1 X109.898 Y154.678 E11.33706
G1 X109.371 Y154.687 E11.35459
G1 X109.022 Y154.688 E11.3662
G1 X108.77 Y154.684 E11.37458
G1 X107.851 Y154.629 E11.4052
G1 X107.238 Y154.548 E11.42577
G1 X106.386 Y154.375 E11.45468
G1 X105.278 Y154.103 E11.49263
G1 X105.057 Y154.047 E11.50021
G1 X104.785 Y153.974 E11.50958
G1 X103.907 Y153.697 E11.5402
G1 X103.007 Y153.321 E11.57264
G1 X102.378 Y153.024 E11.59578
G1 X102.059 Y152.867 E11.6076
G1 X101.734 Y152.7 E11.61976
G1 X100.935 Y152.244 E11.65035
G1 X100.489 Y151.948 E11.66816
G1 X100.224 Y151.762 E11.67893
G1 X99.959 Y151.569 E11.68983
G1 X99.664 Y151.348 E11.70209
G1 X98.951 Y150.765 E11.73272
G1 X98.293 Y150.122 E11.76332
G1 X97.692 Y149.424 E11.79396
G1 X97.154 Y148.677 E11.82458
G1 X96.683 Y147.886 E11.85519
G1 X96.283 Y147.057 E11.88581
G1 X95.994 Y146.31 E11.91245
G1 X95.861 Y145.923 E11.92606
G1 X95.757 Y145.603 E11.93725
G1 X95.674 Y145.334 E11.94661
G1 X95.441 Y144.444 E11.97721
G1 X95.286 Y143.536 E12.00785
G1 X95.211 Y142.618 E12.03849
G1 X95.226 Y141.515 E12.07517
G1 X95.298 Y140.435 E12.11118
G1 X95.357 Y139.712 E12.1353
G1 X95.49 Y137.195 E12.21913
G1 X95.552 Y134.659 E12.30351
G1 X95.541 Y131.942 E12.39388
G1 X95.564 Y131.199 E12.4186
G1 X95.64 Y130.072 E12.45617
G1 X95.694 Y129.411 E12.47823
G1 X95.827 Y126.891 E12.56216
G1 X95.889 Y124.371 E12.646
G1 X95.866 Y122.103 E12.72144
G1 X95.864 Y120.829 E12.76381
G1 X95.9 Y119.941 E12.79337
G1 X95.939 Y119.486 E12.80856
G1 X96.109 Y117.777 E12.86568
G1 X96.287 Y115.272 E12.94921
G1 X96.408 Y112.345 E13.04664
G1 X96.417 Y112.018 E13.05752
G1 X96.447 Y109.393 E13.14484
G1 X96.405 Y106.91 E13.22744
G1 X96.295 Y104.587 E13.30478
G1 X96.227 Y102.77 E13.36526
G1 X96.088 Y100.087 E13.45462
G1 X95.888 Y97.589 E13.53797
G1 X95.611 Y95.043 E13.62315
G1 X95.274 Y92.59 E13.7055
G1 X94.653 Y88.954 E13.82819
G1 X94.532 Y87.965 E13.86133
G1 X94.435 Y86.665 E13.90468
G1 X94.412 Y86.288 E13.91725
G1 X94.191 Y83.804 E14.00019
G1 X93.874 Y81.121 E14.09005
G1 X93.767 Y80.312 E14.11719
G1 X93.686 Y79.395 E14.14781
G1 X93.686 Y78.474 E14.17844
G1 X93.765 Y77.557 E14.20905
G1 X93.924 Y76.65 E14.23968
G1 X94.137 Y75.837 E14.26763
G1 X94.308 Y75.276 E14.28714
G1 X94.425 Y74.914 E14.29979
G1 X94.497 Y74.705 E14.30715
G1 X94.834 Y73.849 E14.33774
G1 X95.245 Y73.025 E14.36837
G1 X95.725 Y72.239 E14.399
G1 X96.272 Y71.499 E14.42961
G0 F6000 X96.627 Y71.697
G1 F1200 X97.229 Y71.024 E14.45964
G1 X97.904 Y70.394 E14.49035
G1 X98.251 Y70.1 E14.50548
G1 X99.485 Y69.083 E14.55866
G1 X99.829 Y68.807 E14.57333
G1 X100.558 Y68.274 E14.60337
G1 X101.077 Y67.95 E14.62372
G1 X101.47 Y67.721 E14.63885
G1 X101.776 Y67.55 E14.6505
G1 X102.362 Y67.235 E14.67263
G1 X103.175 Y66.843 E14.70265
G1 X104.02 Y66.524 E14.73269
G1 X104.866 Y66.288 E14.76191
G1 X105.81 Y66.067 E14.79415
G1 X106.157 Y65.992 E14.80596
G1 X106.587 Y65.907 E14.82054
G1 X107.178 Y65.808 E14.84047
G1 X108.14 Y65.676 E14.87276
G1 X108.469 Y65.636 E14.88379
G1 X109.121 Y65.568 E14.90559
G1 X110.022 Y65.514 E14.93561
G1 X110.925 Y65.54 E14.96566
G1 X111.822 Y65.646 E14.9957
G1 X112.706 Y65.831 E15.02574
G1 X113.57 Y66.093 E15.05577
G1 X114.408 Y66.431 E15.08582
G1 X115.212 Y66.841 E15.11584
G1 X116.028 Y67.357 E15.14795
G1 X116.578 Y67.742 E15.17028
G1 X116.908 Y67.983 E15.18387
G1 X117.017 Y68.066 E15.18843
G1 X117.711 Y68.644 E15.21847
G1 X118.351 Y69.282 E15.24852
G1 X118.931 Y69.973 E15.27853
G1 X119.449 Y70.714 E15.3086
G1 X119.899 Y71.497 E15.33864
G1 X120.275 Y72.311 E15.36846
G1 X120.464 Y72.771 E15.385
G1 X121.5 Y75.193 E15.47262
G1 X122.417 Y77.201 E15.54604
G1 X122.595 Y77.615 E15.56103
G1 X122.65 Y77.751 E15.56591
G1 X122.795 Y78.132 E15.57947
G1 X122.904 Y78.436 E15.59021
G1 X123.141 Y79.185 E15.61634
G1 X123.227 Y79.499 E15.62716
G1 X123.419 Y80.341 E15.65589
G1 X123.46 Y80.563 E15.6634
G1 X123.552 Y81.157 E15.68339
G1 X123.614 Y81.797 E15.70478
G1 X123.644 Y82.262 E15.72027
G1 X123.664 Y83.061 E15.74686
G1 X123.646 Y84.3 E15.78807
G1 X123.616 Y85.655 E15.83315
G1 X123.627 Y88.045 E15.91264
G1 X123.631 Y88.274 E15.92026
G1 X123.626 Y88.838 E15.93902
G1 X123.61 Y89.256 E15.95293
G1 X123.546 Y91.898 E16.04083
G1 X123.545 Y92.128 E16.04848
G1 X123.532 Y93.078 E16.08008
G1 X123.524 Y93.372 E16.08986
G1 X123.478 Y94.453 E16.12585
G1 X123.449 Y94.974 E16.1432
G1 X123.373 Y97.555 E16.22909
G1 X123.371 Y100.088 E16.31333
G1 X123.44 Y102.604 E16.39705
G1 X123.504 Y103.799 E16.43685
G1 X123.53 Y104.479 E16.45948
G1 X123.536 Y105.037 E16.47804
G1 X123.526 Y105.556 E16.49531
G1 X123.467 Y107.435 E16.55784
G1 X123.458 Y109.965 E16.64199
G1 X123.523 Y112.533 E16.72742
G1 X123.657 Y115.042 E16.81099
G1 X123.864 Y117.573 E16.89546
G1 X124.143 Y120.1 E16.98001
G1 X124.492 Y122.612 E17.06437
G1 X124.917 Y125.141 E17.14966
G1 X125.402 Y127.601 E17.23306
G1 X125.963 Y130.072 E17.31733
G1 X126.183 Y130.92 E17.34647
G1 X126.221 Y131.101 E17.35262
G1 X126.537 Y132.363 E17.39589
G1 X126.717 Y133.248 E17.42593
G1 X126.819 Y134.146 E17.45599
G1 X126.84 Y135.048 E17.486
G1 X126.82 Y135.511 E17.50141
G1 X126.771 Y136.257 E17.52628
G1 X126.632 Y138.964 E17.61643
G1 X126.582 Y140.261 E17.6596
G1 X126.507 Y141.161 E17.68964
G1 X126.353 Y142.051 E17.71968
G1 X126.145 Y142.848 E17.74708
G1 X125.986 Y143.369 E17.7652
G1 X125.837 Y143.819 E17.78096
G1 X125.776 Y143.99 E17.787
G1 X125.435 Y144.826 E17.81703
G1 X125.022 Y145.629 E17.84706
G1 X124.539 Y146.393 E17.87713
G1 X123.797 Y147.335 E17.91701
G1 X121.961 Y149.403 E18.00899
G1 X121.332 Y150.051 E18.03902
G1 X120.468 Y150.78 E18.07662
G1 X120.12 Y151.042 E18.09111
G1 X119.857 Y151.233 E18.10192
G1 X119.634 Y151.39 E18.11099
G1 X118.873 Y151.877 E18.14104
G1 X117.899 Y152.373 E18.1774
G1 X116.926 Y152.804 E18.21279
G1 X116.01 Y153.195 E18.24592
G1 X115.76 Y153.306 E18.25502
G1 X114.92 Y153.637 E18.28505
G1 X114.053 Y153.893 E18.31511
G1 X113.168 Y154.07 E18.34513
G1 X112.109 Y154.178 E18.38054
