;FLAVOR:Marlin
;TIME:925
;Filament used: 0.674244m
;Layer height: 0.2
;MINX:82.765
;MINY:82.439
;MINZ:0.2
;MAXX:134.296
;MAXY:136.5
;MAXZ:7
;Generated with Cura_SteamEngine 4.11.0
M140 S60
M105
M190 S60
M104 S210
M105
M109 S210
M82 ;absolute extrusion mode
; Ender 3 Custom Start G-code
G92 E0 ; Reset Extruder
G28 ; Home all axes
M420 S1 ; Enable ABL Mesh after G28
G1 Z2.0 F3000 ; Move Z Axis up little to prevent scratching of Heat Bed
G1 X0.1 Y20 Z0.3 F5000.0 ; Move to start position
G1 X0.1 Y200.0 Z0.3 F1500.0 E15 ; Draw the first line
G1 X0.4 Y200.0 Z0.3 F5000.0 ; Move to side a little
G1 X0.4 Y20 Z0.3 F1500.0 E30 ; Draw the second line
G92 E0 ; Reset Extruder
G1 Z2.0 F3000 ; Move Z Axis up little to prevent scratching of Heat Bed
G1 X5 Y20 Z0.3 F5000.0 ; Move over to prevent blob squish
G92 E0
G92 E0
G1 F1500 E-6.5
;LAYER_COUNT:35
;LAYER:0
M107
G0 F6000 X86.615 Y98.544 Z0.2
;TYPE:SKIRT
G1 F1500 E0
G1 F1200 X87.217 Y98.028 E0.02637
G1 X89.21 Y96.272 E0.11472
G1 X91.018 Y94.587 E0.19692
G1 X92.507 Y93.119 E0.26646
G1 X92.692 Y92.941 E0.275
G1 X92.959 Y92.69 E0.28719
G1 X93.406 Y92.257 E0.30789
G1 X93.705 Y91.978 E0.32149
G1 X93.94 Y91.768 E0.33197
G1 X94.336 Y91.425 E0.3494
G1 X94.954 Y90.928 E0.37578
G1 X95.071 Y90.841 E0.38063
G1 X95.501 Y90.509 E0.39869
G1 X95.78 Y90.301 E0.41027
G1 X96.726 Y89.618 E0.44908
G1 X97.12 Y89.33 E0.46531
G1 X97.794 Y88.846 E0.49291
G1 X99.791 Y87.332 E0.57626
G1 X102.747 Y84.928 E0.70298
G1 X103.497 Y84.366 E0.73416
G1 X104.293 Y83.869 E0.76537
G1 X105.127 Y83.442 E0.79653
G1 X105.996 Y83.087 E0.82775
G1 X106.891 Y82.808 E0.85893
G1 X107.807 Y82.606 E0.89013
G1 X108.737 Y82.483 E0.92133
G1 X109.758 Y82.439 E0.95532
G1 X110.235 Y82.443 E0.97119
G1 X111.438 Y82.471 E1.01121
G1 X111.69 Y82.474 E1.01959
G1 X112.675 Y82.53 E1.05241
G1 X113.387 Y82.603 E1.07621
G1 X113.719 Y82.642 E1.08733
G1 X114.184 Y82.704 E1.10293
G1 X115.138 Y82.875 E1.13517
G1 X115.287 Y82.908 E1.14025
G1 X117.686 Y83.408 E1.22175
G1 X118.327 Y83.533 E1.24347
G1 X119.239 Y83.752 E1.27467
G1 X120.129 Y84.047 E1.30585
G1 X120.991 Y84.417 E1.33705
G1 X121.818 Y84.859 E1.36824
G1 X122.538 Y85.323 E1.39673
G1 X122.812 Y85.515 E1.40786
G1 X123.136 Y85.75 E1.42117
G1 X123.444 Y85.983 E1.43402
G1 X124.371 Y86.769 E1.47444
G1 X124.701 Y87.082 E1.48957
G1 X126.171 Y88.511 E1.55775
G1 X127.807 Y90.018 E1.63174
G1 X128.622 Y90.751 E1.66819
G1 X129.292 Y91.408 E1.6994
G1 X129.903 Y92.119 E1.73058
G1 X130.452 Y92.879 E1.76177
G1 X130.934 Y93.684 E1.79297
G1 X131.353 Y94.541 E1.8247
G1 X131.477 Y94.826 E1.83504
G1 X131.669 Y95.29 E1.85174
G1 X131.988 Y96.172 E1.88294
G1 X132.231 Y97.078 E1.91414
G1 X132.349 Y97.692 E1.93493
G1 X132.461 Y98.375 E1.95795
G1 X132.906 Y100.912 E2.04362
G1 X133.417 Y103.405 E2.12826
G1 X133.731 Y104.786 E2.17537
G1 X133.816 Y105.186 E2.18897
G1 X133.868 Y105.458 E2.19818
G1 X133.982 Y106.09 E2.21954
G1 X134.029 Y106.37 E2.22898
G1 X134.055 Y106.539 E2.23467
G1 X134.127 Y107.107 E2.25371
G1 X134.192 Y107.751 E2.27524
G1 X134.218 Y108.049 E2.28519
G1 X134.248 Y108.457 E2.29879
G1 X134.276 Y109.061 E2.31891
G1 X134.296 Y110.147 E2.35503
G1 X134.284 Y110.911 E2.38045
G1 X134.261 Y111.361 E2.39543
G1 X134.241 Y111.662 E2.40547
G1 X134.212 Y112.031 E2.41778
G1 X134.183 Y112.347 E2.42833
G1 X134.143 Y112.708 E2.44041
G1 X134.111 Y112.968 E2.44912
G1 X134.077 Y113.216 E2.45745
G1 X133.998 Y113.756 E2.4756
G1 X133.918 Y114.229 E2.49156
G1 X133.772 Y114.993 E2.51743
G1 X133.705 Y115.319 E2.5285
G1 X133.65 Y115.566 E2.53691
G1 X133.515 Y116.107 E2.55546
G1 X133.369 Y116.635 E2.57368
G1 X133.263 Y116.994 E2.58613
G1 X133.062 Y117.635 E2.60847
G1 X132.973 Y117.907 E2.61799
G1 X132.91 Y118.091 E2.62446
G1 X132.785 Y118.438 E2.63673
G1 X132.615 Y118.885 E2.65263
G1 X132.485 Y119.21 E2.66428
G1 X132.315 Y119.612 E2.67879
G1 X132.2 Y119.872 E2.68825
G1 X132.006 Y120.292 E2.70364
G1 X131.88 Y120.552 E2.71325
G1 X131.539 Y121.233 E2.73858
G1 X131.357 Y121.582 E2.75167
G1 X131.199 Y121.868 E2.76254
G1 X130.988 Y122.238 E2.7767
G1 X130.843 Y122.485 E2.78623
G1 X130.57 Y122.936 E2.80376
G1 X130.195 Y123.515 E2.82671
G1 X129.888 Y123.957 E2.84461
G1 X129.581 Y124.384 E2.8621
G1 X129.386 Y124.645 E2.87293
G1 X129.098 Y125.016 E2.88856
G1 X128.892 Y125.275 E2.89956
G1 X128.727 Y125.477 E2.90824
G1 X128.369 Y125.902 E2.92672
G1 X128.173 Y126.126 E2.93662
G1 X127.981 Y126.339 E2.94616
G1 X127.744 Y126.596 E2.95778
G1 X127.541 Y126.811 E2.96762
G1 X127.249 Y127.111 E2.98154
G1 X126.905 Y127.449 E2.99758
G1 X126.429 Y127.897 E3.01932
G1 X126.028 Y128.257 E3.03725
G1 X125.539 Y128.674 E3.05862
G1 X125.147 Y128.997 E3.07552
G1 X124.783 Y129.281 E3.09087
G1 X124.304 Y129.638 E3.11074
G1 X123.905 Y129.925 E3.12709
G1 X123.422 Y130.253 E3.14651
G1 X122.878 Y130.602 E3.16801
G1 X122.511 Y130.828 E3.18234
G1 X122.123 Y131.056 E3.19731
G1 X121.788 Y131.245 E3.2101
G1 X121.441 Y131.432 E3.22321
G1 X121.112 Y131.605 E3.23558
G1 X120.669 Y131.829 E3.25209
G1 X120.36 Y131.978 E3.2635
G1 X119.923 Y132.178 E3.27948
G1 X119.696 Y132.279 E3.28774
G1 X119.401 Y132.405 E3.29841
G1 X118.904 Y132.609 E3.31628
G1 X118.535 Y132.753 E3.32946
G1 X117.363 Y133.185 E3.371
G1 X116.43 Y133.524 E3.40402
G1 X114.094 Y134.448 E3.48757
G1 X112.66 Y135.061 E3.53944
G1 X112.511 Y135.117 E3.54473
G1 X111.385 Y135.603 E3.58553
G1 X110.509 Y135.937 E3.61671
G1 X109.608 Y136.195 E3.64788
G1 X108.687 Y136.376 E3.6791
G1 X107.755 Y136.478 E3.71028
G1 X106.817 Y136.5 E3.74149
G1 X106.343 Y136.481 E3.75727
G1 X106.199 Y136.472 E3.76206
G1 X105.524 Y136.408 E3.78462
G1 X105.115 Y136.357 E3.79832
G1 X104.19 Y136.202 E3.82952
G1 X103.282 Y135.968 E3.86071
G1 X102.397 Y135.658 E3.89189
G1 X101.541 Y135.273 E3.92311
G1 X100.722 Y134.817 E3.95429
G1 X99.953 Y134.299 E3.98513
G1 X99.786 Y134.176 E3.99203
G1 X99.451 Y133.919 E4.00607
G1 X99.135 Y133.667 E4.01951
G1 X98.427 Y133.052 E4.0507
G1 X97.741 Y132.341 E4.08357
G1 X97.564 Y132.14 E4.09247
G1 X95.878 Y130.293 E4.17565
G1 X93.229 Y127.585 E4.30165
G1 X93.041 Y127.4 E4.31042
G1 X92.753 Y127.108 E4.32406
G1 X92.628 Y126.976 E4.33011
G1 X92.243 Y126.578 E4.34852
G1 X91.961 Y126.276 E4.36227
G1 X91.777 Y126.069 E4.37148
G1 X91.426 Y125.664 E4.3893
G1 X90.939 Y125.06 E4.41511
G1 X90.849 Y124.94 E4.4201
G1 X90.487 Y124.47 E4.43983
G1 X90.273 Y124.182 E4.45176
G1 X90.132 Y123.986 E4.45979
G1 X89.887 Y123.631 E4.47414
G1 X89.538 Y123.1 E4.49528
G1 X89.247 Y122.638 E4.51344
G1 X89.035 Y122.286 E4.5271
G1 X88.903 Y122.058 E4.53586
G1 X88.649 Y121.594 E4.55346
G1 X87.938 Y120.217 E4.605
G1 X87.44 Y119.269 E4.64062
G1 X87.156 Y118.714 E4.66135
G1 X85.93 Y116.478 E4.74617
G1 X84.299 Y113.7 E4.85331
G1 X83.859 Y112.872 E4.8845
G1 X83.49 Y112.01 E4.91569
G1 X83.196 Y111.119 E4.94689
G1 X82.979 Y110.207 E4.97807
G1 X82.841 Y109.279 E5.00928
G1 X82.782 Y108.342 E5.04051
G1 X82.766 Y107.541 E5.06715
G1 X82.765 Y107.165 E5.07966
G1 X82.771 Y106.743 E5.09369
G1 X82.824 Y105.806 E5.12491
G1 X82.957 Y104.878 E5.15609
G1 X83.169 Y103.964 E5.1873
G1 X83.457 Y103.072 E5.21847
G1 X83.821 Y102.207 E5.24969
G1 X84.257 Y101.377 E5.28087
G1 X84.762 Y100.586 E5.31208
G1 X85.332 Y99.842 E5.34326
G1 X85.964 Y99.149 E5.37445
G1 X86.615 Y98.544 E5.40401
G0 F6000 X86.876 Y98.848
G1 F1200 X87.459 Y98.349 E5.42953
G1 X89.446 Y96.598 E5.51762
G1 X91.325 Y94.847 E5.60305
G1 X92.788 Y93.404 E5.67139
G1 X92.966 Y93.232 E5.67962
G1 X93.265 Y92.95 E5.69329
G1 X93.684 Y92.545 E5.71268
G1 X93.975 Y92.273 E5.72593
G1 X94.202 Y92.071 E5.73603
G1 X94.598 Y91.728 E5.75346
G1 X95.193 Y91.249 E5.77886
G1 X95.304 Y91.166 E5.78347
G1 X95.745 Y90.826 E5.80199
G1 X96.014 Y90.625 E5.81316
G1 X96.999 Y89.914 E5.85357
G1 X97.353 Y89.655 E5.86816
G1 X98.047 Y89.157 E5.89657
G1 X100.035 Y87.649 E5.97956
G1 X103 Y85.238 E6.10666
G1 X103.737 Y84.686 E6.13729
G1 X104.519 Y84.2 E6.16791
G1 X105.34 Y83.784 E6.19852
G1 X106.195 Y83.441 E6.22916
G1 X107.076 Y83.173 E6.25979
G1 X107.976 Y82.983 E6.29039
G1 X108.89 Y82.871 E6.32101
G1 X109.756 Y82.839 E6.34984
G1 X110.225 Y82.843 E6.36544
G1 X111.422 Y82.871 E6.40526
G1 X111.685 Y82.874 E6.41401
G1 X112.634 Y82.928 E6.44562
G1 X113.346 Y83.001 E6.46943
G1 X113.666 Y83.039 E6.48014
G1 X114.131 Y83.101 E6.49575
G1 X115.05 Y83.265 E6.5268
G1 X115.245 Y83.309 E6.53345
G1 X117.606 Y83.801 E6.61366
G1 X118.25 Y83.926 E6.63548
G1 X119.146 Y84.141 E6.66613
G1 X120.019 Y84.433 E6.69674
G1 X120.863 Y84.799 E6.72734
G1 X121.673 Y85.238 E6.75798
G1 X122.309 Y85.65 E6.78319
G1 X122.583 Y85.842 E6.79432
G1 X122.895 Y86.069 E6.80715
G1 X123.203 Y86.302 E6.81999
G1 X124.096 Y87.059 E6.85893
G1 X124.422 Y87.369 E6.87389
G1 X125.885 Y88.791 E6.94175
G1 X127.616 Y90.385 E7.02002
G1 X128.354 Y91.049 E7.05304
G1 X129.011 Y91.693 E7.08363
G1 X129.61 Y92.393 E7.11428
G1 X130.146 Y93.142 E7.14491
G1 X130.615 Y93.934 E7.17552
G1 X130.986 Y94.701 E7.20386
G1 X131.11 Y94.986 E7.2142
G1 X131.299 Y95.442 E7.23062
G1 X131.612 Y96.308 E7.26124
G1 X131.847 Y97.198 E7.29186
G1 X131.954 Y97.756 E7.31076
G1 X132.064 Y98.429 E7.33344
G1 X132.513 Y100.99 E7.41992
G1 X133.025 Y103.487 E7.5047
G1 X133.341 Y104.875 E7.55204
G1 X133.424 Y105.267 E7.56537
G1 X133.475 Y105.529 E7.57425
G1 X133.589 Y106.161 E7.59561
G1 X133.66 Y106.6 E7.6104
G1 X133.729 Y107.148 E7.62877
G1 X133.794 Y107.792 E7.6503
G1 X133.819 Y108.079 E7.65988
G1 X133.849 Y108.487 E7.67349
G1 X133.876 Y109.069 E7.69286
G1 X133.896 Y110.155 E7.72899
G1 X133.884 Y110.891 E7.75347
G1 X133.861 Y111.341 E7.76846
G1 X133.842 Y111.631 E7.77813
G1 X133.813 Y112 E7.79044
G1 X133.785 Y112.304 E7.80059
G1 X133.746 Y112.659 E7.81247
G1 X133.714 Y112.919 E7.82118
G1 X133.602 Y113.698 E7.84736
G1 X133.526 Y114.154 E7.86273
G1 X133.38 Y114.918 E7.8886
G1 X133.315 Y115.232 E7.89927
G1 X133.26 Y115.479 E7.90769
G1 X133.13 Y116 E7.92555
G1 X132.984 Y116.528 E7.94377
G1 X132.881 Y116.875 E7.9558
G1 X132.68 Y117.516 E7.97815
G1 X132.594 Y117.778 E7.98732
G1 X132.531 Y117.962 E7.99379
G1 X132.411 Y118.296 E8.00559
G1 X132.241 Y118.743 E8.0215
G1 X132.116 Y119.056 E8.03271
G1 X131.949 Y119.45 E8.04694
G1 X131.74 Y119.917 E8.06396
G1 X131.644 Y120.122 E8.07149
G1 X131.522 Y120.373 E8.08077
G1 X131.181 Y121.054 E8.1061
G1 X131.004 Y121.394 E8.11885
G1 X130.852 Y121.67 E8.12933
G1 X130.641 Y122.04 E8.1435
G1 X130.501 Y122.278 E8.15268
G1 X130.228 Y122.729 E8.17021
G1 X129.866 Y123.287 E8.19234
G1 X129.559 Y123.729 E8.21024
G1 X129.257 Y124.149 E8.22744
G1 X129.069 Y124.4 E8.23787
G1 X128.785 Y124.767 E8.25331
G1 X128.579 Y125.026 E8.26431
G1 X128.42 Y125.221 E8.27268
G1 X128.228 Y125.451 E8.28265
G1 X128.068 Y125.638 E8.29083
G1 X127.872 Y125.862 E8.30073
G1 X127.687 Y126.068 E8.30994
G1 X127.45 Y126.325 E8.32157
G1 X127.254 Y126.532 E8.33105
G1 X126.962 Y126.832 E8.34497
G1 X126.631 Y127.158 E8.36043
G1 X126.155 Y127.606 E8.38217
G1 X125.768 Y127.953 E8.39946
G1 X125.279 Y128.37 E8.42083
G1 X124.894 Y128.687 E8.43742
G1 X124.544 Y128.961 E8.4522
G1 X124.071 Y129.313 E8.47181
G1 X123.672 Y129.6 E8.48816
G1 X123.206 Y129.917 E8.50691
G1 X122.662 Y130.266 E8.5284
G1 X122.308 Y130.483 E8.54221
G1 X121.92 Y130.711 E8.55718
G1 X121.597 Y130.893 E8.56951
G1 X121.254 Y131.078 E8.58247
G1 X120.732 Y131.35 E8.60205
G1 X120.49 Y131.471 E8.61105
G1 X120.192 Y131.614 E8.62204
G1 X119.76 Y131.813 E8.63786
G1 X119.533 Y131.914 E8.64613
G1 X119.249 Y132.035 E8.65639
G1 X118.752 Y132.239 E8.67426
G1 X118.396 Y132.378 E8.68697
G1 X117.226 Y132.809 E8.72844
G1 X116.295 Y133.147 E8.76139
G1 X113.925 Y134.085 E8.84616
G1 X112.502 Y134.693 E8.89763
G1 X112.355 Y134.749 E8.90286
G1 X111.227 Y135.235 E8.94371
G1 X110.367 Y135.563 E8.97433
G1 X109.481 Y135.814 E9.00496
G1 X108.577 Y135.988 E9.03558
G1 X107.661 Y136.083 E9.06621
G1 X106.368 Y136.081 E9.10921
G1 X106.224 Y136.072 E9.11401
G1 X105.573 Y136.012 E9.13575
G1 X105.164 Y135.961 E9.14946
G1 X104.257 Y135.807 E9.18006
G1 X103.366 Y135.575 E9.21068
G1 X102.498 Y135.267 E9.24132
G1 X101.66 Y134.885 E9.27195
G1 X100.859 Y134.432 E9.30256
G1 X100.19 Y133.977 E9.32946
G1 X100.023 Y133.854 E9.33636
G1 X99.7 Y133.606 E9.34991
G1 X99.384 Y133.354 E9.36335
G1 X98.69 Y132.75 E9.39395
G1 X98.041 Y132.076 E9.42507
G1 X97.898 Y131.914 E9.43226
G1 X96.149 Y129.997 E9.51857
G1 X93.536 Y127.326 E9.64285
G1 X93.321 Y127.115 E9.65287
G1 X92.993 Y126.779 E9.66848
G1 X92.53 Y126.3 E9.69064
G1 X92.257 Y126.007 E9.70396
G1 X92.08 Y125.807 E9.71284
G1 X91.729 Y125.402 E9.73067
G1 X91.259 Y124.82 E9.75555
G1 X91.168 Y124.698 E9.76061
G1 X90.804 Y124.226 E9.78044
G1 X90.597 Y123.948 E9.79197
G1 X90.456 Y123.752 E9.8
G1 X90.22 Y123.41 E9.81382
G1 X90.005 Y123.085 E9.82678
G1 X89.877 Y122.886 E9.83465
G1 X89.586 Y122.424 E9.85281
G1 X89.381 Y122.086 E9.86596
G1 X89.249 Y121.858 E9.87472
G1 X89.004 Y121.41 E9.8917
G1 X88.293 Y120.033 E9.94324
G1 X87.796 Y119.087 E9.97879
G1 X87.497 Y118.504 E10.00058
G1 X86.292 Y116.305 E10.08398
G1 X85.343 Y114.685 E10.14643
G1 X84.644 Y113.497 E10.19227
G1 X84.212 Y112.684 E10.22289
G1 X83.852 Y111.837 E10.2535
G1 X83.567 Y110.961 E10.28414
G1 X83.36 Y110.065 E10.31473
G1 X83.23 Y109.153 E10.34537
G1 X83.182 Y108.334 E10.37265
G1 X83.166 Y107.533 E10.3993
G1 X83.165 Y107.17 E10.41137
G1 X83.171 Y106.748 E10.42541
G1 X83.224 Y105.829 E10.45603
G1 X83.357 Y104.918 E10.48665
G1 X83.568 Y104.022 E10.51727
G1 X83.856 Y103.148 E10.54787
G1 X84.219 Y102.302 E10.57849
G1 X84.654 Y101.49 E10.60913
G1 X85.158 Y100.719 E10.63977
G1 X85.726 Y99.995 E10.67037
G1 X86.356 Y99.324 E10.70099
G1 X86.876 Y98.848 E10.72443
G0 F6000 X87.136 Y99.151
G1 F1200 X87.74 Y98.634 E10.75088
G1 X89.737 Y96.874 E10.83941
G1 X91.591 Y95.146 E10.92371
G1 X93.069 Y93.688 E10.99276
G1 X93.24 Y93.523 E11.00066
G1 X93.571 Y93.212 E11.01577
G1 X93.963 Y92.832 E11.03393
G1 X94.246 Y92.568 E11.0468
G1 X94.464 Y92.373 E11.05653
G1 X94.86 Y92.03 E11.07395
G1 X95.432 Y91.569 E11.09839
G1 X95.569 Y91.467 E11.10407
G1 X95.99 Y91.142 E11.12176
G1 X96.248 Y90.95 E11.13245
G1 X97.175 Y90.28 E11.17049
G1 X97.587 Y89.98 E11.18745
G1 X98.259 Y89.498 E11.21495
G1 X100.279 Y87.965 E11.29929
G1 X103.254 Y85.547 E11.4268
G1 X103.977 Y85.007 E11.45682
G1 X104.745 Y84.532 E11.48685
G1 X105.553 Y84.127 E11.51691
G1 X106.393 Y83.796 E11.54694
G1 X107.259 Y83.539 E11.57699
G1 X108.144 Y83.361 E11.60701
G1 X109.041 Y83.261 E11.63703
G1 X109.755 Y83.239 E11.66079
G1 X110.216 Y83.243 E11.67612
G1 X111.408 Y83.271 E11.71578
G1 X111.68 Y83.274 E11.72483
G1 X112.593 Y83.326 E11.75524
G1 X113.305 Y83.399 E11.77905
G1 X113.613 Y83.435 E11.78936
G1 X114.078 Y83.497 E11.80497
G1 X114.963 Y83.655 E11.83487
G1 X115.143 Y83.695 E11.841
G1 X117.599 Y84.207 E11.92444
G1 X118.174 Y84.319 E11.94393
G1 X119.052 Y84.53 E11.97396
G1 X119.908 Y84.819 E12.00401
G1 X120.735 Y85.182 E12.03405
G1 X121.526 Y85.616 E12.06406
G1 X122.079 Y85.978 E12.08604
G1 X122.353 Y86.17 E12.09717
G1 X122.654 Y86.388 E12.10953
G1 X122.962 Y86.621 E12.12238
G1 X123.821 Y87.35 E12.15985
G1 X124.143 Y87.656 E12.17462
G1 X125.599 Y89.071 E12.24215
G1 X127.317 Y90.653 E12.31983
G1 X128.087 Y91.346 E12.35428
G1 X128.731 Y91.979 E12.38432
G1 X129.317 Y92.667 E12.41437
G1 X129.839 Y93.403 E12.44439
G1 X130.294 Y94.183 E12.47442
G1 X130.619 Y94.861 E12.49943
G1 X130.743 Y95.146 E12.50977
G1 X130.929 Y95.594 E12.5259
G1 X131.235 Y96.444 E12.55595
G1 X131.464 Y97.317 E12.58596
G1 X131.559 Y97.821 E12.60302
G1 X131.667 Y98.484 E12.62536
G1 X132.12 Y101.061 E12.71239
G1 X132.634 Y103.569 E12.79754
G1 X132.951 Y104.964 E12.84512
G1 X133.032 Y105.348 E12.85817
G1 X133.081 Y105.6 E12.86671
G1 X133.195 Y106.232 E12.88807
G1 X133.264 Y106.661 E12.90252
G1 X133.331 Y107.188 E12.92019
G1 X133.396 Y107.832 E12.94172
G1 X133.421 Y108.108 E12.95094
G1 X133.451 Y108.516 E12.96455
G1 X133.476 Y109.076 E12.98319
G1 X133.496 Y110.162 E13.01932
G1 X133.485 Y110.871 E13.0429
G1 X133.462 Y111.321 E13.05789
G1 X133.444 Y111.599 E13.06715
G1 X133.415 Y111.968 E13.07946
G1 X133.366 Y112.456 E13.09578
G1 X133.317 Y112.87 E13.10964
G1 X133.286 Y113.101 E13.11739
G1 X133.207 Y113.641 E13.13555
G1 X133.133 Y114.079 E13.15032
G1 X132.987 Y114.843 E13.17619
G1 X132.924 Y115.145 E13.18645
