;FLAVOR:Marlin
;TIME:1563
;Filament used: 0.655435m
;Layer height: 0.2
;MINX:77.248
;MINY:94.947
;MINZ:0.2
;MAXX:139.642
;MAXY:125.305
;MAXZ:21
;Generated with Cura_SteamEngine 4.11.0
M140 S60
M105
M190 S60
M104 S210
M105
M109 S210
M82 ;absolute extrusion mode
; Ender 3 Custom Start G-code
G92 E0 ; Reset Extruder
G28 ; Home all axes
M420 S1 ; Enable ABL Mesh after G28
G1 Z2.0 F3000 ; Move Z Axis up little to prevent scratching of Heat Bed
G1 X0.1 Y20 Z0.3 F5000.0 ; Move to start position
G1 X0.1 Y200.0 Z0.3 F1500.0 E15 ; Draw the first line
G1 X0.4 Y200.0 Z0.3 F5000.0 ; Move to side a little
G1 X0.4 Y20 Z0.3 F1500.0 E30 ; Draw the second line
G92 E0 ; Reset Extruder
G1 Z2.0 F3000 ; Move Z Axis up little to prevent scratching of Heat Bed
G1 X5 Y20 Z0.3 F5000.0 ; Move over to prevent blob squish
G92 E0
G92 E0
G1 F1500 E-6.5
;LAYER_COUNT:105
;LAYER:0
M107
G0 F6000 X83.093 Y98.498 Z0.2
;TYPE:SKIRT
G1 F1500 E0
G1 F1200 X83.248 Y98.382 E0.00644
G1 X83.652 Y98.094 E0.02294
G1 X83.971 Y97.877 E0.03577
G1 X84.834 Y97.346 E0.06947
G1 X85.107 Y97.195 E0.07985
G1 X85.674 Y96.903 E0.10106
G1 X85.968 Y96.762 E0.11191
G1 X86.52 Y96.515 E0.13202
G1 X87.501 Y96.158 E0.16674
G1 X87.89 Y96.037 E0.18029
G1 X88.299 Y95.919 E0.19445
G1 X88.548 Y95.852 E0.20303
G1 X89.275 Y95.682 E0.22786
G1 X89.432 Y95.651 E0.23318
G1 X90.098 Y95.541 E0.25563
G1 X90.351 Y95.507 E0.26413
G1 X90.889 Y95.448 E0.28213
G1 X91.019 Y95.437 E0.28647
G1 X91.608 Y95.403 E0.30609
G1 X91.868 Y95.395 E0.31474
G1 X92.613 Y95.398 E0.33952
G1 X92.883 Y95.408 E0.34851
G1 X93.803 Y95.48 E0.3792
G1 X95.062 Y95.633 E0.42138
G1 X95.296 Y95.664 E0.42923
G1 X95.736 Y95.727 E0.44402
G1 X98.215 Y96.008 E0.527
G1 X100.761 Y96.224 E0.61198
G1 X103.22 Y96.364 E0.6939
G1 X105.778 Y96.436 E0.77901
G1 X108.266 Y96.436 E0.86176
G1 X110.825 Y96.364 E0.94691
G1 X113.308 Y96.223 E1.02963
G1 X115.818 Y96.009 E1.11341
G1 X118.288 Y95.728 E1.1961
G1 X120.81 Y95.369 E1.28082
G1 X122.264 Y95.139 E1.32979
G1 X122.55 Y95.098 E1.33939
G1 X122.933 Y95.048 E1.35224
G1 X123.503 Y94.988 E1.3713
G1 X124.079 Y94.955 E1.39049
G1 X124.339 Y94.947 E1.39915
G1 X125.04 Y94.948 E1.42246
G1 X125.252 Y94.955 E1.42952
G1 X125.863 Y94.992 E1.44988
G1 X126.043 Y95.008 E1.45589
G1 X126.774 Y95.098 E1.48038
G1 X127.271 Y95.176 E1.49711
G1 X128.623 Y95.476 E1.54318
G1 X129.017 Y95.59 E1.55682
G1 X129.567 Y95.765 E1.57602
G1 X129.688 Y95.807 E1.58028
G1 X130.364 Y96.067 E1.60436
G1 X130.681 Y96.201 E1.61581
G1 X131.291 Y96.481 E1.63814
G1 X131.438 Y96.554 E1.64359
G1 X132.025 Y96.868 E1.66574
G1 X132.253 Y96.999 E1.67448
G1 X132.963 Y97.444 E1.70235
G1 X133.176 Y97.589 E1.71092
G1 X133.878 Y98.108 E1.73996
G1 X134.245 Y98.403 E1.75562
G1 X134.95 Y99.022 E1.78682
G1 X135.319 Y99.391 E1.80418
G1 X135.559 Y99.643 E1.81575
G1 X135.957 Y100.084 E1.83551
G1 X136.168 Y100.331 E1.84632
G1 X136.597 Y100.867 E1.86915
G1 X136.873 Y101.24 E1.88458
G1 X137.012 Y101.435 E1.89255
G1 X137.578 Y102.315 E1.92735
G1 X137.715 Y102.552 E1.93645
G1 X138.218 Y103.531 E1.97306
G1 X138.39 Y103.912 E1.98697
G1 X138.738 Y104.779 E2.01804
G1 X138.835 Y105.054 E2.02774
G1 X139.082 Y105.851 E2.05549
G1 X139.134 Y106.044 E2.06214
G1 X139.219 Y106.38 E2.07367
G1 X139.286 Y106.664 E2.08337
G1 X139.472 Y107.652 E2.11681
G1 X139.522 Y108.006 E2.1287
G1 X139.605 Y108.798 E2.15519
G1 X139.619 Y109.004 E2.16205
G1 X139.642 Y109.961 E2.19389
G1 X139.637 Y110.222 E2.20258
G1 X139.601 Y110.928 E2.22609
G1 X139.557 Y111.454 E2.24364
G1 X139.429 Y112.44 E2.27671
G1 X139.393 Y112.645 E2.28364
G1 X139.184 Y113.589 E2.31579
G1 X139.087 Y113.951 E2.32826
G1 X138.79 Y114.891 E2.36105
G1 X138.669 Y115.221 E2.37274
G1 X138.32 Y116.063 E2.40305
G1 X138.23 Y116.257 E2.41017
G1 X137.856 Y116.989 E2.43751
G1 X137.621 Y117.41 E2.45354
G1 X137.188 Y118.122 E2.48126
G1 X137.09 Y118.27 E2.48716
G1 X136.669 Y118.862 E2.51132
G1 X136.538 Y119.034 E2.51851
G1 X136.096 Y119.577 E2.5418
G1 X135.952 Y119.743 E2.54911
G1 X135.672 Y120.054 E2.56303
G1 X135.48 Y120.259 E2.57237
G1 X134.905 Y120.829 E2.5993
G1 X134.765 Y120.958 E2.60563
G1 X134.288 Y121.373 E2.62666
G1 X134.054 Y121.565 E2.63673
G1 X133.648 Y121.883 E2.65388
G1 X133.55 Y121.956 E2.65795
G1 X133.081 Y122.287 E2.67704
G1 X132.877 Y122.423 E2.68519
G1 X131.973 Y122.964 E2.72023
G1 X131.572 Y123.179 E2.73537
G1 X130.681 Y123.607 E2.76824
G1 X130.265 Y123.784 E2.78328
G1 X129.368 Y124.12 E2.81514
G1 X129.276 Y124.15 E2.81836
G1 X128.818 Y124.289 E2.83428
G1 X128.599 Y124.35 E2.84184
G1 X128.141 Y124.467 E2.85756
G1 X127.528 Y124.597 E2.8784
G1 X127.253 Y124.647 E2.8877
G1 X126.59 Y124.746 E2.90999
G1 X126.339 Y124.776 E2.9184
G1 X125.336 Y124.85 E2.95185
G1 X124.826 Y124.864 E2.96882
G1 X123.82 Y124.845 E3.00229
G1 X123.664 Y124.835 E3.00749
G1 X123.236 Y124.8 E3.02177
G1 X122.743 Y124.749 E3.03825
G1 X122.183 Y124.682 E3.05701
G1 X120.42 Y124.446 E3.11617
G1 X117.916 Y124.182 E3.19992
G1 X115.389 Y123.988 E3.28421
G1 X112.891 Y123.867 E3.36739
G1 X110.372 Y123.817 E3.45119
G1 X107.845 Y123.838 E3.53524
G1 X105.334 Y123.929 E3.61882
G1 X102.799 Y124.095 E3.70331
G1 X100.315 Y124.327 E3.78629
G1 X97.833 Y124.629 E3.86945
G1 X95.084 Y125.045 E3.96192
G1 X94.538 Y125.136 E3.98033
G1 X94.003 Y125.212 E3.99831
G1 X93.891 Y125.225 E4.00206
G1 X92.86 Y125.295 E4.03643
G1 X92.443 Y125.304 E4.0503
G1 X92.022 Y125.305 E4.0643
G1 X91.664 Y125.299 E4.07621
G1 X90.536 Y125.222 E4.11381
G1 X90.278 Y125.191 E4.12246
G1 X89.505 Y125.071 E4.14847
G1 X89.303 Y125.032 E4.15532
G1 X88.5 Y124.845 E4.18274
G1 X88.364 Y124.808 E4.18743
G1 X88.011 Y124.706 E4.19965
G1 X87.518 Y124.554 E4.21681
G1 X86.229 Y124.066 E4.26265
G1 X85.886 Y123.911 E4.27517
G1 X84.715 Y123.294 E4.31919
G1 X84.248 Y123.011 E4.33735
G1 X83.449 Y122.478 E4.3693
G1 X83.206 Y122.3 E4.37932
G1 X82.336 Y121.592 E4.41663
G1 X82.172 Y121.444 E4.42397
G1 X81.9 Y121.19 E4.43635
G1 X81.637 Y120.936 E4.44851
G1 X80.991 Y120.257 E4.47968
G1 X80.599 Y119.766 E4.50058
G1 X80.593 Y119.771 E4.50084
G1 X80.205 Y119.272 E4.52186
G1 X79.632 Y118.461 E4.55489
G1 X79.335 Y117.98 E4.57369
G1 X79.224 Y117.789 E4.58104
G1 X79.004 Y117.391 E4.59617
G1 X78.936 Y117.262 E4.60102
G1 X78.692 Y116.77 E4.61928
G1 X78.573 Y116.514 E4.62867
G1 X78.278 Y115.818 E4.65381
G1 X78.245 Y115.732 E4.65688
G1 X78.017 Y115.078 E4.67991
G1 X77.95 Y114.864 E4.68737
G1 X77.831 Y114.456 E4.70151
G1 X77.687 Y113.925 E4.71981
G1 X77.408 Y112.552 E4.76641
G1 X77.391 Y112.429 E4.77054
G1 X77.323 Y111.809 E4.79128
G1 X77.283 Y111.314 E4.8078
G1 X77.248 Y110.272 E4.84247
G1 X77.251 Y110.061 E4.84949
G1 X77.298 Y109.188 E4.87857
G1 X77.326 Y108.89 E4.88853
G1 X77.413 Y108.201 E4.91162
G1 X77.478 Y107.79 E4.92546
G1 X77.648 Y106.936 E4.95443
G1 X77.692 Y106.753 E4.96069
G1 X77.85 Y106.168 E4.98084
G1 X77.927 Y105.911 E4.98976
G1 X78.239 Y105.012 E5.02141
G1 X78.358 Y104.712 E5.03215
G1 X78.762 Y103.814 E5.0649
G1 X78.992 Y103.358 E5.08189
G1 X79.589 Y102.318 E5.12177
G1 X79.756 Y102.061 E5.13196
G1 X80.521 Y101.023 E5.17485
G1 X80.861 Y100.614 E5.19254
G1 X81.8 Y99.618 E5.23807
G1 X82.164 Y99.277 E5.25466
G1 X83.093 Y98.498 E5.29498
G0 F6000 X83.333 Y98.818
G1 F1200 X83.488 Y98.702 E5.30142
G1 X83.877 Y98.425 E5.31731
G1 X84.196 Y98.208 E5.33014
G1 X85.028 Y97.696 E5.36263
G1 X85.301 Y97.545 E5.37301
G1 X85.847 Y97.263 E5.39345
G1 X86.141 Y97.122 E5.40429
G1 X86.675 Y96.884 E5.42374
G1 X87.62 Y96.54 E5.45718
G1 X88.009 Y96.419 E5.47073
G1 X88.403 Y96.305 E5.48438
G1 X88.652 Y96.238 E5.49295
G1 X89.353 Y96.075 E5.51689
G1 X89.51 Y96.044 E5.52221
G1 X90.151 Y95.937 E5.54383
G1 X90.404 Y95.903 E5.55232
G1 X90.922 Y95.847 E5.56965
G1 X91.052 Y95.836 E5.57399
G1 X91.62 Y95.803 E5.59291
G1 X91.88 Y95.795 E5.60156
G1 X92.598 Y95.797 E5.62544
G1 X92.868 Y95.807 E5.63443
G1 X93.755 Y95.877 E5.66402
G1 X95.014 Y96.03 E5.7062
G1 X95.239 Y96.06 E5.71375
G1 X95.7 Y96.126 E5.72924
G1 X98.172 Y96.407 E5.81199
G1 X100.703 Y96.621 E5.89647
G1 X103.222 Y96.764 E5.98039
G1 X105.767 Y96.836 E6.06507
G1 X108.277 Y96.836 E6.14855
G1 X110.823 Y96.764 E6.23327
G1 X113.327 Y96.622 E6.31669
G1 X115.864 Y96.406 E6.40137
G1 X118.353 Y96.123 E6.48469
G1 X120.962 Y95.75 E6.57235
G1 X122.327 Y95.534 E6.61831
G1 X122.602 Y95.494 E6.62756
G1 X122.985 Y95.444 E6.6404
G1 X123.537 Y95.387 E6.65886
G1 X124.091 Y95.355 E6.67732
G1 X124.351 Y95.347 E6.68597
G1 X125.027 Y95.348 E6.70845
G1 X125.239 Y95.355 E6.71551
G1 X125.828 Y95.391 E6.73513
G1 X126.008 Y95.407 E6.74114
G1 X126.712 Y95.493 E6.76473
G1 X127.209 Y95.571 E6.78147
G1 X128.512 Y95.861 E6.82586
G1 X128.906 Y95.975 E6.83951
G1 X129.436 Y96.143 E6.858
G1 X129.557 Y96.185 E6.86226
G1 X130.208 Y96.435 E6.88545
G1 X130.525 Y96.569 E6.8969
G1 X131.113 Y96.839 E6.91842
G1 X131.26 Y96.912 E6.92388
G1 X131.826 Y97.215 E6.94523
G1 X132.054 Y97.346 E6.95398
G1 X132.738 Y97.775 E6.98083
G1 X132.951 Y97.92 E6.9894
G1 X133.627 Y98.42 E7.01737
G1 X133.994 Y98.715 E7.03303
G1 X134.686 Y99.323 E7.06367
G1 X135.029 Y99.667 E7.07982
G1 X135.269 Y99.919 E7.0914
G1 X135.653 Y100.344 E7.11045
G1 X135.864 Y100.591 E7.12125
G1 X136.277 Y101.107 E7.14324
G1 X136.548 Y101.472 E7.15836
G1 X136.687 Y101.667 E7.16632
G1 X137.232 Y102.515 E7.19985
G1 X137.369 Y102.752 E7.20895
G1 X137.853 Y103.696 E7.24424
G1 X138.025 Y104.077 E7.25814
G1 X138.36 Y104.912 E7.28807
G1 X138.457 Y105.187 E7.29776
G1 X138.696 Y105.955 E7.32452
G1 X138.748 Y106.148 E7.33116
G1 X138.83 Y106.472 E7.34228
G1 X138.897 Y106.756 E7.35199
G1 X139.076 Y107.708 E7.3842
G1 X139.126 Y108.062 E7.3961
G1 X139.206 Y108.825 E7.42161
G1 X139.22 Y109.031 E7.42848
G1 X139.242 Y109.953 E7.45915
G1 X139.237 Y110.214 E7.46784
G1 X139.202 Y110.895 E7.49052
G1 X139.158 Y111.421 E7.50807
G1 X139.035 Y112.37 E7.5399
G1 X138.999 Y112.575 E7.54682
G1 X138.798 Y113.486 E7.57785
G1 X138.701 Y113.848 E7.59032
G1 X138.414 Y114.753 E7.62189
G1 X138.293 Y115.083 E7.63358
G1 X137.957 Y115.895 E7.66281
G1 X137.867 Y116.089 E7.66993
G1 X137.507 Y116.794 E7.69625
G1 X137.272 Y117.215 E7.71229
G1 X136.854 Y117.901 E7.73901
G1 X136.756 Y118.049 E7.74491
G1 X136.351 Y118.62 E7.7682
G1 X136.22 Y118.792 E7.77539
G1 X135.794 Y119.315 E7.79782
G1 X135.65 Y119.481 E7.80513
G1 X135.38 Y119.781 E7.81856
G1 X135.188 Y119.986 E7.8279
G1 X134.634 Y120.535 E7.85384
G1 X134.494 Y120.664 E7.86017
G1 X134.035 Y121.064 E7.88042
G1 X133.801 Y121.256 E7.89049
G1 X133.409 Y121.562 E7.90703
G1 X133.311 Y121.635 E7.91109
G1 X132.859 Y121.954 E7.92949
G1 X132.655 Y122.09 E7.93765
G1 X131.784 Y122.612 E7.97142
G1 X131.383 Y122.827 E7.98655
G1 X130.524 Y123.239 E8.01824
G1 X130.108 Y123.416 E8.03328
G1 X129.244 Y123.74 E8.06397
G1 X129.152 Y123.77 E8.06719
G1 X128.71 Y123.903 E8.08254
G1 X128.491 Y123.964 E8.0901
G1 X128.047 Y124.078 E8.10535
G1 X127.456 Y124.203 E8.12544
G1 X127.181 Y124.253 E8.13474
G1 X126.543 Y124.349 E8.15619
G1 X126.292 Y124.379 E8.1646
G1 X125.325 Y124.45 E8.19685
G1 X124.815 Y124.464 E8.21382
G1 X123.846 Y124.446 E8.24605
G1 X123.69 Y124.436 E8.25125
G1 X123.277 Y124.402 E8.26504
G1 X122.784 Y124.351 E8.28152
G1 X122.232 Y124.285 E8.30001
G1 X120.443 Y124.046 E8.36004
G1 X117.955 Y123.783 E8.44326
G1 X115.437 Y123.591 E8.52725
G1 X112.884 Y123.467 E8.61226
G1 X110.377 Y123.417 E8.69566
G1 X107.827 Y123.438 E8.78048
G1 X105.329 Y123.529 E8.86362
G1 X102.772 Y123.696 E8.94884
G1 X100.266 Y123.93 E9.03256
G1 X97.758 Y124.235 E9.11659
G1 X95.093 Y124.639 E9.20624
G1 X94.472 Y124.742 E9.22717
G1 X93.957 Y124.814 E9.24447
G1 X93.845 Y124.827 E9.24822
G1 X92.852 Y124.896 E9.28133
G1 X92.435 Y124.905 E9.2952
G1 X92.028 Y124.906 E9.30874
G1 X91.67 Y124.9 E9.32065
G1 X90.583 Y124.825 E9.35689
G1 X90.325 Y124.794 E9.36553
G1 X89.581 Y124.678 E9.39057
G1 X89.379 Y124.639 E9.39742
G1 X88.605 Y124.459 E9.42385
G1 X88.469 Y124.422 E9.42853
G1 X88.129 Y124.323 E9.44031
G1 X87.636 Y124.171 E9.45747
G1 X86.394 Y123.702 E9.50163
G1 X86.051 Y123.547 E9.51415
G1 X84.922 Y122.952 E9.55659
G1 X84.455 Y122.669 E9.57475
G1 X83.685 Y122.155 E9.60555
G1 X83.442 Y121.977 E9.61556
G1 X82.604 Y121.295 E9.6515
G1 X82.44 Y121.147 E9.65885
G1 X82.178 Y120.903 E9.67076
G1 X81.915 Y120.649 E9.68292
G1 X81.281 Y119.981 E9.71355
G1 X80.915 Y119.521 E9.7331
G1 X80.909 Y119.526 E9.73336
G1 X80.521 Y119.027 E9.75438
G1 X79.968 Y118.245 E9.78624
G1 X79.925 Y118.178 E9.78889
G1 X79.681 Y117.779 E9.80444
G1 X79.57 Y117.588 E9.81179
G1 X79.358 Y117.205 E9.82635
G1 X79.29 Y117.076 E9.8312
G1 X79.055 Y116.601 E9.84883
G1 X78.936 Y116.345 E9.85822
G1 X78.652 Y115.674 E9.88245
G1 X78.619 Y115.588 E9.88551
G1 X78.399 Y114.958 E9.90771
G1 X78.332 Y114.744 E9.91517
G1 X78.218 Y114.351 E9.92878
G1 X78.074 Y113.82 E9.94708
G1 X77.804 Y112.497 E9.99199
G1 X77.787 Y112.374 E9.99612
G1 X77.721 Y111.777 E10.01609
G1 X77.681 Y111.282 E10.03261
G1 X77.648 Y110.277 E10.06605
G1 X77.651 Y110.066 E10.07307
G1 X77.696 Y109.225 E10.10109
G1 X77.724 Y108.927 E10.11104
G1 X77.808 Y108.263 E10.1333
G1 X77.873 Y107.852 E10.14714
G1 X78.037 Y107.03 E10.17502
G1 X78.081 Y106.847 E10.18128
G1 X78.233 Y106.283 E10.20071
G1 X78.31 Y106.026 E10.20963
G1 X78.611 Y105.16 E10.24012
G1 X78.73 Y104.86 E10.25086
G1 X79.119 Y103.994 E10.28243
G1 X79.349 Y103.538 E10.29942
G1 X79.925 Y102.536 E10.33786
G1 X80.092 Y102.279 E10.34806
G1 X80.829 Y101.279 E10.38937
G1 X81.169 Y100.87 E10.40706
G1 X82.073 Y99.91 E10.45092
G1 X82.437 Y99.569 E10.46751
G1 X83.333 Y98.818 E10.5064
G0 F6000 X83.572 Y99.139
G1 F1200 X83.727 Y99.023 E10.51283
G1 X84.102 Y98.755 E10.52816
G1 X84.421 Y98.538 E10.541
G1 X85.221 Y98.046 E10.57223
G1 X85.494 Y97.895 E10.58261
G1 X86.02 Y97.624 E10.60229
G1 X86.314 Y97.483 E10.61314
G1 X86.829 Y97.253 E10.6319
G1 X87.738 Y96.922 E10.66407
G1 X88.127 Y96.801 E10.67762
G1 X88.507 Y96.691 E10.69078
G1 X88.756 Y96.624 E10.69935
G1 X89.43 Y96.467 E10.72237
G1 X89.587 Y96.436 E10.72769
G1 X90.204 Y96.334 E10.74849
G1 X90.457 Y96.3 E10.75699
G1 X90.956 Y96.245 E10.77368
G1 X91.086 Y96.234 E10.77802
G1 X91.632 Y96.203 E10.79621
G1 X91.892 Y96.195 E10.80486
G1 X92.584 Y96.197 E10.82788
G1 X92.854 Y96.207 E10.83687
G1 X93.707 Y96.274 E10.86532
G1 X94.966 Y96.427 E10.90751
G1 X95.631 Y96.52 E10.92984
G1 X98.129 Y96.804 E11.01346
G1 X100.682 Y97.02 E11.09867
G1 X103.222 Y97.164 E11.18329
G1 X105.756 Y97.236 E11.26761
G1 X108.289 Y97.236 E11.35185
G1 X110.822 Y97.164 E11.43614
G1 X113.383 Y97.019 E11.52145
G1 X115.872 Y96.807 E11.60454
G1 X118.458 Y96.513 E11.6911
G1 X120.922 Y96.163 E11.77388
G1 X121.175 Y96.12 E11.78241
G1 X122.389 Y95.929 E11.82329
G1 X122.654 Y95.891 E11.83219
G1 X123.037 Y95.841 E11.84504
G1 X123.57 Y95.785 E11.86286
G1 X124.103 Y95.755 E11.88062
G1 X124.363 Y95.747 E11.88927
G1 X125.014 Y95.748 E11.91092
G1 X125.226 Y95.755 E11.91798
G1 X125.792 Y95.789 E11.93684
G1 X125.972 Y95.805 E11.94285
G1 X126.65 Y95.888 E11.96557
G1 X127.147 Y95.966 E11.9823
G1 X128.401 Y96.245 E12.02503
G1 X128.795 Y96.359 E12.03867
G1 X129.305 Y96.521 E12.05647
G1 X129.426 Y96.563 E12.06073
G1 X130.052 Y96.804 E12.08304
G1 X130.369 Y96.938 E12.09448
G1 X130.935 Y97.197 E12.11519
G1 X131.082 Y97.27 E12.12065
G1 X131.626 Y97.562 E12.14118
G1 X131.854 Y97.693 E12.14993
G1 X132.513 Y98.105 E12.17578
G1 X132.726 Y98.25 E12.18435
G1 X133.376 Y98.732 E12.21126
G1 X133.743 Y99.027 E12.22692
G1 X134.739 Y99.943 E12.27193
G1 X134.979 Y100.195 E12.2835
G1 X135.348 Y100.604 E12.30182
G1 X135.559 Y100.851 E12.31263
G1 X135.957 Y101.347 E12.33378
G1 X136.222 Y101.704 E12.34857
G1 X136.361 Y101.899 E12.35653
G1 X136.886 Y102.715 E12.38881
G1 X137.023 Y102.952 E12.39791
G1 X137.489 Y103.86 E12.43186
G1 X137.661 Y104.241 E12.44576
G1 X137.983 Y105.045 E12.47456
G1 X138.08 Y105.32 E12.48426
G1 X138.31 Y106.059 E12.51001
G1 X138.362 Y106.252 E12.51665
G1 X138.44 Y106.564 E12.52735
G1 X138.507 Y106.848 E12.53706
G1 X138.68 Y107.763 E12.56803
G1 X138.73 Y108.117 E12.57992
G1 X138.807 Y108.852 E12.6045
G1 X138.821 Y109.058 E12.61137
G1 X138.842 Y109.945 E12.64088
G1 X138.837 Y110.206 E12.64956
G1 X138.803 Y110.861 E12.67137
G1 X138.759 Y111.387 E12.68893
G1 X138.641 Y112.301 E12.71958
G1 X138.605 Y112.506 E12.7265
G1 X138.411 Y113.382 E12.75635
